public/luts/Cinematic_Teal.cube
# © 2026 luttie. All rights reserved.
# This LUT is licensed for use within the luttie platform only.
# Unauthorized redistribution or resale is prohibited.
TITLE "Cinematic Teal & Orange"
LUT_3D_SIZE 9
0.000000 0.000000 0.060805
0.082575 0.000000 0.069095
0.193724 0.000000 0.076695
0.305290 0.000172 0.083413
0.417350 0.003026 0.089084
0.529966 0.006018 0.093587
0.643176 0.009154 0.096847
0.756999 0.012430 0.098842
0.871428 0.015836 0.099605
0.000000 0.111196 0.085606
0.088235 0.114099 0.090864
0.201064 0.117143 0.094920
0.314497 0.120331 0.097719
0.428542 0.123656 0.099260
0.543187 0.127105 0.099590
0.658399 0.130654 0.098807
0.774132 0.134277 0.097041
0.890330 0.137937 0.094449
0.000000 0.231526 0.098424
0.100165 0.234898 0.099516
0.215021 0.238387 0.099428
0.330429 0.241966 0.098270
0.446338 0.245607 0.096184
0.562691 0.249272 0.093333
0.679433 0.252925 0.089885
0.796508 0.256525 0.086004
0.913871 0.260035 0.081838
0.002525 0.353287 0.097610
0.118602 0.356940 0.095226
0.235104 0.360606 0.092138
0.351972 0.364244 0.088514
0.469157 0.367815 0.084513
0.586617 0.371283 0.080276
0.704319 0.374615 0.075919
0.822240 0.377785 0.071533
0.940363 0.380773 0.067185
0.024554 0.475553 0.087093
0.141843 0.479091 0.082991
0.259394 0.482514 0.078699
0.377178 0.485789 0.074322
0.495175 0.488895 0.069943
0.613368 0.491813 0.065620
0.731739 0.494538 0.061395
0.850265 0.497073 0.057300
0.968906 0.499433 0.053369
0.050066 0.596941 0.072725
0.168136 0.599979 0.068360
0.286396 0.602828 0.064069
0.404827 0.605483 0.059888
0.523400 0.607952 0.055848
0.642071 0.610252 0.051985
0.760778 0.612413 0.048343
0.879437 0.614473 0.044980
0.997943 0.616476 0.041977
0.077933 0.716402 0.058399
0.196548 0.718807 0.054420
0.315241 0.721054 0.050631
0.433942 0.723173 0.047082
0.552558 0.725206 0.043841
0.670977 0.727201 0.040991
0.789071 0.729212 0.038634
0.906700 0.731295 0.036882
1.000000 0.733503 0.035851
0.107094 0.833920 0.045863
0.225652 0.835934 0.042753
0.343969 0.837929 0.040070
0.461910 0.839959 0.037920
0.579335 0.842081 0.036417
0.696108 0.844348 0.035677
0.812104 0.846807 0.035803
0.927222 0.849497 0.036881
1.000000 0.852447 0.038967
0.134680 0.950718 0.037292
0.251883 0.952887 0.036053
0.368387 0.955218 0.035617
0.484073 0.957758 0.036082
0.598852 0.960540 0.037522
0.712668 0.963589 0.039982
0.825504 0.966914 0.043467
0.937387 0.970512 0.047943
1.000000 0.974367 0.053334
0.000000 0.000000 0.173685
0.082924 0.000000 0.181764
0.194205 0.000000 0.189085
0.305931 0.001126 0.195463
0.418174 0.004026 0.200749
0.530988 0.007067 0.204836
0.644406 0.010251 0.207666
0.758436 0.013573 0.209237
0.873067 0.017019 0.209596
0.000000 0.112166 0.197521
0.089130 0.115117 0.202380
0.202161 0.118210 0.206013
0.315802 0.121445 0.208382
0.430054 0.124814 0.209504
0.544896 0.128300 0.209443
0.660290 0.131878 0.208310
0.776188 0.135517 0.206245
0.892531 0.139183 0.203411
0.000000 0.232657 0.208932
0.101750 0.236071 0.209614
0.216798 0.239593 0.209148
0.332382 0.243198 0.207658
0.448448 0.246851 0.205293
0.564940 0.250516 0.202221
0.681800 0.254155 0.198608
0.798978 0.257729 0.194615
0.916431 0.261200 0.190382
0.004538 0.354524 0.206890
0.120766 0.358186 0.204248
0.237398 0.361846 0.200959
0.354379 0.365466 0.197190
0.471661 0.369006 0.193095
0.589206 0.372432 0.188805
0.706985 0.375711 0.184429
0.824977 0.378821 0.180050
0.943165 0.381744 0.175725
0.026998 0.476766 0.195729
0.144380 0.480268 0.191549
0.262013 0.483644 0.187217
0.379871 0.486864 0.182832
0.497936 0.489907 0.178466
0.616192 0.492760 0.174173
0.734619 0.495420 0.169988
0.853189 0.497893 0.165945
0.971858 0.500198 0.162077
0.052784 0.597993 0.181237
0.170921 0.600968 0.176893
0.289241 0.603751 0.172635
0.407724 0.606341 0.168498
0.526336 0.608751 0.164515
0.645028 0.611000 0.160721
0.763729 0.613122 0.157166
0.882349 0.615157 0.153916
1.000000 0.617152 0.151055
0.080847 0.717239 0.167029
0.199495 0.719587 0.163109
0.318199 0.721786 0.159396
0.436882 0.723870 0.155943
0.555445 0.725885 0.152824
0.673769 0.727880 0.150130
0.791721 0.729909 0.147965
0.909161 0.732028 0.146445
1.000000 0.734290 0.145685
0.110020 0.834609 0.154765
0.228510 0.836611 0.151789
0.346714 0.838611 0.149274
0.464496 0.840667 0.147331
0.581715 0.842832 0.146075
0.698237 0.845159 0.145617
0.813944 0.847693 0.146059
0.928747 0.850469 0.147475
1.000000 0.853511 0.149910
0.137197 0.951440 0.146788
0.254177 0.953658 0.145810
0.370414 0.956055 0.145670
0.485801 0.958674 0.146458
0.600258 0.961544 0.148242
0.713740 0.964687 0.151052
0.826248 0.968106 0.154879
0.937820 0.971794 0.159676
1.000000 0.975729 0.165355
0.000000 0.000000 0.286501
0.083315 0.000000 0.294345
0.194737 0.000000 0.301365
0.306631 0.002096 0.307387
0.419063 0.005043 0.312275
0.532080 0.008133 0.315939
0.645706 0.011365 0.318339
0.759943 0.014731 0.319491
0.874770 0.018214 0.319458
0.000000 0.113153 0.309304
0.090092 0.116151 0.313754
0.203329 0.119293 0.316959
0.317178 0.122575 0.318901
0.431633 0.125986 0.319611
0.546668 0.129506 0.319172
0.662239 0.133109 0.317705
0.778295 0.136761 0.315360
0.894777 0.140427 0.312303
0.000000 0.233803 0.319298
0.103401 0.237256 0.319579
0.218637 0.240810 0.318750
0.334391 0.244435 0.316945
0.450608 0.248096 0.314321
0.567231 0.251757 0.311046
0.684205 0.255378 0.307287
0.801480 0.258921 0.303198
0.919019 0.262349 0.298911
0.006604 0.355765 0.316076
0.122976 0.359431 0.313195
0.239732 0.363082 0.309725
0.356821 0.366679 0.305829
0.474196 0.370184 0.301654
0.591823 0.373563 0.297324
0.709676 0.376787 0.292939
0.827737 0.379835 0.288572
0.945988 0.382693 0.284276
0.029475 0.477967 0.304334
0.146945 0.481430 0.300089
0.264657 0.484756 0.295730
0.382588 0.487918 0.291344
0.500719 0.490898 0.286998
0.619036 0.493685 0.282738
0.737515 0.496280 0.278598
0.856124 0.498694 0.274610
0.974815 0.500947 0.270811
0.055526 0.599025 0.289755
0.173727 0.601935 0.285435
0.292105 0.604652 0.281215
0.410636 0.607179 0.277127
0.529282 0.609531 0.273203
0.647986 0.611733 0.269484
0.766671 0.613820 0.266024
0.885238 0.615836 0.262896
1.000000 0.617831 0.260190
0.083773 0.718055 0.275677
0.202448 0.720349 0.271823
0.321155 0.722504 0.268191
0.439809 0.724560 0.264842
0.558305 0.726562 0.261857
0.676518 0.728562 0.259330
0.794312 0.730615 0.257371
0.911546 0.732777 0.256096
1.000000 0.735100 0.255618
0.112927 0.835292 0.263709
0.231335 0.837287 0.260878
0.349412 0.839300 0.258545
0.467018 0.841387 0.256822
0.584014 0.843602 0.255824
0.700272 0.845994 0.255662
0.815680 0.848607 0.256427
0.930160 0.851471 0.258186
1.000000 0.854607 0.260971
0.139642 0.952176 0.256368
0.256384 0.954450 0.255663
0.372344 0.956918 0.255829
0.487422 0.959619 0.256950
0.601551 0.962581 0.259081
0.714700 0.965817 0.262239
0.826883 0.969329 0.266403
0.938155 0.973104 0.271511
1.000000 0.977116 0.277463
0.000000 0.000000 0.399245
0.083750 0.000000 0.406831
0.195324 0.000224 0.413530
0.307394 0.003081 0.419180
0.420020 0.006076 0.423660
0.533243 0.009215 0.426896
0.647077 0.012493 0.428868
0.761517 0.015901 0.429608
0.876538 0.019419 0.429196
0.000000 0.114155 0.420951
0.091123 0.117202 0.424984
0.204568 0.120392 0.427760
0.318624 0.123720 0.429277
0.433280 0.127171 0.429586
0.548502 0.130722 0.428782
0.664244 0.134345 0.426999
0.780451 0.138006 0.424394
0.897065 0.141668 0.421133
0.000000 0.234963 0.429525
0.105118 0.238453 0.429416
0.220535 0.242034 0.428239
0.336453 0.245676 0.426137
0.452815 0.249341 0.423273
0.569563 0.252993 0.419816
0.686644 0.256592 0.415928
0.804012 0.260100 0.411758
0.921634 0.263482 0.407431
0.008721 0.357009 0.425174
0.125230 0.360675 0.422074
0.242105 0.364311 0.418442
0.359295 0.367881 0.414435
0.476759 0.371347 0.410195
0.594466 0.374677 0.405837
0.712391 0.377843 0.401451
0.830518 0.380827 0.397103
0.948830 0.383619 0.392841
0.031983 0.479157 0.412912
0.149538 0.482577 0.408617
0.267327 0.485850 0.404240
0.385327 0.488951 0.399861
0.503524 0.491866 0.395540
0.621898 0.494588 0.391317
0.740426 0.497119 0.387225
0.859070 0.499476 0.383297
0.977773 0.501681 0.379572
0.058290 0.600035 0.398279
0.176553 0.602879 0.393989
0.294987 0.605531 0.389810
0.413562 0.607996 0.385774
0.532235 0.610294 0.381915
0.650942 0.612453 0.378277
0.769599 0.614511 0.374920
0.888100 0.616513 0.371925
1.000000 0.618513 0.369385
0.086711 0.718851 0.384346
0.205405 0.721094 0.380562
0.324105 0.723211 0.377018
0.442718 0.725243 0.373783
0.561133 0.727239 0.370942
0.679219 0.729251 0.368595
0.796838 0.731335 0.366855
0.913851 0.733546 0.365839
1.000000 0.735933 0.365655
0.115811 0.835971 0.372698
0.234122 0.837966 0.370024
0.352054 0.839998 0.367885
0.469469 0.842122 0.366396
0.586228 0.844392 0.365671
0.702208 0.846855 0.365814
0.817309 0.849550 0.366911
0.931461 0.852505 0.369016
1.000000 0.855735 0.372150
0.142012 0.952929 0.366037
0.258501 0.955264 0.365617
0.374172 0.957808 0.366100
0.488933 0.960595 0.367559
0.602730 0.963649 0.370038
0.715548 0.966979 0.373543
0.827413 0.970583 0.378036
0.938394 0.974441 0.383444
1.000000 0.978527 0.389654
0.000000 0.000000 0.511909
0.084233 0.000000 0.519214
0.195968 0.001180 0.525573
0.308221 0.004082 0.530837
0.421047 0.007126 0.534901
0.534476 0.010313 0.537707
0.648518 0.013637 0.539254
0.763159 0.017085 0.539592
0.878368 0.020634 0.538814
0.000000 0.115174 0.532460
0.092224 0.118270 0.536069
0.205877 0.121508 0.538415
0.320140 0.124879 0.539513
0.434992 0.128367 0.539431
0.550397 0.131946 0.538279
0.666303 0.135586 0.536198
0.782654 0.139252 0.533351
0.899394 0.142904 0.529906
0.000000 0.236136 0.539615
0.106898 0.239661 0.539129
0.222492 0.243266 0.537621
0.338567 0.246920 0.535242
0.455066 0.250585 0.532157
0.571933 0.254223 0.528536
0.689116 0.257795 0.524537
0.806574 0.261264 0.520301
0.924275 0.264597 0.515944
0.010887 0.358255 0.534191
0.127526 0.361915 0.530892
0.244514 0.365533 0.527116
0.361801 0.369072 0.523015
0.479351 0.372495 0.518723
0.597134 0.375771 0.514347
0.715129 0.378878 0.509968
0.833321 0.381797 0.505644
0.951692 0.384523 0.501419
0.034521 0.480333 0.521469
0.152158 0.483706 0.517135
0.270021 0.486923 0.512749
0.388090 0.489963 0.508385
0.506349 0.492812 0.504093
0.624779 0.495468 0.499911
0.743351 0.497938 0.495871
0.862022 0.500240 0.492006
0.980729 0.502402 0.488362
0.061075 0.601023 0.506812
0.179399 0.603801 0.502556
0.297885 0.606388 0.498422
0.416499 0.608794 0.494441
0.535192 0.611041 0.490652
0.653893 0.613161 0.487102
0.772510 0.615194 0.483858
0.890930 0.617190 0.481006
1.000000 0.619201 0.478646
0.089658 0.719629 0.493037
0.208363 0.721826 0.489328
0.327045 0.723909 0.485881
0.445605 0.725922 0.482769
0.563923 0.727917 0.480084
0.681866 0.729948 0.477930
0.799295 0.732069 0.476424
0.916072 0.734334 0.475678
1.000000 0.736792 0.475800
0.118668 0.836648 0.481737
0.236865 0.838649 0.479232
0.354637 0.840706 0.477301
0.471844 0.842874 0.476058
0.588352 0.845205 0.475617
0.704043 0.847743 0.476076
0.818828 0.850523 0.477511
0.932649 0.853571 0.479965
1.000000 0.856894 0.483445
0.144301 0.953701 0.475799
0.260524 0.956103 0.475676
0.375894 0.958725 0.476483
0.490332 0.961601 0.478285
0.603796 0.964749 0.481114
0.716286 0.968173 0.484961
0.827841 0.971866 0.489775
0.938544 0.975805 0.495470
1.000000 0.979959 0.501922
0.000000 0.000000 0.624485
0.084768 0.000000 0.631488
0.196672 0.002150 0.637490
0.309114 0.005100 0.642356
0.422143 0.008192 0.645996
0.535780 0.011427 0.648372
0.650028 0.014795 0.649501
0.764867 0.018280 0.649447
0.880258 0.021858 0.648319
0.000000 0.116209 0.643826
0.093396 0.119354 0.647008
0.207257 0.122638 0.648925
0.321723 0.126051 0.649613
0.436768 0.129573 0.649154
0.552349 0.133177 0.647669
0.668413 0.136830 0.645309
0.784902 0.140496 0.642240
0.901761 0.144135 0.638630
0.000000 0.237322 0.649573
0.108740 0.240877 0.648724
0.224504 0.244503 0.646903
0.340729 0.248165 0.644265
0.457359 0.251826 0.640979
0.574339 0.255446 0.637213
0.691620 0.258986 0.633118
0.809163 0.262413 0.628830
0.926941 0.265693 0.624454
0.013099 0.359500 0.643135
0.129863 0.363150 0.639655
0.246957 0.366746 0.635752
0.364337 0.370249 0.631573
0.481969 0.373625 0.627242
0.599826 0.376846 0.622857
0.717890 0.379891 0.618491
0.836145 0.382745 0.614197
0.954571 0.385406 0.610012
0.037088 0.481494 0.630008
0.154804 0.484817 0.625647
0.272739 0.487976 0.621262
0.390874 0.490952 0.616917
0.509194 0.493736 0.612659
0.627676 0.496327 0.608521
0.746287 0.498738 0.604537
0.864979 0.500988 0.600742
0.983680 0.503110 0.597185
0.063883 0.601988 0.615355
0.182264 0.604701 0.611137
0.300798 0.607225 0.607051
0.419446 0.609574 0.603131
0.538150 0.611773 0.599416
0.656834 0.613859 0.595962
0.775398 0.615874 0.592841
0.893723 0.617868 0.590144
1.000000 0.619897 0.587976
0.092611 0.720390 0.601752
0.211318 0.722544 0.598125
0.329971 0.724598 0.594783
0.448463 0.726599 0.591804
0.566669 0.728600 0.589287
0.684454 0.730655 0.587340
0.801676 0.732820 0.586080
0.918202 0.735145 0.585618
1.000000 0.737678 0.586054
0.121491 0.837325 0.590829
0.239559 0.839339 0.588506
0.357155 0.841428 0.586796
0.474139 0.843645 0.585813
0.590382 0.846041 0.585668
0.705774 0.848658 0.586451
0.820235 0.851528 0.588229
0.933723 0.854668 0.591033
1.000000 0.858086 0.594855
0.146504 0.954494 0.585658
0.262448 0.956967 0.585841
0.377509 0.959672 0.586981
0.491619 0.962639 0.589131
0.604750 0.965881 0.592308
0.716915 0.969398 0.596491
0.828170 0.973177 0.601616
0.938609 0.977194 0.607583
1.000000 0.981412 0.614260
0.000000 0.000000 0.736965
0.085358 0.000277 0.743646
0.197438 0.003136 0.749275
0.310075 0.006134 0.753732
0.423309 0.009275 0.756945
0.537155 0.012556 0.758893
0.651607 0.015967 0.759610
0.766638 0.019486 0.759178
0.882206 0.023088 0.757716
0.000000 0.117261 0.755048
0.094638 0.120454 0.757800
0.208706 0.123784 0.759293
0.323373 0.127237 0.759580
0.438606 0.130790 0.758757
0.554357 0.134414 0.756957
0.670572 0.138075 0.754338
0.787193 0.141736 0.751066
0.904164 0.145358 0.747309
0.000000 0.238520 0.759403
0.110642 0.242102 0.758207
0.226569 0.245745 0.756090
0.342938 0.249410 0.753213
0.459693 0.253061 0.749746
0.576780 0.256659 0.745852
0.694154 0.260164 0.741678
0.811779 0.263544 0.737349
0.929631 0.266770 0.732964
0.015356 0.360743 0.752010
0.132237 0.364379 0.748369
0.249433 0.367948 0.744357
0.366902 0.371411 0.740114
0.484613 0.374738 0.735754
0.602542 0.377901 0.731369
0.720673 0.380882 0.727022
0.838988 0.383670 0.722761
0.957467 0.386266 0.718621
0.039683 0.482640 0.738535
0.157475 0.485910 0.734157
0.275480 0.489008 0.729779
0.393680 0.491919 0.725459
0.512057 0.494637 0.721238
0.630588 0.497165 0.717149
0.749233 0.499518 0.713224
0.867937 0.501721 0.709504
0.986622 0.503809 0.706043
0.066710 0.602931 0.723909
0.185147 0.605579 0.719733
0.303725 0.608041 0.715700
0.422399 0.610336 0.711844
0.541106 0.612492 0.708211
0.659761 0.614549 0.704860
0.778258 0.616551 0.701872
0.896473 0.618551 0.699342
1.000000 0.620604 0.697380
0.095569 0.721135 0.710493
0.214268 0.723250 0.706954
0.332879 0.725281 0.703726
0.451288 0.727276 0.700893
0.569367 0.729289 0.698556
0.686976 0.731375 0.696829
0.803977 0.733589 0.695828
0.920239 0.735980 0.695661
1.000000 0.738591 0.696420
0.124275 0.838004 0.699979
0.242199 0.840037 0.697851
0.359602 0.842164 0.696375
0.476348 0.844437 0.695665
0.592313 0.846903 0.695826
0.707396 0.849603 0.696941
0.821530 0.852563 0.699066
0.934685 0.855798 0.702218
1.000000 0.859308 0.706377
0.148616 0.955310 0.695618
0.264270 0.957858 0.696118
0.379013 0.960650 0.697596
0.492792 0.963709 0.700095
0.605592 0.967044 0.703618
0.717440 0.970653 0.708130
0.828405 0.974516 0.713554
0.938593 0.978606 0.719778
1.000000 0.982883 0.726662
0.000000 0.000000 0.849343
0.086005 0.001233 0.855683
0.198269 0.004138 0.860925
0.311105 0.007184 0.864965
0.424546 0.010374 0.867748
0.538600 0.013701 0.869272
0.653252 0.017151 0.869587
0.768471 0.020702 0.868790
0.884211 0.024325 0.867012
0.000000 0.118329 0.866125
0.095951 0.121570 0.868447
0.210226 0.124944 0.869522
0.325089 0.128433 0.869419
0.440503 0.132014 0.868248
0.556419 0.135655 0.866151
0.672778 0.139321 0.863291
0.789524 0.142973 0.859837
0.906603 0.146572 0.855951
0.000000 0.239728 0.869110
0.112602 0.243334 0.867584
0.228685 0.246989 0.865190
0.345192 0.250654 0.862093
0.462065 0.254291 0.858464
0.579254 0.257861 0.854459
0.696717 0.261328 0.850219
0.814422 0.264658 0.845862
0.932346 0.267826 0.841476
0.017655 0.361983 0.860825
0.134648 0.365601 0.857041
0.251941 0.369137 0.852936
0.369495 0.372558 0.848641
0.487282 0.375831 0.844264
0.605282 0.378934 0.839886
0.723477 0.381850 0.835564
0.841851 0.384573 0.831340
0.960378 0.387106 0.827248
0.042304 0.483768 0.847053
0.160171 0.486982 0.842667
0.278243 0.490018 0.838303
0.396506 0.492864 0.834013
0.514939 0.495516 0.829833
0.633513 0.497983 0.825796
0.752186 0.500282 0.821936
0.870893 0.502441 0.818296
0.989551 0.504499 0.814938
0.069558 0.603852 0.832477
0.188046 0.606435 0.828346
0.306662 0.608838 0.824368
0.425356 0.611082 0.820582
0.544056 0.613200 0.817038
0.662670 0.615232 0.813801
0.781086 0.617227 0.810956
0.899175 0.619239 0.808607
1.000000 0.621323 0.806863
0.098527 0.721866 0.819261
0.217207 0.723947 0.815819
0.335764 0.725960 0.812715
0.454076 0.727955 0.810038
0.572011 0.729986 0.807896
0.689429 0.732110 0.806402
0.806192 0.734379 0.805672
0.922177 0.736840 0.805811
1.000000 0.739534 0.806902
0.127016 0.838687 0.809190
0.244779 0.840746 0.807271
0.361974 0.842916 0.806042
0.478467 0.845250 0.805617
0.594142 0.847793 0.806094
0.708909 0.850578 0.807548
0.822711 0.853631 0.810021
0.935535 0.856960 0.813520
1.000000 0.860561 0.818008
0.150633 0.956150 0.805682
0.265986 0.958777 0.806507
0.380406 0.961658 0.808329
0.493852 0.964810 0.811177
0.606323 0.968240 0.815043
0.717862 0.971938 0.819875
0.828550 0.975882 0.825584
0.938504 0.980039 0.832050
1.000000 0.984370 0.839122
0.000000 0.000000 0.961610
0.086713 0.002204 0.967592
0.199166 0.005157 0.972436
0.312205 0.008252 0.976052
0.425854 0.011489 0.978405
0.540114 0.014860 0.979510
0.654963 0.018347 0.979435
0.770365 0.021926 0.978288
0.886268 0.025566 0.976212
0.000000 0.119414 0.977055
0.097335 0.122701 0.978949
0.211813 0.126117 0.979615
0.326868 0.129640 0.979135
0.442459 0.133245 0.977632
0.558531 0.136899 0.975257
0.675028 0.140564 0.972176
0.791893 0.144203 0.968557
0.909074 0.147775 0.964560
0.000000 0.240945 0.978699
0.114617 0.244572 0.976860
0.230851 0.248234 0.974208
0.347488 0.251894 0.970912
0.464473 0.255513 0.967138
0.581759 0.259052 0.963039
0.699307 0.262476 0.958748
0.817089 0.265753 0.954372
0.935084 0.268861 0.949992
0.019993 0.363219 0.969585
0.137093 0.366813 0.965676
0.254479 0.370314 0.961493
0.372115 0.373687 0.957160
0.489976 0.376905 0.952774
0.608044 0.379946 0.948409
0.726302 0.382797 0.944117
0.844731 0.385454 0.939934
0.963302 0.387925 0.935893
0.044952 0.484878 0.955565
0.162890 0.488034 0.951180
0.281029 0.491006 0.946836
0.399352 0.493786 0.942580
0.517837 0.496374 0.938445
0.636450 0.498781 0.934463
0.755143 0.501029 0.930672
0.873844 0.503149 0.927121
0.992461 0.505183 0.923875
0.072424 0.604750 0.941059
0.190960 0.607271 0.936976
0.309609 0.609617 0.933059
0.428314 0.611814 0.929349
0.546996 0.613897 0.925900
0.665557 0.615911 0.922786
0.783877 0.617906 0.920098
0.901822 0.619936 0.917941
1.000000 0.622057 0.916430
0.101482 0.722583 0.928059
0.220133 0.724636 0.924723
0.338620 0.726637 0.921753
0.456820 0.728638 0.919245
0.574595 0.730695 0.917310
0.691806 0.732862 0.916063
0.808317 0.735191 0.915617
0.924014 0.737728 0.916071
1.000000 0.740507 0.917500
0.129707 0.839377 0.918468
0.247293 0.841468 0.916770
0.364264 0.843688 0.915802
0.480491 0.846088 0.915674
0.595866 0.848710 0.916475
0.710310 0.851584 0.918272
0.823780 0.854730 0.921095
0.936274 0.858153 0.924936
1.000000 0.861844 0.929745
0.152552 0.957015 0.915854
0.267595 0.959726 0.917012
0.381687 0.962697 0.919181
0.494799 0.965944 0.922378
0.606947 0.969466 0.926579
0.718186 0.973251 0.931721
0.828610 0.977271 0.937702
0.938346 0.981493 0.944391
1.000000 0.985872 0.951633
