public/luts/Cinematic_Teal.cube
# © 2026 luttie. All rights reserved.
# This LUT is licensed for use within the luttie platform only.
# Unauthorized redistribution or resale is prohibited.
TITLE "Cinematic Teal & Orange"
LUT_3D_SIZE 5
0.000000 0.000000 0.060805
0.193724 0.000000 0.076695
0.417350 0.003026 0.089084
0.643176 0.009154 0.096847
0.871428 0.015836 0.099605
0.000000 0.231526 0.098424
0.215021 0.238387 0.099428
0.446338 0.245607 0.096184
0.679433 0.252925 0.089885
0.913871 0.260035 0.081838
0.024554 0.475553 0.087093
0.259394 0.482514 0.078699
0.495175 0.488895 0.069943
0.731739 0.494538 0.061395
0.968906 0.499433 0.053369
0.077933 0.716402 0.058399
0.315241 0.721054 0.050631
0.552558 0.725206 0.043841
0.789071 0.729212 0.038634
1.000000 0.733503 0.035851
0.134680 0.950718 0.037292
0.368387 0.955218 0.035617
0.598852 0.960540 0.037522
0.825504 0.966914 0.043467
1.000000 0.974367 0.053334
0.000000 0.000000 0.286501
0.194737 0.000000 0.301365
0.419063 0.005043 0.312275
0.645706 0.011365 0.318339
0.874770 0.018214 0.319458
0.000000 0.233803 0.319298
0.218637 0.240810 0.318750
0.450608 0.248096 0.314321
0.684205 0.255378 0.307287
0.919019 0.262349 0.298911
0.029475 0.477967 0.304334
0.264657 0.484756 0.295730
0.500719 0.490898 0.286998
0.737515 0.496280 0.278598
0.974815 0.500947 0.270811
0.083773 0.718055 0.275677
0.321155 0.722504 0.268191
0.558305 0.726562 0.261857
0.794312 0.730615 0.257371
1.000000 0.735100 0.255618
0.139642 0.952176 0.256368
0.372344 0.956918 0.255829
0.601551 0.962581 0.259081
0.826883 0.969329 0.266403
1.000000 0.977116 0.277463
0.000000 0.000000 0.511909
0.195968 0.001180 0.525573
0.421047 0.007126 0.534901
0.648518 0.013637 0.539254
0.878368 0.020634 0.538814
0.000000 0.236136 0.539615
0.222492 0.243266 0.537621
0.455066 0.250585 0.532157
0.689116 0.257795 0.524537
0.924275 0.264597 0.515944
0.034521 0.480333 0.521469
0.270021 0.486923 0.512749
0.506349 0.492812 0.504093
0.743351 0.497938 0.495871
0.980729 0.502402 0.488362
0.089658 0.719629 0.493037
0.327045 0.723909 0.485881
0.563923 0.727917 0.480084
0.799295 0.732069 0.476424
1.000000 0.736792 0.475800
0.144301 0.953701 0.475799
0.375894 0.958725 0.476483
0.603796 0.964749 0.481114
0.827841 0.971866 0.489775
1.000000 0.979959 0.501922
0.000000 0.000000 0.736965
0.197438 0.003136 0.749275
0.423309 0.009275 0.756945
0.651607 0.015967 0.759610
0.882206 0.023088 0.757716
0.000000 0.238520 0.759403
0.226569 0.245745 0.756090
0.459693 0.253061 0.749746
0.694154 0.260164 0.741678
0.929631 0.266770 0.732964
0.039683 0.482640 0.738535
0.275480 0.489008 0.729779
0.512057 0.494637 0.721238
0.749233 0.499518 0.713224
0.986622 0.503809 0.706043
0.095569 0.721135 0.710493
0.332879 0.725281 0.703726
0.569367 0.729289 0.698556
0.803977 0.733589 0.695828
1.000000 0.738591 0.696420
0.148616 0.955310 0.695618
0.379013 0.960650 0.697596
0.605592 0.967044 0.703618
0.828405 0.974516 0.713554
1.000000 0.982883 0.726662
0.000000 0.000000 0.961610
0.199166 0.005157 0.972436
0.425854 0.011489 0.978405
0.654963 0.018347 0.979435
0.886268 0.025566 0.976212
0.000000 0.240945 0.978699
0.230851 0.248234 0.974208
0.464473 0.255513 0.967138
0.699307 0.262476 0.958748
0.935084 0.268861 0.949992
0.044952 0.484878 0.955565
0.281029 0.491006 0.946836
0.517837 0.496374 0.938445
0.755143 0.501029 0.930672
0.992461 0.505183 0.923875
0.101482 0.722583 0.928059
0.338620 0.726637 0.921753
0.574595 0.730695 0.917310
0.808317 0.735191 0.915617
1.000000 0.740507 0.917500
0.152552 0.957015 0.915854
0.381687 0.962697 0.919181
0.606947 0.969466 0.926579
0.828610 0.977271 0.937702
1.000000 0.985872 0.951633
