public/luts/Cinematic_Teal.cube
# © 2026 luttie. All rights reserved.
# This LUT is licensed for use within the luttie platform only.
# Unauthorized redistribution or resale is prohibited.
TITLE "Cinematic Teal & Orange"
LUT_3D_SIZE 33
0.000000 0.000000 0.060805
0.000000 0.000000 0.062931
0.027128 0.000000 0.065024
0.054842 0.000000 0.067080
0.082575 0.000000 0.069095
0.110328 0.000000 0.071068
0.138103 0.000000 0.072994
0.165901 0.000000 0.074871
0.193724 0.000000 0.076695
0.221573 0.000000 0.078464
0.249450 0.000000 0.080175
0.277355 0.000000 0.081826
0.305290 0.000172 0.083413
0.333256 0.000873 0.084934
0.361254 0.001582 0.086388
0.389285 0.002300 0.087772
0.417350 0.003026 0.089084
0.445450 0.003761 0.090323
0.473585 0.004504 0.091487
0.501757 0.005257 0.092576
0.529966 0.006018 0.093587
0.558211 0.006789 0.094520
0.586495 0.007568 0.095375
0.614817 0.008357 0.096151
0.643176 0.009154 0.096847
0.671574 0.009960 0.097464
0.700011 0.010775 0.098002
0.728486 0.011599 0.098461
0.756999 0.012430 0.098842
0.785550 0.013270 0.099146
0.814139 0.014118 0.099374
0.842765 0.014974 0.099526
0.871428 0.015836 0.099605
0.000000 0.021913 0.067818
0.000165 0.022556 0.069819
0.027926 0.023205 0.071775
0.055709 0.023859 0.073683
0.083516 0.024520 0.075541
0.111348 0.025187 0.077346
0.139207 0.025861 0.079094
0.167094 0.026542 0.080783
0.195010 0.027230 0.082411
0.222956 0.027926 0.083974
0.250933 0.028630 0.085471
0.278943 0.029343 0.086900
0.306987 0.030063 0.088258
0.335064 0.030793 0.089544
0.363177 0.031531 0.090756
0.391326 0.032277 0.091893
0.419511 0.033033 0.092953
0.447733 0.033798 0.093936
0.475992 0.034572 0.094841
0.504290 0.035354 0.095666
0.532625 0.036146 0.096413
0.560999 0.036947 0.097081
0.589411 0.037756 0.097669
0.617862 0.038574 0.098178
0.646350 0.039401 0.098609
0.674877 0.040235 0.098962
0.703442 0.041078 0.099238
0.732045 0.041929 0.099438
0.760685 0.042787 0.099563
0.789361 0.043652 0.099615
0.818074 0.044524 0.099596
0.846822 0.045402 0.099506
0.875605 0.046287 0.099348
0.000000 0.051599 0.074366
0.001134 0.052262 0.076205
0.028976 0.052931 0.077989
0.056845 0.053608 0.079716
0.084742 0.054291 0.081383
0.112669 0.054982 0.082988
0.140626 0.055681 0.084527
0.168615 0.056389 0.085999
0.196637 0.057104 0.087403
0.224693 0.057828 0.088735
0.252783 0.058560 0.089994
0.280909 0.059301 0.091178
0.309071 0.060051 0.092287
0.337269 0.060810 0.093320
0.365505 0.061579 0.094274
0.393778 0.062356 0.095150
0.422089 0.063142 0.095948
0.450439 0.063937 0.096665
0.478826 0.064740 0.097304
0.507253 0.065553 0.097864
0.535717 0.066374 0.098344
0.564220 0.067204 0.098747
0.592761 0.068041 0.099071
0.621339 0.068887 0.099320
0.649955 0.069740 0.099492
0.678609 0.070601 0.099591
0.707298 0.071469 0.099616
0.736024 0.072343 0.099571
0.764785 0.073224 0.099456
0.793580 0.074110 0.099274
0.822410 0.075002 0.099027
0.851273 0.075899 0.098716
0.880168 0.076800 0.098345
0.000000 0.081356 0.080330
0.002394 0.082042 0.081975
0.030332 0.082736 0.083556
0.058300 0.083438 0.085071
0.086301 0.084148 0.086518
0.114336 0.084866 0.087896
0.142404 0.085593 0.089201
0.170507 0.086329 0.090434
0.198646 0.087073 0.091591
0.226821 0.087827 0.092672
0.255033 0.088589 0.093676
0.283282 0.089360 0.094602
0.311569 0.090141 0.095450
0.339894 0.090930 0.096218
0.368258 0.091728 0.096907
0.396659 0.092535 0.097517
0.425099 0.093351 0.098048
0.453578 0.094175 0.098500
0.482094 0.095008 0.098874
0.510649 0.095848 0.099171
0.539241 0.096697 0.099391
0.567871 0.097553 0.099537
0.596537 0.098416 0.099608
0.625240 0.099286 0.099608
0.653979 0.100163 0.099537
0.682752 0.101046 0.099398
0.711561 0.101934 0.099192
0.740402 0.102828 0.098921
0.769277 0.103726 0.098588
0.798184 0.104629 0.098195
0.827122 0.105535 0.097744
0.856090 0.106445 0.097238
0.885088 0.107357 0.096680
0.000000 0.111196 0.085606
0.003992 0.111909 0.087028
0.032038 0.112630 0.088380
0.060119 0.113360 0.089659
0.088235 0.114099 0.090864
0.116387 0.114847 0.091993
0.144576 0.115603 0.093047
0.172801 0.116369 0.094022
0.201064 0.117143 0.094920
0.229365 0.117927 0.095739
0.257704 0.118720 0.096478
0.286081 0.119521 0.097138
0.314497 0.120331 0.097719
0.342951 0.121150 0.098221
0.371443 0.121977 0.098645
0.399974 0.122813 0.098991
0.428542 0.123656 0.099260
0.457148 0.124508 0.099453
0.485791 0.125366 0.099571
0.514471 0.126232 0.099617
0.543187 0.127105 0.099590
0.571938 0.127984 0.099494
0.600725 0.128868 0.099330
0.629545 0.129759 0.099101
0.658399 0.130654 0.098807
0.687285 0.131554 0.098452
0.716204 0.132458 0.098037
0.745153 0.133366 0.097566
0.774132 0.134277 0.097041
0.803140 0.135190 0.096464
0.832177 0.136104 0.095838
0.861240 0.137021 0.095165
0.890330 0.137937 0.094449
0.000000 0.141128 0.090106
0.005969 0.141870 0.091284
0.034134 0.142621 0.092386
0.062336 0.143381 0.093411
0.090575 0.144150 0.094358
0.118851 0.144928 0.095227
0.147166 0.145714 0.096017
0.175519 0.146510 0.096728
0.203910 0.147315 0.097359
0.232340 0.148128 0.097911
0.260808 0.148950 0.098385
0.289314 0.149780 0.098780
0.317859 0.150619 0.099097
0.346441 0.151465 0.099339
0.375060 0.152319 0.099504
0.403717 0.153181 0.099596
0.432410 0.154049 0.099615
0.461139 0.154924 0.099563
0.489903 0.155805 0.099442
0.518702 0.156692 0.099254
0.547534 0.157584 0.099001
0.576400 0.158482 0.098685
0.605298 0.159383 0.098308
0.634228 0.160288 0.097872
0.663188 0.161197 0.097381
0.692178 0.162109 0.096837
0.721196 0.163023 0.096242
0.750243 0.163938 0.095598
0.779316 0.164854 0.094910
0.808416 0.165771 0.094178
0.837540 0.166688 0.093406
0.866689 0.167604 0.092597
0.895862 0.168519 0.091753
0.000000 0.171160 0.093765
0.008353 0.171932 0.094684
0.036644 0.172713 0.095524
0.064972 0.173503 0.096285
0.093339 0.174302 0.096967
0.121744 0.175110 0.097569
0.150188 0.175926 0.098093
0.178670 0.176751 0.098537
0.207190 0.177585 0.098904
0.235748 0.178426 0.099194
0.264344 0.179275 0.099408
0.292977 0.180132 0.099546
0.321647 0.180996 0.099611
0.350353 0.181867 0.099604
0.379095 0.182744 0.099527
0.407872 0.183627 0.099382
0.436683 0.184516 0.099169
0.465528 0.185410 0.098893
0.494405 0.186309 0.098554
0.523315 0.187212 0.098156
0.552256 0.188119 0.097700
0.581227 0.189029 0.097189
0.610227 0.189941 0.096626
0.639256 0.190856 0.096013
0.668312 0.191771 0.095353
0.697396 0.192688 0.094648
0.726504 0.193605 0.093901
0.755638 0.194522 0.093116
0.784796 0.195437 0.092293
0.813976 0.196351 0.091437
0.843179 0.197263 0.090550
0.872403 0.198172 0.089633
0.901648 0.199077 0.088691
0.000000 0.201293 0.096542
0.011164 0.202095 0.097195
0.039583 0.202906 0.097769
0.068041 0.203726 0.098264
0.096537 0.204554 0.098680
0.125071 0.205390 0.099019
0.153643 0.206234 0.099281
0.182252 0.207086 0.099467
0.210899 0.207946 0.099578
0.239582 0.208812 0.099617
0.268301 0.209685 0.099584
0.297056 0.210565 0.099482
0.325845 0.211450 0.099312
0.354669 0.212341 0.099076
0.383525 0.213237 0.098777
0.412415 0.214138 0.098416
0.441336 0.215042 0.097996
0.470288 0.215950 0.097520
0.499270 0.216861 0.096990
0.528281 0.217774 0.096408
0.557320 0.218689 0.095778
0.586386 0.219605 0.095101
0.615478 0.220522 0.094381
0.644596 0.221439 0.093620
0.673739 0.222355 0.092820
0.702905 0.223270 0.091986
0.732094 0.224183 0.091118
0.761304 0.225094 0.090219
0.790536 0.226002 0.089293
0.819789 0.226906 0.088341
0.849060 0.227805 0.087367
0.878351 0.228700 0.086371
0.907660 0.229590 0.085357
0.000000 0.231526 0.098424
0.014409 0.232357 0.098812
0.042957 0.233197 0.099123
0.071542 0.234044 0.099357
0.100165 0.234898 0.099516
0.128825 0.235760 0.099601
0.157522 0.236629 0.099613
0.186254 0.237505 0.099555
0.215021 0.238387 0.099428
0.243823 0.239274 0.099234
0.272659 0.240167 0.098974
0.301528 0.241064 0.098652
0.330429 0.241966 0.098270
0.359361 0.242872 0.097829
0.388324 0.243781 0.097333
0.417316 0.244693 0.096784
0.446338 0.245607 0.096184
0.475387 0.246522 0.095537
0.504463 0.247439 0.094844
0.533564 0.248356 0.094108
0.562691 0.249272 0.093333
0.591843 0.250188 0.092520
0.621017 0.251103 0.091673
0.650214 0.252015 0.090794
0.679433 0.252925 0.089885
0.708672 0.253831 0.088949
0.737931 0.254734 0.087989
0.767210 0.255632 0.087007
0.796508 0.256525 0.086004
0.825823 0.257412 0.084984
0.855156 0.258293 0.083948
0.884506 0.259168 0.082899
0.913871 0.260035 0.081838
0.000000 0.261854 0.099423
0.018083 0.262711 0.099555
0.046757 0.263576 0.099614
0.075466 0.264447 0.099600
0.104211 0.265325 0.099517
0.132991 0.266209 0.099365
0.161805 0.267099 0.099147
0.190653 0.267993 0.098864
0.219534 0.268892 0.098520
0.248446 0.269796 0.098116
0.277390 0.270703 0.097655
0.306364 0.271613 0.097139
0.335367 0.272525 0.096571
0.364398 0.273440 0.095954
0.393457 0.274356 0.095290
0.422543 0.275273 0.094581
0.451654 0.276190 0.093831
0.480790 0.277106 0.093041
0.509950 0.278021 0.092216
0.539132 0.278935 0.091357
0.568337 0.279847 0.090466
0.597563 0.280755 0.089547
0.626810 0.281660 0.088603
0.656077 0.282561 0.087634
0.685362 0.283458 0.086644
0.714667 0.284349 0.085635
0.743988 0.285234 0.084609
0.773327 0.286112 0.083568
0.802683 0.286984 0.082514
0.832055 0.287848 0.081450
0.861442 0.288705 0.080376
0.890844 0.289552 0.079294
0.920262 0.290391 0.078207
0.000000 0.292266 0.099578
0.022173 0.293146 0.099469
0.050966 0.294032 0.099293
0.079792 0.294924 0.099051
0.108652 0.295820 0.098746
0.137545 0.296721 0.098380
0.166468 0.297626 0.097955
0.195423 0.298534 0.097474
0.224408 0.299445 0.096939
0.253421 0.300358 0.096352
0.282463 0.301273 0.095717
0.311532 0.302190 0.095037
0.340626 0.303106 0.094312
0.369747 0.304023 0.093548
0.398891 0.304939 0.092745
0.428060 0.305854 0.091907
0.457250 0.306767 0.091036
0.486463 0.307678 0.090135
0.515697 0.308585 0.089206
0.544951 0.309489 0.088252
0.574225 0.310388 0.087276
0.603517 0.311283 0.086279
0.632828 0.312171 0.085263
0.662156 0.313054 0.084231
0.691501 0.313931 0.083186
0.720863 0.314800 0.082128
0.750240 0.315661 0.081060
0.779633 0.316514 0.079983
0.809041 0.317359 0.078899
0.838463 0.318194 0.077810
0.867900 0.319020 0.076717
0.897350 0.319836 0.075621
0.926815 0.320642 0.074524
0.000000 0.322749 0.098947
0.026655 0.323647 0.098620
0.055559 0.324550 0.098232
0.084495 0.325456 0.097786
0.113460 0.326365 0.097285
0.142455 0.327277 0.096731
0.171479 0.328191 0.096127
0.200531 0.329107 0.095475
0.229609 0.330023 0.094778
0.258713 0.330940 0.094039
0.287843 0.331857 0.093260
0.316996 0.332773 0.092444
0.346173 0.333687 0.091593
0.375372 0.334599 0.090711
0.404592 0.335509 0.089800
0.433833 0.336415 0.088862
0.463095 0.337317 0.087899
0.492375 0.338214 0.086915
0.521674 0.339107 0.085911
0.550991 0.339994 0.084889
0.580326 0.340874 0.083852
0.609677 0.341748 0.082802
0.639044 0.342614 0.081740
0.668427 0.343473 0.080668
0.697826 0.344323 0.079589
0.727239 0.345164 0.078503
0.756667 0.345996 0.077413
0.786108 0.346819 0.076318
0.815564 0.347631 0.075222
0.845033 0.348433 0.074125
0.874515 0.349224 0.073028
0.904011 0.350004 0.071932
0.933518 0.350773 0.070838
0.002525 0.353287 0.097610
0.031501 0.354197 0.097089
0.060507 0.355110 0.096517
0.089541 0.356024 0.095895
0.118602 0.356940 0.095226
0.147690 0.357857 0.094513
0.176804 0.358774 0.093759
0.205942 0.359690 0.092967
0.235104 0.360606 0.092138
0.264289 0.361519 0.091276
0.293495 0.362431 0.090383
0.322724 0.363339 0.089461
0.351972 0.364244 0.088514
0.381241 0.365144 0.087543
0.410528 0.366040 0.086552
0.439834 0.366930 0.085541
0.469157 0.367815 0.084513
0.498498 0.368693 0.083471
0.527855 0.369564 0.082416
0.557228 0.370428 0.081351
0.586617 0.371283 0.080276
0.616020 0.372130 0.079194
0.645439 0.372968 0.078107
0.674872 0.373797 0.077015
0.704319 0.374615 0.075919
0.733779 0.375424 0.074823
0.763253 0.376222 0.073725
0.792740 0.377009 0.072629
0.822240 0.377785 0.071533
0.851753 0.378550 0.070441
0.881278 0.379303 0.069351
0.910815 0.380044 0.068266
0.940363 0.380773 0.067185
0.007606 0.383858 0.095657
0.036677 0.384774 0.094972
0.065775 0.385691 0.094244
0.094897 0.386608 0.093475
0.124044 0.387524 0.092669
0.153215 0.388439 0.091828
0.182407 0.389351 0.090954
0.211622 0.390262 0.090051
0.240858 0.391169 0.089119
0.270114 0.392072 0.088163
0.299389 0.392971 0.087185
0.328683 0.393865 0.086186
0.357996 0.394753 0.085169
0.387325 0.395635 0.084136
0.416672 0.396511 0.083089
0.446035 0.397379 0.082030
0.475414 0.398240 0.080961
0.504808 0.399093 0.079883
0.534217 0.399936 0.078799
0.563641 0.400771 0.077709
0.593079 0.401596 0.076616
0.622531 0.402411 0.075520
0.651996 0.403216 0.074423
0.681475 0.404010 0.073326
0.710967 0.404793 0.072230
0.740471 0.405565 0.071135
0.769988 0.406325 0.070044
0.799518 0.407074 0.068955
0.829059 0.407811 0.067871
0.858612 0.408535 0.066792
0.888177 0.409248 0.065719
0.917753 0.409949 0.064651
0.947340 0.410637 0.063591
0.012994 0.414441 0.093186
0.042150 0.415357 0.092367
0.071328 0.416271 0.091513
0.100529 0.417183 0.090629
0.129752 0.418092 0.089715
0.158995 0.418998 0.088774
0.188258 0.419900 0.087810
0.217540 0.420797 0.086823
0.246841 0.421689 0.085817
0.276160 0.422575 0.084794
0.305496 0.423455 0.083756
0.334848 0.424328 0.082704
0.364217 0.425194 0.081642
0.393602 0.426051 0.080569
0.423001 0.426901 0.079489
0.452416 0.427741 0.078403
0.481845 0.428572 0.077312
0.511288 0.429394 0.076217
0.540745 0.430205 0.075121
0.570215 0.431006 0.074024
0.599699 0.431796 0.072927
0.629195 0.432575 0.071831
0.658704 0.433343 0.070737
0.688226 0.434099 0.069647
0.717760 0.434843 0.068560
0.747305 0.435576 0.067478
0.776863 0.436296 0.066401
0.806431 0.437005 0.065330
0.836011 0.437701 0.064264
0.865602 0.438385 0.063206
0.895203 0.439057 0.062155
0.924814 0.439717 0.061112
0.954435 0.440365 0.060077
0.018654 0.445014 0.090299
0.047884 0.445922 0.089375
0.077134 0.446827 0.088426
0.106405 0.447727 0.087453
0.135694 0.448622 0.086459
0.165001 0.449512 0.085447
0.194326 0.450396 0.084418
0.223668 0.451274 0.083374
0.253027 0.452144 0.082319
0.282401 0.453007 0.081252
0.311792 0.453862 0.080177
0.341197 0.454708 0.079094
0.370617 0.455545 0.078006
0.400051 0.456373 0.076914
0.429499 0.457190 0.075818
0.458961 0.457998 0.074722
0.488436 0.458795 0.073624
0.517924 0.459581 0.072528
0.547425 0.460356 0.071433
0.576939 0.461120 0.070340
0.606465 0.461871 0.069251
0.636003 0.462611 0.068166
0.665553 0.463340 0.067085
0.695114 0.464056 0.066010
0.724687 0.464759 0.064941
0.754271 0.465451 0.063878
0.783866 0.466131 0.062823
0.813471 0.466798 0.061775
0.843085 0.467454 0.060735
0.872709 0.468098 0.059703
0.902342 0.468730 0.058680
0.931983 0.469350 0.057667
0.961632 0.469960 0.056664
0.024554 0.475553 0.087093
0.053850 0.476447 0.086093
0.083164 0.477335 0.085074
0.112495 0.478216 0.084040
0.141843 0.479091 0.082991
0.171208 0.479959 0.081932
0.200588 0.480819 0.080862
0.229983 0.481671 0.079783
0.259394 0.482514 0.078699
0.288819 0.483347 0.077609
0.318258 0.484172 0.076515
0.347712 0.484986 0.075419
0.377178 0.485789 0.074322
0.406658 0.486583 0.073225
0.436151 0.487365 0.072129
0.465657 0.488135 0.071035
0.495175 0.488895 0.069943
0.524705 0.489642 0.068855
0.554248 0.490378 0.067772
0.583802 0.491102 0.066693
0.613368 0.491813 0.065620
0.642945 0.492513 0.064553
0.672533 0.493200 0.063493
0.702131 0.493875 0.062440
0.731739 0.494538 0.061395
0.761357 0.495190 0.060358
0.790985 0.495829 0.059330
0.820621 0.496457 0.058310
0.850265 0.497073 0.057300
0.879916 0.497679 0.056301
0.909574 0.498274 0.055312
0.939238 0.498858 0.054334
0.968906 0.499433 0.053369
0.030666 0.506036 0.083659
0.060020 0.506908 0.082607
0.089390 0.507773 0.081543
0.118776 0.508630 0.080470
0.148177 0.509479 0.079389
0.177593 0.510318 0.078302
0.207023 0.511149 0.077211
0.236468 0.511969 0.076116
0.265926 0.512780 0.075020
0.295397 0.513579 0.073923
0.324882 0.514369 0.072826
0.354380 0.515147 0.071730
0.383890 0.515913 0.070637
0.413413 0.516668 0.069547
0.442948 0.517411 0.068460
0.472494 0.518143 0.067378
0.502053 0.518862 0.066302
0.531623 0.519569 0.065231
0.561204 0.520264 0.064167
0.590795 0.520947 0.063109
0.620397 0.521618 0.062059
0.650009 0.522277 0.061017
0.679631 0.522924 0.059983
0.709261 0.523559 0.058957
0.738900 0.524183 0.057941
0.768547 0.524795 0.056935
0.798201 0.525397 0.055940
0.827861 0.525988 0.054955
0.857527 0.526568 0.053981
0.887197 0.527139 0.053020
0.916871 0.527701 0.052072
0.946547 0.528254 0.051137
0.976224 0.528798 0.050217
0.036967 0.536440 0.080077
0.066373 0.537285 0.078994
0.095794 0.538122 0.077905
0.125230 0.538948 0.076813
0.154679 0.539765 0.075717
0.184142 0.540572 0.074620
0.213619 0.541368 0.073523
0.243108 0.542153 0.072427
0.272610 0.542927 0.071332
0.302125 0.543689 0.070240
0.331652 0.544440 0.069151
0.361191 0.545179 0.068066
0.390742 0.545906 0.066986
0.420305 0.546621 0.065911
0.449879 0.547324 0.064843
0.479464 0.548014 0.063781
0.509059 0.548693 0.062726
0.538665 0.549359 0.061678
0.568281 0.550014 0.060639
0.597905 0.550656 0.059608
0.627539 0.551287 0.058586
0.657181 0.551907 0.057574
0.686830 0.552515 0.056572
0.716487 0.553113 0.055580
0.746149 0.553700 0.054599
0.775816 0.554277 0.053630
0.805488 0.554845 0.052674
0.835163 0.555403 0.051730
0.864839 0.555953 0.050801
0.894517 0.556495 0.049886
0.924194 0.557029 0.048987
0.953870 0.557556 0.048104
0.983542 0.558077 0.047240
0.043438 0.566747 0.076414
0.072892 0.567560 0.075318
0.102360 0.568363 0.074221
0.131841 0.569155 0.073124
0.161335 0.569936 0.072028
0.190842 0.570706 0.070934
0.220362 0.571464 0.069843
0.249893 0.572211 0.068755
0.279437 0.572945 0.067672
0.308992 0.573668 0.066594
0.338559 0.574378 0.065522
0.368137 0.575077 0.064455
0.397726 0.575763 0.063396
0.427325 0.576437 0.062344
0.456934 0.577099 0.061299
0.486553 0.577749 0.060263
0.516181 0.578387 0.059235
0.545818 0.579014 0.058217
0.575463 0.579630 0.057208
0.605115 0.580234 0.056209
0.634773 0.580828 0.055221
0.664437 0.581412 0.054245
0.694106 0.581985 0.053280
0.723779 0.582549 0.052328
0.753455 0.583104 0.051390
0.783132 0.583651 0.050466
0.812810 0.584190 0.049557
0.842487 0.584722 0.048664
0.872161 0.585246 0.047788
0.901831 0.585765 0.046930
0.931496 0.586279 0.046091
0.961154 0.586788 0.045273
0.990803 0.587293 0.044477
0.050066 0.596941 0.072725
0.079565 0.597718 0.071629
0.109076 0.598483 0.070536
0.138600 0.599237 0.069446
0.168136 0.599979 0.068360
0.197684 0.600710 0.067279
0.227243 0.601428 0.066203
0.256814 0.602134 0.065133
0.286396 0.602828 0.064069
0.315989 0.603510 0.063012
0.345592 0.604179 0.061962
0.375204 0.604837 0.060921
0.404827 0.605483 0.059888
0.434458 0.606117 0.058863
0.464098 0.606740 0.057848
0.493745 0.607351 0.056843
0.523400 0.607952 0.055848
0.553060 0.608542 0.054865
0.582727 0.609121 0.053892
0.612397 0.609692 0.052932
0.642071 0.610252 0.051985
0.671748 0.610804 0.051052
0.701425 0.611348 0.050133
0.731102 0.611884 0.049230
0.760778 0.612413 0.048343
0.790451 0.612936 0.047473
0.820120 0.613453 0.046622
0.849783 0.613965 0.045791
0.879437 0.614473 0.044980
0.909083 0.614977 0.044193
0.938717 0.615478 0.043428
0.968337 0.615977 0.042689
0.997943 0.616476 0.041977
0.056840 0.627009 0.069050
0.086380 0.627747 0.067966
0.115932 0.628472 0.066887
0.145496 0.629186 0.065813
0.175071 0.629888 0.064745
0.204657 0.630577 0.063683
0.234253 0.631255 0.062629
0.263860 0.631920 0.061582
0.293476 0.632573 0.060544
0.323102 0.633215 0.059514
0.352736 0.633845 0.058493
0.382379 0.634463 0.057481
0.412029 0.635071 0.056480
0.441686 0.635668 0.055489
0.471348 0.636254 0.054509
0.501016 0.636830 0.053541
0.530688 0.637397 0.052586
0.560363 0.637954 0.051644
0.590040 0.638503 0.050716
0.619718 0.639044 0.049802
0.649395 0.639578 0.048905
0.679070 0.640104 0.048024
0.708742 0.640625 0.047161
0.738408 0.641140 0.046317
0.768068 0.641650 0.045493
0.797720 0.642156 0.044691
0.827361 0.642659 0.043911
0.856990 0.643160 0.043156
0.886606 0.643659 0.042427
0.916205 0.644157 0.041725
0.945786 0.644655 0.041051
0.975347 0.645154 0.040409
1.000000 0.645655 0.039799
0.063750 0.656943 0.065423
0.093329 0.657640 0.064357
0.122919 0.658325 0.063299
0.152519 0.658998 0.062247
0.182129 0.659659 0.061203
0.211749 0.660308 0.060168
0.241378 0.660946 0.059141
0.271015 0.661571 0.058123
0.300661 0.662186 0.057115
0.330313 0.662789 0.056118
0.359972 0.663382 0.055131
0.389637 0.663965 0.054155
0.419307 0.664538 0.053192
0.448980 0.665101 0.052241
0.478656 0.665655 0.051304
0.508333 0.666201 0.050381
0.538011 0.666739 0.049474
0.567687 0.667270 0.048582
0.597361 0.667795 0.047708
0.627031 0.668313 0.046851
0.656695 0.668826 0.046015
0.686352 0.669335 0.045199
0.716000 0.669840 0.044404
0.745638 0.670342 0.043634
0.775262 0.670842 0.042888
0.804872 0.671340 0.042168
0.834465 0.671838 0.041476
0.864039 0.672337 0.040814
0.893592 0.672836 0.040183
0.923123 0.673338 0.039585
0.952628 0.673842 0.039021
0.982106 0.674351 0.038494
1.000000 0.674864 0.038006
0.070786 0.686740 0.061866
0.100400 0.687397 0.060825
0.130023 0.688042 0.059793
0.159655 0.688675 0.058769
0.189296 0.689296 0.057755
0.218944 0.689907 0.056751
0.248599 0.690506 0.055757
0.278260 0.691096 0.054774
0.307927 0.691674 0.053803
0.337597 0.692244 0.052844
0.367272 0.692804 0.051899
0.396948 0.693355 0.050967
0.426626 0.693898 0.050049
0.456303 0.694433 0.049147
0.485979 0.694962 0.048262
0.515652 0.695484 0.047394
0.545320 0.696000 0.046545
0.574982 0.696512 0.045715
0.604636 0.697019 0.044907
0.634280 0.697523 0.044121
0.663913 0.698024 0.043359
0.693532 0.698523 0.042623
0.723136 0.699022 0.041913
0.752722 0.699520 0.041232
0.782289 0.700018 0.040580
0.811834 0.700519 0.039961
0.841356 0.701021 0.039375
0.870851 0.701527 0.038825
0.900318 0.702037 0.038312
0.929755 0.702552 0.037838
0.959159 0.703073 0.037404
0.988529 0.703601 0.037013
1.000000 0.704136 0.036667
0.077933 0.716402 0.058399
0.107577 0.717020 0.057388
0.137227 0.717626 0.056388
0.166885 0.718222 0.055398
0.196548 0.718807 0.054420
0.226216 0.719383 0.053453
0.255889 0.719949 0.052499
0.285564 0.720505 0.051558
0.315241 0.721054 0.050631
0.344919 0.721594 0.049719
0.374596 0.722127 0.048823
0.404270 0.722653 0.047944
0.433942 0.723173 0.047082
0.463608 0.723687 0.046240
0.493267 0.724197 0.045418
0.522917 0.724703 0.044618
0.552558 0.725206 0.043841
0.582186 0.725706 0.043088
0.611800 0.726205 0.042361
0.641398 0.726703 0.041661
0.670977 0.727201 0.040991
0.700536 0.727700 0.040351
0.730073 0.728201 0.039744
0.759585 0.728705 0.039171
0.789071 0.729212 0.038634
0.818527 0.729724 0.038135
0.847952 0.730241 0.037675
0.877344 0.730764 0.037257
0.906700 0.731295 0.036882
0.936018 0.731833 0.036552
0.965297 0.732380 0.036269
0.994533 0.732936 0.036035
1.000000 0.733503 0.035851
0.085172 0.745936 0.055041
0.114837 0.746518 0.054066
0.144507 0.747090 0.053104
0.174180 0.747652 0.052154
0.203856 0.748206 0.051219
0.233534 0.748751 0.050297
0.263211 0.749289 0.049391
0.292888 0.749819 0.048501
0.322561 0.750343 0.047628
0.352231 0.750860 0.046774
0.381895 0.751373 0.045939
0.411551 0.751882 0.045124
0.441198 0.752386 0.044332
0.470834 0.752888 0.043564
0.500457 0.753388 0.042820
0.530066 0.753886 0.042103
0.559657 0.754384 0.041414
0.589229 0.754883 0.040754
0.618781 0.755382 0.040126
0.648309 0.755884 0.039531
0.677811 0.756389 0.038971
0.707287 0.756898 0.038448
0.736732 0.757412 0.037963
0.766145 0.757931 0.037518
0.795524 0.758457 0.037115
0.824867 0.758990 0.036757
0.854171 0.759531 0.036444
0.883434 0.760081 0.036178
0.912655 0.760641 0.035962
0.941831 0.761212 0.035797
0.970960 0.761794 0.035684
1.000000 0.762387 0.035626
1.000000 0.762994 0.035623
0.092472 0.775355 0.051812
0.122149 0.775905 0.050881
0.151827 0.776448 0.049965
0.181504 0.776982 0.049065
0.211179 0.777510 0.048181
0.240852 0.778032 0.047315
0.270519 0.778548 0.046467
0.300181 0.779059 0.045640
0.329834 0.779566 0.044833
0.359477 0.780069 0.044050
0.389109 0.780570 0.043290
0.418727 0.781069 0.042556
0.448329 0.781568 0.041849
0.477914 0.782066 0.041170
0.507479 0.782564 0.040522
0.537022 0.783065 0.039906
0.566541 0.783568 0.039323
0.596034 0.784074 0.038776
0.625498 0.784584 0.038266
0.654932 0.785100 0.037796
0.684333 0.785621 0.037366
0.713699 0.786150 0.036979
0.743028 0.786686 0.036637
