public/luts/Faded_Kodak.cube
# © 2026 luttie. All rights reserved.
# This LUT is licensed for use within the luttie platform only.
# Unauthorized redistribution or resale is prohibited.
TITLE "Faded Kodak"
LUT_3D_SIZE 33
0.070001 0.063023 0.049999
0.097502 0.063706 0.049999
0.125002 0.064367 0.049999
0.152502 0.065004 0.049998
0.180002 0.065614 0.049998
0.207503 0.066194 0.049998
0.235003 0.066741 0.049998
0.262504 0.067253 0.049997
0.290004 0.067728 0.049997
0.317505 0.068163 0.049996
0.345006 0.068555 0.049996
0.372506 0.068904 0.049995
0.400007 0.069207 0.049994
0.427509 0.069462 0.049994
0.455010 0.069670 0.049993
0.482511 0.069827 0.049992
0.510013 0.069934 0.049990
0.537515 0.069991 0.049989
0.565017 0.069996 0.049988
0.592519 0.069950 0.049986
0.620021 0.069853 0.049984
0.647524 0.069705 0.049982
0.675028 0.069508 0.049979
0.702531 0.069262 0.049976
0.730036 0.068968 0.049973
0.757540 0.068629 0.049970
0.785046 0.068245 0.049966
0.812551 0.067818 0.049961
0.840058 0.067352 0.049957
0.867565 0.066847 0.049951
0.895073 0.066306 0.049945
0.922583 0.065733 0.049938
0.950093 0.065129 0.049930
0.070002 0.093401 0.049998
0.097503 0.093998 0.049998
0.125003 0.094564 0.049998
0.152503 0.095096 0.049997
0.180004 0.095592 0.049997
0.207505 0.096049 0.049997
0.235005 0.096466 0.049996
0.262506 0.096839 0.049996
0.290007 0.097168 0.049995
0.317508 0.097450 0.049994
0.345009 0.097685 0.049993
0.372510 0.097870 0.049992
0.400012 0.098006 0.049991
0.427514 0.098091 0.049990
0.455015 0.098124 0.049988
0.482518 0.098107 0.049987
0.510020 0.098038 0.049985
0.537523 0.097919 0.049983
0.565026 0.097749 0.049981
0.592529 0.097530 0.049978
0.620033 0.097263 0.049975
0.647538 0.096949 0.049972
0.675043 0.096590 0.049968
0.702548 0.096187 0.049964
0.730054 0.095743 0.049959
0.757561 0.095259 0.049954
0.785069 0.094738 0.049948
0.812577 0.094183 0.049942
0.840087 0.093595 0.049935
0.867597 0.092979 0.049927
0.895109 0.092335 0.049918
0.922622 0.091669 0.049908
0.950137 0.090981 0.049897
0.070004 0.123444 0.049997
0.097504 0.123923 0.049997
0.125005 0.124363 0.049996
0.152506 0.124761 0.049996
0.180006 0.125115 0.049995
0.207507 0.125423 0.049995
0.235008 0.125684 0.049994
0.262510 0.125897 0.049993
0.290011 0.126061 0.049992
0.317513 0.126174 0.049991
0.345014 0.126237 0.049989
0.372516 0.126248 0.049988
0.400019 0.126208 0.049986
0.427521 0.126117 0.049984
0.455024 0.125975 0.049982
0.482527 0.125784 0.049980
0.510031 0.125544 0.049977
0.537535 0.125256 0.049974
0.565040 0.124921 0.049970
0.592545 0.124543 0.049966
0.620051 0.124121 0.049962
0.647557 0.123659 0.049957
0.675064 0.123159 0.049952
0.702572 0.122622 0.049946
0.730081 0.122053 0.049939
0.757591 0.121452 0.049931
0.785103 0.120823 0.049923
0.812615 0.120169 0.049914
0.840129 0.119493 0.049904
0.867644 0.118797 0.049892
0.895161 0.118085 0.049880
0.922679 0.117359 0.049866
0.950200 0.116623 0.049850
0.070006 0.153047 0.049996
0.097507 0.153381 0.049995
0.125008 0.153669 0.049994
0.152509 0.153909 0.049993
0.180010 0.154101 0.049992
0.207512 0.154242 0.049991
0.235013 0.154333 0.049990
0.262515 0.154373 0.049989
0.290017 0.154362 0.049987
0.317520 0.154299 0.049985
0.345022 0.154186 0.049983
0.372525 0.154022 0.049981
0.400029 0.153809 0.049978
0.427533 0.153547 0.049975
0.455037 0.153239 0.049972
0.482542 0.152885 0.049969
0.510047 0.152487 0.049965
0.537553 0.152048 0.049960
0.565060 0.151568 0.049955
0.592568 0.151052 0.049949
0.620076 0.150500 0.049943
0.647586 0.149917 0.049936
0.675096 0.149303 0.049928
0.702608 0.148663 0.049919
0.730121 0.147999 0.049909
0.757635 0.147314 0.049899
0.785151 0.146611 0.049887
0.812668 0.145892 0.049874
0.840188 0.145161 0.049859
0.867709 0.144421 0.049843
0.895233 0.143674 0.049825
0.922759 0.142923 0.049806
0.950287 0.142171 0.049785
0.070009 0.182125 0.049993
0.097511 0.182294 0.049992
0.125012 0.182414 0.049991
0.152514 0.182482 0.049989
0.180016 0.182499 0.049988
0.207518 0.182465 0.049986
0.235021 0.182380 0.049984
0.262524 0.182245 0.049982
0.290027 0.182059 0.049980
0.317531 0.181825 0.049977
0.345035 0.181542 0.049974
0.372539 0.181213 0.049971
0.400044 0.180840 0.049967
0.427550 0.180423 0.049963
0.455056 0.179966 0.049958
0.482563 0.179470 0.049952
0.510071 0.178938 0.049946
0.537580 0.178372 0.049940
0.565090 0.177775 0.049932
0.592601 0.177149 0.049924
0.620113 0.176498 0.049915
0.647627 0.175825 0.049905
0.675142 0.175131 0.049894
0.702658 0.174421 0.049881
0.730177 0.173696 0.049867
0.757697 0.172961 0.049852
0.785219 0.172217 0.049836
0.812744 0.171468 0.049817
0.840271 0.170716 0.049797
0.867801 0.169965 0.049775
0.895333 0.169215 0.049750
0.922869 0.168471 0.049723
0.950408 0.167733 0.049694
0.070015 0.210621 0.049989
0.097517 0.210616 0.049987
0.125019 0.210559 0.049985
0.152522 0.210452 0.049983
0.180025 0.210294 0.049981
0.207528 0.210087 0.049979
0.235032 0.209831 0.049976
0.262537 0.209528 0.049973
0.290041 0.209179 0.049969
0.317547 0.208787 0.049965
0.345053 0.208352 0.049961
0.372559 0.207877 0.049955
0.400067 0.207365 0.049950
0.427575 0.206818 0.049944
0.455085 0.206238 0.049937
0.482595 0.205628 0.049929
0.510106 0.204991 0.049920
0.537619 0.204329 0.049911
0.565133 0.203646 0.049900
0.592649 0.202945 0.049888
0.620166 0.202228 0.049875
0.647685 0.201499 0.049861
0.675207 0.200759 0.049845
0.702730 0.200013 0.049828
0.730255 0.199262 0.049808
0.757784 0.198510 0.049787
0.785315 0.197759 0.049764
0.812848 0.197011 0.049739
0.840386 0.196270 0.049711
0.867926 0.195536 0.049680
0.895471 0.194813 0.049647
0.923019 0.194101 0.049611
0.950572 0.193403 0.049571
0.070023 0.238514 0.049982
0.097527 0.238334 0.049980
0.125030 0.238105 0.049977
0.152534 0.237828 0.049974
0.180039 0.237505 0.049971
0.207544 0.237137 0.049967
0.235049 0.236725 0.049963
0.262556 0.236273 0.049958
0.290063 0.235781 0.049953
0.317570 0.235253 0.049947
0.345079 0.234691 0.049941
0.372589 0.234098 0.049933
0.400100 0.233475 0.049925
0.427612 0.232827 0.049916
0.455125 0.232156 0.049906
0.482640 0.231465 0.049895
0.510156 0.230756 0.049883
0.537674 0.230033 0.049869
0.565194 0.229299 0.049854
0.592717 0.228556 0.049838
0.620241 0.227807 0.049819
0.647768 0.227056 0.049799
0.675297 0.226304 0.049777
0.702829 0.225554 0.049753
0.730364 0.224809 0.049727
0.757903 0.224070 0.049698
0.785445 0.223341 0.049666
0.812992 0.222623 0.049631
0.840542 0.221917 0.049594
0.868097 0.221226 0.049552
0.895656 0.220551 0.049508
0.923221 0.219894 0.049459
0.950792 0.219255 0.049406
0.070036 0.265817 0.049973
0.097541 0.265473 0.049969
0.125046 0.265086 0.049966
0.152552 0.264656 0.049961
0.180059 0.264186 0.049956
0.207566 0.263678 0.049951
0.235074 0.263135 0.049944
0.262583 0.262558 0.049937
0.290094 0.261952 0.049930
0.317605 0.261318 0.049921
0.345118 0.260659 0.049912
0.372632 0.259979 0.049901
0.400147 0.259279 0.049890
0.427664 0.258564 0.049877
0.455183 0.257836 0.049863
0.482704 0.257098 0.049847
0.510227 0.256352 0.049830
0.537752 0.255602 0.049811
0.565280 0.254850 0.049790
0.592811 0.254098 0.049767
0.620344 0.253350 0.049742
0.647881 0.252608 0.049714
0.675421 0.251873 0.049684
0.702965 0.251148 0.049651
0.730513 0.250435 0.049615
0.758065 0.249736 0.049576
0.785622 0.249052 0.049533
0.813184 0.248384 0.049487
0.840752 0.247735 0.049436
0.868325 0.247104 0.049381
0.895904 0.246494 0.049322
0.923489 0.245905 0.049258
0.951082 0.245338 0.049189
0.070055 0.292579 0.049959
0.097562 0.292092 0.049954
0.125069 0.291568 0.049948
0.152578 0.291010 0.049941
0.180088 0.290420 0.049934
0.207598 0.289801 0.049926
0.235110 0.289155 0.049917
0.262624 0.288487 0.049907
0.290138 0.287798 0.049896
0.317654 0.287091 0.049884
0.345172 0.286370 0.049871
0.372692 0.285637 0.049856
0.400214 0.284895 0.049840
0.427738 0.284147 0.049822
0.455264 0.283395 0.049802
0.482793 0.282643 0.049780
0.510325 0.281893 0.049756
0.537860 0.281147 0.049730
0.565398 0.280408 0.049701
0.592940 0.279677 0.049670
0.620486 0.278957 0.049636
0.648036 0.278250 0.049598
0.675590 0.277557 0.049558
0.703149 0.276880 0.049513
0.730713 0.276221 0.049465
0.758283 0.275580 0.049413
0.785859 0.274958 0.049356
0.813441 0.274357 0.049294
0.841029 0.273777 0.049228
0.868625 0.273220 0.049156
0.896228 0.272684 0.049079
0.923840 0.272171 0.048995
0.951459 0.271681 0.048905
0.070082 0.318878 0.049938
0.097592 0.318275 0.049931
0.125104 0.317645 0.049922
0.152616 0.316989 0.049913
0.180130 0.316311 0.049903
0.207645 0.315613 0.049891
0.235162 0.314900 0.049879
0.262681 0.314173 0.049864
0.290201 0.313436 0.049849
0.317724 0.312691 0.049832
0.345249 0.311941 0.049813
0.372777 0.311189 0.049793
0.400307 0.310437 0.049770
0.427840 0.309689 0.049745
0.455376 0.308946 0.049718
0.482916 0.308210 0.049688
0.510460 0.307484 0.049655
0.538007 0.306769 0.049620
0.565559 0.306068 0.049581
0.593115 0.305382 0.049538
0.620677 0.304713 0.049492
0.648243 0.304061 0.049442
0.675816 0.303428 0.049388
0.703394 0.302816 0.049329
0.730979 0.302224 0.049266
0.758571 0.301654 0.049197
0.786170 0.301106 0.049123
0.813776 0.300580 0.049043
0.841391 0.300077 0.048956
0.869015 0.299597 0.048864
0.896648 0.299140 0.048764
0.924290 0.298706 0.048657
0.951943 0.298294 0.048543
0.070122 0.344818 0.049909
0.097636 0.344131 0.049898
0.125152 0.343426 0.049886
0.152670 0.342706 0.049872
0.180190 0.341974 0.049858
0.207711 0.341233 0.049842
0.235235 0.340486 0.049824
0.262761 0.339735 0.049804
0.290290 0.338983 0.049783
0.317821 0.338232 0.049759
0.345356 0.337486 0.049733
0.372894 0.336745 0.049705
0.400435 0.336014 0.049674
0.427980 0.335292 0.049640
0.455529 0.334584 0.049603
0.483083 0.333889 0.049563
0.510642 0.333210 0.049519
0.538205 0.332548 0.049471
0.565775 0.331905 0.049419
0.593349 0.331281 0.049363
0.620931 0.330678 0.049302
0.648518 0.330095 0.049236
0.676113 0.329535 0.049165
0.703716 0.328996 0.049088
0.731326 0.328481 0.049006
0.758945 0.327988 0.048916
0.786572 0.327518 0.048821
0.814210 0.327071 0.048718
0.841857 0.326646 0.048608
0.869514 0.326244 0.048490
0.897182 0.325864 0.048363
0.924862 0.325506 0.048228
0.952554 0.325169 0.048084
0.070178 0.370510 0.049866
0.097699 0.369774 0.049851
0.125221 0.369030 0.049834
0.152746 0.368280 0.049815
0.180273 0.367529 0.049795
0.207803 0.366777 0.049773
0.235336 0.366028 0.049748
0.262872 0.365284 0.049721
0.290411 0.364547 0.049692
0.317954 0.363819 0.049659
0.345501 0.363104 0.049624
0.373053 0.362401 0.049586
0.400608 0.361713 0.049544
0.428169 0.361041 0.049498
0.455735 0.360388 0.049449
0.483307 0.359753 0.049395
0.510884 0.359138 0.049337
0.538468 0.358543 0.049274
0.566059 0.357971 0.049206
0.593657 0.357420 0.049132
0.621263 0.356892 0.049053
0.648877 0.356386 0.048967
0.676500 0.355903 0.048875
0.704132 0.355443 0.048776
0.731773 0.355006 0.048670
0.759425 0.354592 0.048557
0.787087 0.354199 0.048435
0.814760 0.353829 0.048305
0.842445 0.353480 0.048166
0.870143 0.353152 0.048018
0.897853 0.352844 0.047860
0.925577 0.352556 0.047693
0.953314 0.352286 0.047514
0.070258 0.396074 0.049807
0.097786 0.395322 0.049785
0.125317 0.394571 0.049762
0.152851 0.393824 0.049736
0.180389 0.393083 0.049708
0.207930 0.392350 0.049678
0.235475 0.391628 0.049644
0.263023 0.390917 0.049607
0.290577 0.390221 0.049568
0.318135 0.389540 0.049524
0.345698 0.388876 0.049477
0.373266 0.388230 0.049426
0.400840 0.387604 0.049370
0.428421 0.386998 0.049310
0.456008 0.386413 0.049244
0.483602 0.385850 0.049174
0.511203 0.385309 0.049098
0.538812 0.384791 0.049016
0.566430 0.384295 0.048927
0.594057 0.383823 0.048832
0.621693 0.383373 0.048730
0.649338 0.382946 0.048621
0.676995 0.382541 0.048504
0.704662 0.382158 0.048379
0.732340 0.381797 0.048245
0.760031 0.381458 0.048102
0.787734 0.381139 0.047950
0.815450 0.380840 0.047788
0.843180 0.380560 0.047615
0.870923 0.380299 0.047433
0.898682 0.380056 0.047239
0.926455 0.379829 0.047033
0.954245 0.379620 0.046816
0.070368 0.421622 0.049724
0.097906 0.420884 0.049695
0.125449 0.420155 0.049663
0.152996 0.419438 0.049628
0.180546 0.418734 0.049590
0.208102 0.418044 0.049549
0.235662 0.417370 0.049504
0.263227 0.416714 0.049455
0.290798 0.416077 0.049402
0.318375 0.415460 0.049344
0.345958 0.414863 0.049281
0.373548 0.414288 0.049214
0.401145 0.413734 0.049141
0.428750 0.413203 0.049062
0.456363 0.412695 0.048978
0.483985 0.412209 0.048886
0.511615 0.411747 0.048788
0.539256 0.411307 0.048683
0.566906 0.410890 0.048571
0.594567 0.410495 0.048450
0.622239 0.410122 0.048321
0.649923 0.409770 0.048183
0.677619 0.409440 0.048036
0.705327 0.409129 0.047879
0.733049 0.408839 0.047713
0.760785 0.408568 0.047536
0.788535 0.408314 0.047348
0.816300 0.408079 0.047150
0.844081 0.407860 0.046939
0.871877 0.407657 0.046717
0.899690 0.407470 0.046482
0.927520 0.407297 0.046235
0.955367 0.407138 0.045975
0.070517 0.447251 0.049612
0.098070 0.446553 0.049572
0.125627 0.445870 0.049529
0.153190 0.445204 0.049483
0.180758 0.444556 0.049432
0.208331 0.443928 0.049377
0.235911 0.443319 0.049317
0.263497 0.442732 0.049252
0.291090 0.442166 0.049182
0.318691 0.441622 0.049107
0.346299 0.441101 0.049026
0.373916 0.440603 0.048938
0.401541 0.440128 0.048844
0.429176 0.439675 0.048743
0.456821 0.439245 0.048635
0.484476 0.438838 0.048518
0.512141 0.438453 0.048394
0.539818 0.438089 0.048261
0.567507 0.437747 0.048119
0.595209 0.437426 0.047968
0.622923 0.437124 0.047807
0.650651 0.436842 0.047636
0.678394 0.436579 0.047455
0.706150 0.436334 0.047262
0.733922 0.436106 0.047058
0.761710 0.435894 0.046843
0.789513 0.435698 0.046615
0.817333 0.435517 0.046375
0.845171 0.435350 0.046122
0.873025 0.435196 0.045856
0.900898 0.435055 0.045577
0.928789 0.434926 0.045283
0.956698 0.434808 0.044976
0.070719 0.473041 0.049461
0.098289 0.472402 0.049408
0.125865 0.471782 0.049351
0.153448 0.471183 0.049289
0.181037 0.470605 0.049222
0.208633 0.470049 0.049150
0.236237 0.469515 0.049072
0.263849 0.469004 0.048988
0.291470 0.468516 0.048898
0.319099 0.468051 0.048800
0.346738 0.467608 0.048696
0.374388 0.467188 0.048584
0.402047 0.466791 0.048465
0.429718 0.466415 0.048337
0.457400 0.466061 0.048200
0.485095 0.465728 0.048054
0.512802 0.465415 0.047899
0.540522 0.465122 0.047733
0.568256 0.464849 0.047558
0.596005 0.464594 0.047371
0.623768 0.464356 0.047174
0.651547 0.464135 0.046965
0.679341 0.463931 0.046744
0.707152 0.463742 0.046511
0.734980 0.463567 0.046265
0.762825 0.463406 0.046007
0.790687 0.463258 0.045735
0.818568 0.463122 0.045449
0.846467 0.462997 0.045150
0.874384 0.462884 0.044837
0.902321 0.462780 0.044509
0.930277 0.462686 0.044167
0.958252 0.462600 0.043811
0.070986 0.499051 0.049260
0.098579 0.498482 0.049191
0.126178 0.497936 0.049116
0.153786 0.497412 0.049036
0.181401 0.496911 0.048949
0.209026 0.496433 0.048856
0.236659 0.495978 0.048755
0.264303 0.495545 0.048648
0.291957 0.495135 0.048533
0.319621 0.494747 0.048409
0.347297 0.494381 0.048277
0.374984 0.494037 0.048137
0.402684 0.493713 0.047987
0.430397 0.493409 0.047827
0.458124 0.493125 0.047657
0.485864 0.492859 0.047477
0.513619 0.492612 0.047286
0.541389 0.492382 0.047083
0.569174 0.492168 0.046869
0.596976 0.491971 0.046643
0.624794 0.491788 0.046404
0.652629 0.491619 0.046153
0.680482 0.491464 0.045888
0.708353 0.491321 0.045611
0.736241 0.491191 0.045319
0.764148 0.491071 0.045014
0.792074 0.490962 0.044694
0.820020 0.490862 0.044360
0.847984 0.490772 0.044012
0.875968 0.490689 0.043649
0.903971 0.490615 0.043272
0.931994 0.490547 0.042880
0.960036 0.490487 0.042473
0.071336 0.525314 0.048998
0.098955 0.524823 0.048909
0.126584 0.524355 0.048812
0.154221 0.523909 0.048709
0.181869 0.523487 0.048598
0.209528 0.523087 0.048479
0.237197 0.522708 0.048352
0.264878 0.522352 0.048217
0.292571 0.522016 0.048072
0.320276 0.521701 0.047918
0.347995 0.521406 0.047754
0.375728 0.521130 0.047579
0.403474 0.520873 0.047394
0.431236 0.520633 0.047198
0.459013 0.520411 0.046990
0.486805 0.520204 0.046771
0.514614 0.520013 0.046539
0.542440 0.519837 0.046295
0.570283 0.519674 0.046038
0.598143 0.519525 0.045768
0.626022 0.519387 0.045484
0.653918 0.519262 0.045186
0.681834 0.519147 0.044875
0.709768 0.519042 0.044549
0.737722 0.518946 0.044209
0.765695 0.518859 0.043854
0.793687 0.518781 0.043485
0.821699 0.518709 0.043101
0.849730 0.518645 0.042702
0.877781 0.518587 0.042289
0.905851 0.518534 0.041862
0.933940 0.518487 0.041420
0.962048 0.518445 0.040964
0.071785 0.551846 0.048661
0.099438 0.551433 0.048547
0.127101 0.551042 0.048424
0.154775 0.550674 0.048294
0.182461 0.550327 0.048154
0.210160 0.550000 0.048005
0.237871 0.549694 0.047847
0.265596 0.549407 0.047678
0.293335 0.549140 0.047499
0.321088 0.548890 0.047309
0.348856 0.548658 0.047108
0.376640 0.548443 0.046895
0.404439 0.548243 0.046670
0.432256 0.548059 0.046433
0.460089 0.547889 0.046183
0.487939 0.547732 0.045921
0.515808 0.547588 0.045644
0.543694 0.547456 0.045354
0.571599 0.547335 0.045051
0.599523 0.547224 0.044733
0.627466 0.547124 0.044401
0.655428 0.547032 0.044054
0.683409 0.546949 0.043693
0.711410 0.546873 0.043318
0.739430 0.546805 0.042927
0.767470 0.546744 0.042522
0.795530 0.546688 0.042103
0.823608 0.546638 0.041669
0.851706 0.546593 0.041221
0.879822 0.546553 0.040759
0.907956 0.546517 0.040283
0.936109 0.546485 0.039794
0.964278 0.546456 0.039292
0.072356 0.578643 0.048233
0.100047 0.578305 0.048090
0.127751 0.577988 0.047936
0.155469 0.577690 0.047774
0.183199 0.577412 0.047600
0.210944 0.577153 0.047417
0.238704 0.576911 0.047222
0.266479 0.576686 0.047016
0.294270 0.576478 0.046798
0.322077 0.576285 0.046568
0.349900 0.576107 0.046325
0.377741 0.575943 0.046069
0.405599 0.575792 0.045801
0.433476 0.575653 0.045518
0.461370 0.575526 0.045222
0.489283 0.575410 0.044912
0.517215 0.575304 0.044588
0.545167 0.575207 0.044250
0.573137 0.575119 0.043897
0.601127 0.575040 0.043530
0.629137 0.574967 0.043147
0.657166 0.574902 0.042751
0.685214 0.574843 0.042339
0.713282 0.574790 0.041913
0.741369 0.574743 0.041473
0.769475 0.574700 0.041019
0.797599 0.574662 0.040551
0.825742 0.574628 0.040069
0.853901 0.574597 0.039574
0.882078 0.574570 0.039066
0.910271 0.574546 0.038547
0.938480 0.574524 0.038015
0.966703 0.574505 0.037473
0.073069 0.605691 0.047699
0.100806 0.605421 0.047521
0.128557 0.605169 0.047332
0.156323 0.604935 0.047133
0.184105 0.604718 0.046921
0.211903 0.604516 0.046698
0.239717 0.604330 0.046462
0.267548 0.604158 0.046214
0.295397 0.604000 0.045953
0.323263 0.603854 0.045678
0.351147 0.603721 0.045390
0.379050 0.603599 0.045088
0.406971 0.603487 0.044771
0.434912 0.603385 0.044441
0.462872 0.603292 0.044096
0.490851 0.603208 0.043737
0.518849 0.603132 0.043363
0.546867 0.603063 0.042974
0.574905 0.603001 0.042571
0.602962 0.602944 0.042153
0.631038 0.602894 0.041721
0.659134 0.602848 0.041275
0.687248 0.602808 0.040814
0.715380 0.602771 0.040340
0.743530 0.602739 0.039852
0.771697 0.602710 0.039352
0.799882 0.602684 0.038839
0.828081 0.602661 0.038314
0.856296 0.602641 0.037778
0.884526 0.602623 0.037231
0.912768 0.602607 0.036674
0.941023 0.602593 0.036108
0.969288 0.602581 0.035534
0.073946 0.632962 0.047041
0.101734 0.632752 0.046824
0.129539 0.632557 0.046596
0.157361 0.632378 0.046354
0.185200 0.632212 0.046100
0.213056 0.632059 0.045833
0.240930 0.631919 0.045553
0.268822 0.631791 0.045258
0.296733 0.631673 0.044950
0.324663 0.631566 0.044628
0.352612 0.631468 0.044291
0.380580 0.631379 0.043940
0.408568 0.631299 0.043574
0.436575 0.631226 0.043194
0.464602 0.631160 0.042799
0.492648 0.631100 0.042389
0.520714 0.631046 0.041965
0.548798 0.630998 0.041526
0.576902 0.630955 0.041074
0.605024 0.630916 0.040607
0.633164 0.630881 0.040127
0.661322 0.630851 0.039634
0.689497 0.630823 0.039127
0.717688 0.630799 0.038609
0.745895 0.630777 0.038079
0.774116 0.630758 0.037538
0.802351 0.630741 0.036987
0.830599 0.630726 0.036426
0.858858 0.630712 0.035856
0.887128 0.630701 0.035279
0.915407 0.630691 0.034695
0.943694 0.630682 0.034105
0.971987 0.630674 0.033510
0.075008 0.660428 0.046244
0.102854 0.660268 0.045984
0.130718 0.660121 0.045711
0.158600 0.659986 0.045425
0.186501 0.659863 0.045124
0.214420 0.659750 0.044810
0.242358 0.659647 0.044481
0.270316 0.659553 0.044138
0.298293 0.659468 0.043780
0.326289 0.659391 0.043408
0.354305 0.659321 0.043021
0.382340 0.659258 0.042620
0.410395 0.659201 0.042204
0.438469 0.659149 0.041773
0.466562 0.659103 0.041329
0.494674 0.659062 0.040870
0.522804 0.659025 0.040397
0.550952 0.658992 0.039911
0.579117 0.658963 0.039412
0.607299 0.658937 0.038901
0.635497 0.658914 0.038377
0.663711 0.658893 0.037842
0.691938 0.658875 0.037296
0.720179 0.658859 0.036741
0.748432 0.658845 0.036176
0.776696 0.658832 0.035603
0.804970 0.658821 0.035022
0.833253 0.658812 0.034435
0.861542 0.658803 0.033843
0.889838 0.658796 0.033247
0.918137 0.658790 0.032647
0.946438 0.658784 0.032046
0.974741 0.658779 0.031444
0.076275 0.688055 0.045294
0.104183 0.687937 0.044988
0.132111 0.687828 0.044667
0.160058 0.687729 0.044332
0.188024 0.687639 0.043982
0.216009 0.687558 0.043618
0.244014 0.687484 0.043240
0.272038 0.687417 0.042846
0.300082 0.687357 0.042438
0.328145 0.687302 0.042016
0.356228 0.687254 0.041579
0.384329 0.687210 0.041128
0.412449 0.687170 0.040663
0.440587 0.687135 0.040185
0.468743 0.687104 0.039693
0.496916 0.687076 0.039188
0.525105 0.687051 0.038671
0.553310 0.687029 0.038143
0.581529 0.687010 0.037603
0.609763 0.686993 0.037053
0.638009 0.686977 0.036493
0.666268 0.686964 0.035924
0.694536 0.686952 0.035348
0.722814 0.686942 0.034764
0.751100 0.686933 0.034175
0.779392 0.686925 0.033581
0.807689 0.686918 0.032983
0.835990 0.686912 0.032383
0.864292 0.686907 0.031781
0.892594 0.686902 0.031180
0.920894 0.686898 0.030579
0.949191 0.686895 0.029982
0.977482 0.686892 0.029389
0.077760 0.715814 0.044180
0.105735 0.715728 0.043824
0.133729 0.715649 0.043453
0.161742 0.715579 0.043068
0.189775 0.715515 0.042668
0.217828 0.715457 0.042254
0.245900 0.715405 0.041825
0.273990 0.715359 0.041382
0.302100 0.715317 0.040925
0.330228 0.715280 0.040454
0.358374 0.715246 0.039970
0.386537 0.715216 0.039472
0.414717 0.715190 0.038962
0.442914 0.715166 0.038440
0.471125 0.715145 0.037906
0.499351 0.715127 0.037362
0.527590 0.715111 0.036807
0.555842 0.715096 0.036243
0.584105 0.715084 0.035671
0.612378 0.715072 0.035092
0.640659 0.715063 0.034505
0.668948 0.715054 0.033914
0.697243 0.715047 0.033318
0.725542 0.715040 0.032719
0.753843 0.715035 0.032118
0.782145 0.715030 0.031516
0.810447 0.715025 0.030915
0.838746 0.715022 0.030316
0.867040 0.715019 0.029720
0.895328 0.715016 0.029129
0.923607 0.715013 0.028545
0.951876 0.715011 0.027968
0.980133 0.715010 0.027400
0.079475 0.743675 0.042894
0.107516 0.743614 0.042488
0.135577 0.743559 0.042067
0.163657 0.743509 0.041632
0.191757 0.743465 0.041183
0.219874 0.743425 0.040719
0.248010 0.743389 0.040242
0.276164 0.743358 0.039752
0.304335 0.743329 0.039249
0.332522 0.743304 0.038733
0.360725 0.743282 0.038206
0.388943 0.743262 0.037668
0.417175 0.743245 0.037119
0.445420 0.743229 0.036560
0.473677 0.743215 0.035992
0.501944 0.743204 0.035417
0.530221 0.743193 0.034834
0.558506 0.743184 0.034245
0.586798 0.743176 0.033652
0.615094 0.743169 0.033054
0.643394 0.743163 0.032454
0.671696 0.743157 0.031853
0.699999 0.743153 0.031251
0.728299 0.743149 0.030651
0.756596 0.743145 0.030053
0.784888 0.743142 0.029459
0.813172 0.743140 0.028871
0.841448 0.743138 0.028289
0.869712 0.743136 0.027716
0.897962 0.743134 0.027153
0.926198 0.743133 0.026601
0.954417 0.743131 0.026063
0.982616 0.743130 0.025538
0.081419 0.771614 0.041436
0.109526 0.771572 0.040980
0.137652 0.771534 0.040511
0.165796 0.771500 0.040028
0.193957 0.771470 0.039532
0.222136 0.771443 0.039023
0.250330 0.771419 0.038503
0.278540 0.771398 0.037970
0.306764 0.771379 0.037427
0.335002 0.771362 0.036874
0.363252 0.771348 0.036311
0.391514 0.771335 0.035740
0.419785 0.771324 0.035161
0.448066 0.771314 0.034575
0.476354 0.771305 0.033984
0.504648 0.771298 0.033389
0.532946 0.771291 0.032790
0.561248 0.771285 0.032189
0.589550 0.771280 0.031588
0.617852 0.771276 0.030986
0.646151 0.771272 0.030387
0.674446 0.771269 0.029791
0.702734 0.771266 0.029199
