public/luts/Faded_Kodak.cube
# © 2026 luttie. All rights reserved.
# This LUT is licensed for use within the luttie platform only.
# Unauthorized redistribution or resale is prohibited.
TITLE "Faded Kodak"
LUT_3D_SIZE 5
0.070001 0.063023 0.049999
0.290004 0.067728 0.049997
0.510013 0.069934 0.049990
0.730036 0.068968 0.049973
0.950093 0.065129 0.049930
0.070055 0.292579 0.049959
0.290138 0.287798 0.049896
0.510325 0.281893 0.049756
0.730713 0.276221 0.049465
0.951459 0.271681 0.048905
0.070986 0.499051 0.049260
0.291957 0.495135 0.048533
0.513619 0.492612 0.047286
0.736241 0.491191 0.045319
0.960036 0.490487 0.042473
0.077760 0.715814 0.044180
0.302100 0.715317 0.040925
0.527590 0.715111 0.036807
0.753843 0.715035 0.032118
0.980133 0.715010 0.027400
0.096663 0.940020 0.030003
0.322674 0.940005 0.025495
0.547333 0.940001 0.022001
0.769772 0.940000 0.020171
0.989506 0.940000 0.020370
0.070002 0.064748 0.259999
0.290006 0.068767 0.259995
0.510018 0.069975 0.259987
0.730049 0.067997 0.259963
0.950124 0.063440 0.259907
0.070074 0.291241 0.259944
0.290184 0.285936 0.259862
0.510423 0.279973 0.259683
0.730907 0.274599 0.259320
0.951813 0.270516 0.258640
0.071241 0.497622 0.259069
0.292407 0.494174 0.258195
0.514351 0.492049 0.256736
0.737336 0.490902 0.254498
0.961532 0.490356 0.251351
0.079031 0.715607 0.253227
0.303765 0.715228 0.249676
0.529562 0.715077 0.245328
0.755921 0.715023 0.240559
0.982025 0.715006 0.235981
0.098698 0.940013 0.238476
0.324379 0.940003 0.234216
0.548400 0.940001 0.231200
0.769991 0.940000 0.230007
0.988832 0.940000 0.230876
0.070003 0.066299 0.469998
0.290009 0.069505 0.469993
0.510025 0.069672 0.469981
0.730067 0.066749 0.469950
0.950166 0.061615 0.469876
0.070101 0.289682 0.469925
0.290243 0.284007 0.469818
0.510545 0.278120 0.469591
0.731144 0.273118 0.469142
0.952236 0.269502 0.468323
0.071550 0.496346 0.468837
0.292938 0.493354 0.467796
0.515194 0.491589 0.466105
0.738560 0.490675 0.463580
0.963154 0.490257 0.460135
0.080433 0.715447 0.462175
0.305545 0.715162 0.458341
0.531596 0.715053 0.453803
0.757974 0.715015 0.449020
0.983785 0.715004 0.444661
0.100663 0.940009 0.447003
0.325908 0.940002 0.443069
0.549208 0.940000 0.440594
0.769917 0.940000 0.440063
0.987890 0.940000 0.441582
0.070004 0.067627 0.679997
0.290012 0.069915 0.679991
0.510035 0.069037 0.679974
0.730090 0.065264 0.679932
0.950220 0.059704 0.679835
0.070135 0.287951 0.679899
0.290318 0.282058 0.679762
0.510699 0.276364 0.679476
0.731432 0.271787 0.678926
0.952738 0.268633 0.677947
0.071922 0.495224 0.678559
0.293562 0.492665 0.677329
0.516154 0.491219 0.675384
0.739915 0.490499 0.672564
0.964894 0.490184 0.668830
0.081964 0.715326 0.671027
0.307427 0.715114 0.666930
0.533667 0.715036 0.662250
0.759968 0.715010 0.657524
0.985382 0.715003 0.653464
0.102522 0.940006 0.655609
0.327231 0.940001 0.652077
0.549740 0.940000 0.650195
0.769550 0.940000 0.650337
0.986700 0.940000 0.652475
0.070006 0.068691 0.889996
0.290017 0.069985 0.889987
0.510048 0.068090 0.889964
0.730121 0.063589 0.889909
0.950289 0.057757 0.889783
0.070179 0.286097 0.889865
0.290413 0.280134 0.889690
0.510889 0.274731 0.889334
0.731781 0.270609 0.888665
0.953327 0.267898 0.887505
0.072365 0.494250 0.888226
0.294285 0.492093 0.886786
0.517238 0.490924 0.884571
0.741400 0.490365 0.881450
0.966741 0.490130 0.877445
0.083619 0.715235 0.879785
0.309392 0.715079 0.875456
0.535745 0.715024 0.870691
0.761869 0.715007 0.866098
0.986782 0.715002 0.862414
0.104241 0.940004 0.864319
0.328319 0.940001 0.861261
0.549984 0.940000 0.860012
0.768900 0.940000 0.860825
0.985287 0.940000 0.863535
