public/luts/Faded_Kodak.cube
# © 2026 luttie. All rights reserved.
# This LUT is licensed for use within the luttie platform only.
# Unauthorized redistribution or resale is prohibited.
TITLE "Faded Kodak"
LUT_3D_SIZE 9
0.070001 0.063023 0.049999
0.180002 0.065614 0.049998
0.290004 0.067728 0.049997
0.400007 0.069207 0.049994
0.510013 0.069934 0.049990
0.620021 0.069853 0.049984
0.730036 0.068968 0.049973
0.840058 0.067352 0.049957
0.950093 0.065129 0.049930
0.070009 0.182125 0.049993
0.180016 0.182499 0.049988
0.290027 0.182059 0.049980
0.400044 0.180840 0.049967
0.510071 0.178938 0.049946
0.620113 0.176498 0.049915
0.730177 0.173696 0.049867
0.840271 0.170716 0.049797
0.950408 0.167733 0.049694
0.070055 0.292579 0.049959
0.180088 0.290420 0.049934
0.290138 0.287798 0.049896
0.400214 0.284895 0.049840
0.510325 0.281893 0.049756
0.620486 0.278957 0.049636
0.730713 0.276221 0.049465
0.841029 0.273777 0.049228
0.951459 0.271681 0.048905
0.070258 0.396074 0.049807
0.180389 0.393083 0.049708
0.290577 0.390221 0.049568
0.400840 0.387604 0.049370
0.511203 0.385309 0.049098
0.621693 0.383373 0.048730
0.732340 0.381797 0.048245
0.843180 0.380560 0.047615
0.954245 0.379620 0.046816
0.070986 0.499051 0.049260
0.181401 0.496911 0.048949
0.291957 0.495135 0.048533
0.402684 0.493713 0.047987
0.513619 0.492612 0.047286
0.624794 0.491788 0.046404
0.736241 0.491191 0.045319
0.847984 0.490772 0.044012
0.960036 0.490487 0.042473
0.073069 0.605691 0.047699
0.184105 0.604718 0.046921
0.295397 0.604000 0.045953
0.406971 0.603487 0.044771
0.518849 0.603132 0.043363
0.631038 0.602894 0.041721
0.743530 0.602739 0.039852
0.856296 0.602641 0.037778
0.969288 0.602581 0.035534
0.077760 0.715814 0.044180
0.189775 0.715515 0.042668
0.302100 0.715317 0.040925
0.414717 0.715190 0.038962
0.527590 0.715111 0.036807
0.640659 0.715063 0.034505
0.753843 0.715035 0.032118
0.867040 0.715019 0.029720
0.980133 0.715010 0.027400
0.085954 0.827650 0.038034
0.198922 0.827586 0.035808
0.312053 0.827548 0.033460
0.425256 0.827526 0.031058
0.538423 0.827514 0.028683
0.651431 0.827507 0.026427
0.764155 0.827504 0.024384
0.876471 0.827502 0.022647
0.988268 0.827501 0.021299
0.096663 0.940020 0.030003
0.209775 0.940011 0.027669
0.322674 0.940005 0.025495
0.435232 0.940003 0.023576
0.547333 0.940001 0.022001
0.658872 0.940001 0.020846
0.769772 0.940000 0.020171
0.879987 0.940000 0.020010
0.989506 0.940000 0.020370
0.070002 0.063904 0.154999
0.180003 0.066360 0.154998
0.290005 0.068283 0.154996
0.400009 0.069529 0.154993
0.510015 0.069998 0.154989
0.620025 0.069652 0.154981
0.730042 0.068519 0.154969
0.840068 0.066690 0.154949
0.950108 0.064304 0.154919
0.070011 0.182335 0.154992
0.180019 0.182446 0.154986
0.290032 0.181746 0.154976
0.400052 0.180292 0.154961
0.510083 0.178198 0.154938
0.620131 0.175621 0.154902
0.730203 0.172741 0.154847
0.840310 0.169742 0.154768
0.950464 0.166791 0.154652
0.070064 0.291940 0.154952
0.180102 0.289612 0.154924
0.290159 0.286879 0.154880
0.400245 0.283924 0.154816
0.510371 0.280927 0.154722
0.620551 0.278043 0.154587
0.730805 0.275393 0.154396
0.841155 0.273058 0.154134
0.951628 0.271079 0.153779
0.070295 0.395099 0.154779
0.180443 0.392135 0.154668
0.290653 0.389341 0.154510
0.400946 0.386823 0.154291
0.511346 0.384642 0.153990
0.621884 0.382823 0.153587
0.732590 0.381361 0.153058
0.843498 0.380225 0.152376
0.954644 0.379371 0.151517
0.071107 0.498318 0.154169
0.181564 0.496296 0.153827
0.292172 0.494637 0.153371
0.402963 0.493323 0.152778
0.513972 0.492317 0.152021
0.625232 0.491572 0.151076
0.736773 0.491038 0.149920
0.848615 0.490667 0.148539
0.960768 0.490417 0.146924
0.073379 0.605344 0.152466
0.184494 0.604459 0.151629
0.295875 0.603813 0.150594
0.407546 0.603357 0.149340
0.519525 0.603044 0.147856
0.631814 0.602836 0.146140
0.744399 0.602702 0.144201
0.857245 0.602618 0.142067
0.970295 0.602567 0.139779
0.078380 0.715704 0.148715
0.190495 0.715441 0.147128
0.302918 0.715269 0.145312
0.415623 0.715160 0.143283
0.528567 0.715092 0.141075
0.641683 0.715052 0.138737
0.754883 0.715028 0.136338
0.868060 0.715015 0.133955
0.981093 0.715008 0.131680
0.086894 0.827626 0.142329
0.199924 0.827572 0.140057
0.313089 0.827540 0.137683
0.426292 0.827522 0.135281
0.539421 0.827511 0.132934
0.652351 0.827506 0.130736
0.764956 0.827503 0.128783
0.877115 0.827501 0.127164
0.988724 0.827501 0.125957
0.097687 0.940016 0.134235
0.210744 0.940008 0.131942
0.323546 0.940004 0.129840
0.435969 0.940002 0.128023
0.547897 0.940001 0.126577
0.659236 0.940000 0.125573
0.769918 0.940000 0.125061
0.879907 0.940000 0.125070
0.989204 0.940000 0.125597
0.070002 0.064748 0.259999
0.180003 0.067049 0.259997
0.290006 0.068767 0.259995
0.400011 0.069769 0.259992
0.510018 0.069975 0.259987
0.620030 0.069368 0.259978
0.730049 0.067997 0.259963
0.840079 0.065970 0.259941
0.950124 0.063440 0.259907
0.070013 0.182460 0.259990
0.180022 0.182306 0.259983
0.290037 0.181353 0.259972
0.400060 0.179676 0.259955
0.510097 0.177407 0.259928
0.620151 0.174711 0.259886
0.730234 0.171773 0.259825
0.840354 0.168773 0.259735
0.950527 0.165869 0.259605
0.070074 0.291241 0.259944
0.180118 0.288761 0.259912
0.290184 0.285936 0.259862
0.400281 0.282949 0.259789
0.510423 0.279973 0.259683
0.620624 0.277154 0.259532
0.730907 0.274599 0.259320
0.841293 0.272377 0.259030
0.951813 0.270516 0.258640
0.070337 0.394127 0.259747
0.180503 0.391205 0.259623
0.290737 0.388491 0.259447
0.401062 0.386077 0.259203
0.511504 0.384012 0.258872
0.622092 0.382311 0.258431
0.732860 0.380959 0.257855
0.843842 0.379919 0.257118
0.955072 0.379147 0.256196
0.071241 0.497622 0.259069
0.181743 0.495718 0.258692
0.292407 0.494174 0.258195
0.403265 0.492965 0.257552
0.514351 0.492049 0.256736
0.625700 0.491378 0.255725
0.737336 0.490902 0.254498
0.849279 0.490574 0.253041
0.961532 0.490356 0.251351
0.073713 0.605028 0.257215
0.184911 0.604226 0.256316
0.296384 0.603647 0.255212
0.408154 0.603242 0.253885
0.520233 0.602966 0.252325
0.632621 0.602786 0.250535
0.745295 0.602670 0.248529
0.858214 0.602599 0.246339
0.971315 0.602556 0.244014
0.079031 0.715607 0.253227
0.191248 0.715377 0.251564
0.303765 0.715228 0.249676
0.416554 0.715134 0.247584
0.529562 0.715077 0.245328
0.642716 0.715043 0.242963
0.755921 0.715023 0.240559
0.869065 0.715012 0.238201
0.982025 0.715006 0.235981
0.087856 0.827605 0.246608
0.200939 0.827560 0.244296
0.314128 0.827533 0.241904
0.427321 0.827518 0.239509
0.540399 0.827509 0.237201
0.653237 0.827505 0.235072
0.765710 0.827502 0.233217
0.877702 0.827501 0.231724
0.989113 0.827501 0.230665
0.098698 0.940013 0.238476
0.211687 0.940007 0.236235
0.324379 0.940003 0.234216
0.436653 0.940002 0.232510
0.548400 0.940001 0.231200
0.659532 0.940000 0.230351
0.769991 0.940000 0.230007
0.879754 0.940000 0.230185
0.988832 0.940000 0.230876
0.070002 0.065548 0.364998
0.180004 0.067678 0.364997
0.290007 0.069176 0.364995
0.400013 0.069925 0.364991
0.510021 0.069866 0.364984
0.620035 0.069003 0.364974
0.730057 0.067405 0.364957
0.840092 0.065196 0.364931
0.950144 0.062541 0.364892
0.070016 0.182500 0.364988
0.180027 0.182082 0.364980
0.290044 0.180883 0.364967
0.400070 0.178998 0.364947
0.510112 0.176571 0.364916
0.620175 0.173777 0.364869
0.730268 0.170799 0.364799
0.840403 0.167814 0.364697
0.950597 0.164970 0.364552
0.070087 0.290486 0.364935
0.180136 0.287874 0.364898
0.290211 0.284977 0.364842
0.400321 0.281975 0.364759
0.510481 0.279036 0.364640
0.620706 0.276292 0.364470
0.731019 0.273840 0.364236
0.841446 0.271734 0.363916
0.952015 0.269991 0.363488
0.070385 0.393164 0.364712
0.180571 0.390297 0.364572
0.290832 0.387672 0.364376
0.401192 0.385368 0.364106
0.511677 0.383421 0.363742
0.622320 0.381836 0.363260
0.733154 0.380590 0.362635
0.844212 0.379642 0.361841
0.955529 0.378945 0.360854
0.071388 0.496965 0.363959
0.181939 0.495179 0.363546
0.292662 0.493747 0.363004
0.403590 0.492638 0.362307
0.514758 0.491807 0.361431
0.626198 0.491205 0.360352
0.737932 0.490781 0.359051
0.849975 0.490493 0.357519
0.962328 0.490303 0.355754
0.074073 0.604741 0.361945
0.185357 0.604017 0.360982
0.296924 0.603499 0.359807
0.408794 0.603140 0.358405
0.520974 0.602899 0.356769
0.633458 0.602742 0.354907
0.746217 0.602643 0.352837
0.859203 0.602582 0.350598
0.972345 0.602546 0.348241
0.079716 0.715522 0.357713
0.192032 0.715321 0.355976
0.304642 0.715193 0.354019
0.417508 0.715112 0.351869
0.530573 0.715064 0.349570
0.643755 0.715035 0.347184
0.756953 0.715019 0.344785
0.870051 0.715010 0.342462
0.982924 0.715005 0.340307
0.088838 0.827588 0.350871
0.201966 0.827549 0.348526
0.315168 0.827527 0.346124
0.428337 0.827514 0.343747
0.541352 0.827507 0.341486
0.654085 0.827504 0.339436
0.766414 0.827502 0.337690
0.878227 0.827501 0.336330
0.989434 0.827500 0.335425
0.099692 0.940011 0.342731
0.212598 0.940005 0.340552
0.325168 0.940003 0.338624
0.437282 0.940001 0.337039
0.548838 0.940001 0.335872
0.659756 0.940000 0.335183
0.769991 0.940000 0.335007
0.879528 0.940000 0.335354
0.988394 0.940000 0.336205
0.070003 0.066299 0.469998
0.180005 0.068239 0.469996
0.290009 0.069505 0.469993
0.400015 0.069996 0.469989
0.510025 0.069672 0.469981
0.620041 0.068560 0.469969
0.730067 0.066749 0.469950
0.840106 0.064376 0.469920
0.950166 0.061615 0.469876
0.070019 0.182453 0.469986
0.180031 0.181776 0.469977
0.290051 0.180341 0.469962
0.400082 0.178263 0.469938
0.510130 0.175697 0.469903
0.620201 0.172823 0.469849
0.730306 0.169824 0.469770
0.840459 0.166870 0.469656
0.950676 0.164098 0.469493
0.070101 0.289682 0.469925
0.180158 0.286957 0.469882
0.290243 0.284007 0.469818
0.400367 0.281009 0.469725
0.510545 0.278120 0.469591
0.620797 0.275462 0.469402
0.731144 0.273118 0.469142
0.841613 0.271129 0.468790
0.952236 0.269502 0.468323
0.070438 0.392214 0.469672
0.180646 0.389415 0.469516
0.290936 0.386887 0.469298
0.401334 0.384697 0.469000
0.511867 0.382868 0.468600
0.622568 0.381397 0.468074
0.733470 0.380252 0.467397
0.844609 0.379391 0.466543
0.956015 0.378765 0.465488
0.071550 0.496346 0.468837
0.182153 0.494677 0.468385
0.292938 0.493354 0.467796
0.403941 0.492341 0.467044
0.515194 0.491589 0.466105
0.626727 0.491050 0.464955
0.738560 0.490675 0.463580
0.850704 0.490422 0.461972
0.963154 0.490257 0.460135
0.074460 0.604480 0.466655
0.185833 0.603828 0.465625
0.297496 0.603367 0.464378
0.409466 0.603051 0.462900
0.521747 0.602840 0.461190
0.634324 0.602705 0.459257
0.747163 0.602620 0.457128
0.860209 0.602568 0.454843
0.973382 0.602538 0.452464
0.080433 0.715447 0.462175
0.192847 0.715273 0.460365
0.305545 0.715162 0.458341
0.418484 0.715094 0.456137
0.531596 0.715053 0.453803
0.644795 0.715029 0.451404
0.757974 0.715015 0.449020
0.871013 0.715008 0.446740
0.983785 0.715004 0.444661
0.089838 0.827573 0.455121
0.203001 0.827541 0.452750
0.316205 0.827522 0.450346
0.429337 0.827512 0.447997
0.542275 0.827506 0.445794
0.654890 0.827503 0.443833
0.767063 0.827501 0.442203
0.878688 0.827501 0.440984
0.989684 0.827500 0.440237
0.100663 0.940009 0.447003
0.213474 0.940004 0.444895
0.325908 0.940002 0.443069
0.437852 0.940001 0.441611
0.549208 0.940000 0.440594
0.659908 0.940000 0.440069
0.769917 0.940000 0.440063
0.879232 0.940000 0.440576
0.987890 0.940000 0.441582
0.070003 0.066993 0.574997
0.180006 0.068729 0.574995
0.290010 0.069752 0.574992
0.400018 0.069980 0.574987
0.510029 0.069395 0.574978
0.620048 0.068044 0.574964
0.730078 0.066033 0.574942
0.840123 0.063515 0.574908
0.950191 0.060667 0.574857
0.070022 0.182321 0.574983
0.180037 0.181389 0.574972
0.290060 0.179731 0.574955
0.400095 0.177476 0.574929
0.510150 0.174790 0.574888
0.620231 0.171856 0.574827
0.730350 0.168855 0.574738
0.840521 0.165946 0.574609
0.950763 0.163256 0.574428
0.070117 0.288835 0.574913
0.180182 0.286017 0.574864
0.290278 0.283032 0.574792
0.400418 0.280053 0.574686
0.510618 0.277228 0.574537
0.620898 0.274665 0.574327
0.731281 0.272433 0.574039
0.841797 0.270562 0.573652
0.952476 0.269050 0.573143
0.070498 0.391283 0.574627
0.180730 0.388562 0.574453
0.291052 0.386138 0.574211
0.401490 0.384064 0.573882
0.512074 0.382353 0.573444
0.622837 0.380992 0.572873
0.733812 0.379944 0.572141
0.845034 0.379165 0.571224
0.956533 0.378603 0.570100
0.071728 0.495766 0.573704
0.182386 0.494212 0.573211
0.293238 0.492994 0.572571
0.404318 0.492071 0.571761
0.515659 0.491394 0.570756
0.627287 0.490913 0.569535
0.739221 0.490581 0.568084
0.851466 0.490360 0.566401
0.964010 0.490217 0.564493
0.074875 0.604245 0.571344
0.186339 0.603660 0.570245
0.298101 0.603251 0.568924
0.410172 0.602973 0.567371
0.522551 0.602790 0.565587
0.635218 0.602673 0.563587
0.748131 0.602600 0.561402
0.861228 0.602556 0.559079
0.974422 0.602531 0.556684
0.081183 0.715382 0.566613
0.193692 0.715231 0.564731
0.306474 0.715136 0.562644
0.419477 0.715078 0.560392
0.532629 0.715044 0.558029
0.645833 0.715024 0.555625
0.758981 0.715012 0.553265
0.871947 0.715006 0.551040
0.984606 0.715003 0.549045
0.090852 0.827561 0.559361
0.204040 0.827533 0.556970
0.317234 0.827518 0.554575
0.430317 0.827509 0.552262
0.543164 0.827505 0.550127
0.655648 0.827502 0.548264
0.767654 0.827501 0.546759
0.879083 0.827501 0.545688
0.989862 0.827500 0.545103
0.101608 0.940007 0.551294
0.214310 0.940003 0.549267
0.326597 0.940002 0.547552
0.438360 0.940001 0.546230
0.549509 0.940000 0.545368
0.659988 0.940000 0.545009
0.769770 0.940000 0.545173
0.878867 0.940000 0.545850
0.987325 0.940000 0.547006
0.070004 0.067627 0.679997
0.180007 0.069144 0.679995
0.290012 0.069915 0.679991
0.400021 0.069878 0.679984
0.510035 0.069037 0.679974
0.620056 0.067458 0.679958
0.730090 0.065264 0.679932
0.840142 0.062619 0.679893
0.950220 0.059704 0.679835
0.070026 0.182104 0.679980
0.180043 0.180926 0.679968
0.290070 0.179058 0.679948
0.400111 0.176644 0.679917
0.510173 0.173857 0.679871
0.620265 0.170882 0.679801
0.730399 0.167895 0.679701
0.840591 0.165045 0.679557
0.950860 0.162447 0.679355
0.070135 0.287951 0.679899
0.180209 0.285059 0.679843
0.290318 0.282058 0.679762
0.400475 0.279115 0.679643
0.510699 0.276364 0.679476
0.621009 0.273903 0.679243
0.731432 0.271787 0.678926
0.841998 0.270034 0.678502
0.952738 0.268633 0.677947
0.070565 0.390373 0.679577
0.180823 0.387740 0.679382
0.291180 0.385426 0.679115
0.401662 0.383470 0.678754
0.512300 0.381875 0.678275
0.623128 0.380620 0.677654
0.734180 0.379665 0.676865
0.845489 0.378961 0.675884
0.957082 0.378460 0.674688
0.071922 0.495224 0.678559
0.182639 0.493782 0.678021
0.293562 0.492665 0.677329
0.404723 0.491827 0.676458
0.516154 0.491219 0.675384
0.627880 0.490791 0.674090
0.739915 0.490499 0.672564
0.852259 0.490307 0.670806
0.964894 0.490184 0.668830
0.075318 0.604033 0.676011
0.186877 0.603511 0.674842
0.298738 0.603148 0.673446
0.410910 0.602904 0.671817
0.523386 0.602746 0.669961
0.636138 0.602645 0.667897
0.749119 0.602583 0.665661
0.862257 0.602547 0.663307
0.975461 0.602525 0.660904
0.081964 0.715326 0.671027
0.194566 0.715195 0.669075
0.307427 0.715114 0.666930
0.420487 0.715065 0.664635
0.533667 0.715036 0.662250
0.646866 0.715019 0.659851
0.759968 0.715010 0.657524
0.872849 0.715005 0.655363
0.985382 0.715003 0.653464
0.091878 0.827550 0.663591
0.205080 0.827527 0.661190
0.318252 0.827515 0.658811
0.431272 0.827508 0.656546
0.544015 0.827504 0.654489
0.656356 0.827502 0.652733
0.768185 0.827501 0.651362
0.879409 0.827500 0.650443
0.989968 0.827500 0.650024
0.102522 0.940006 0.655609
0.215103 0.940003 0.653673
0.327231 0.940001 0.652077
0.438803 0.940001 0.650898
0.549740 0.940000 0.650195
0.659993 0.940000 0.650005
0.769550 0.940000 0.650337
0.878434 0.940000 0.651175
0.986700 0.940000 0.652475
0.070005 0.068194 0.784996
0.180009 0.069480 0.784994
0.290015 0.069993 0.784989
0.400025 0.069692 0.784982
0.510041 0.068601 0.784970
0.620066 0.066807 0.784951
0.730105 0.064447 0.784921
0.840164 0.061694 0.784877
0.950252 0.058732 0.784811
0.070031 0.181805 0.784977
0.180050 0.180390 0.784962
0.290081 0.178327 0.784939
0.400128 0.175772 0.784904
0.510199 0.172904 0.784851
0.620303 0.169907 0.784773
0.730454 0.166949 0.784659
0.840669 0.164171 0.784498
0.950968 0.161672 0.784274
0.070156 0.287036 0.784883
0.180240 0.284089 0.784820
0.290363 0.281090 0.784728
0.400540 0.278197 0.784595
0.510789 0.275531 0.784408
0.621133 0.273178 0.784150
0.731598 0.271179 0.783801
0.842217 0.269542 0.783337
0.953021 0.268249 0.782735
0.070639 0.389488 0.784521
0.180927 0.386953 0.784305
0.291321 0.384752 0.784009
0.401850 0.382914 0.783612
0.512546 0.381433 0.783091
0.623443 0.380279 0.782418
0.734574 0.379411 0.781569
0.845973 0.378779 0.780520
0.957664 0.378333 0.779252
0.072134 0.494719 0.783399
0.182914 0.493386 0.782814
0.293910 0.492365 0.782067
0.405156 0.491607 0.781133
0.516680 0.491062 0.779990
0.628506 0.490683 0.778621
0.740641 0.490428 0.777019
0.853083 0.490261 0.775188
0.965805 0.490154 0.773146
0.075792 0.603844 0.780656
0.187446 0.603378 0.779415
0.299408 0.603058 0.777944
0.411680 0.602845 0.776240
0.524249 0.602708 0.774313
0.637082 0.602622 0.772188
0.750123 0.602569 0.769908
0.863294 0.602538 0.767530
0.976496 0.602521 0.765128
0.082777 0.715277 0.775417
0.195468 0.715165 0.773399
0.308400 0.715095 0.771200
0.421509 0.715054 0.768868
0.534707 0.715029 0.766470
0.647888 0.715016 0.764084
0.760932 0.715008 0.761801
0.873714 0.715004 0.759715
0.986108 0.715002 0.757919
0.092913 0.827541 0.767816
0.206117 0.827522 0.765412
0.319253 0.827512 0.763060
0.432198 0.827506 0.760852
0.544823 0.827503 0.758882
0.657010 0.827501 0.757243
0.768651 0.827501 0.756011
0.879665 0.827500 0.755251
0.990000 0.827500 0.755000
0.103401 0.940004 0.759949
0.215847 0.940002 0.758114
0.327806 0.940001 0.756646
0.439179 0.940000 0.755616
0.549898 0.940000 0.755076
0.659926 0.940000 0.755056
0.769260 0.940000 0.755555
0.877936 0.940000 0.756548
0.986020 0.940000 0.757985
0.070006 0.068691 0.889996
0.180010 0.069734 0.889992
0.290017 0.069985 0.889987
0.400029 0.069422 0.889978
0.510048 0.068090 0.889964
0.620077 0.066096 0.889942
0.730121 0.063589 0.889909
0.840189 0.060748 0.889858
0.950289 0.057757 0.889783
0.070036 0.181425 0.889973
0.180059 0.179785 0.889956
0.290094 0.177545 0.889929
0.400148 0.174868 0.889889
0.510228 0.171938 0.889829
0.620346 0.168936 0.889740
0.730516 0.166023 0.889613
0.840755 0.163327 0.889434
0.951087 0.160934 0.889185
0.070179 0.286097 0.889865
0.180275 0.283115 0.889794
0.290413 0.280134 0.889690
0.400611 0.277303 0.889541
0.510889 0.274731 0.889334
0.621269 0.272490 0.889048
0.731781 0.270609 0.888665
0.842455 0.269087 0.888159
0.953327 0.267898 0.887505
0.070722 0.388633 0.889458
0.181042 0.386201 0.889219
0.291476 0.384116 0.888893
0.402056 0.382396 0.888458
0.512813 0.381025 0.887890
0.623782 0.379969 0.887163
0.734997 0.379183 0.886252
0.846488 0.378616 0.885134
0.958277 0.378220 0.883792
0.072365 0.494250 0.888226
0.183212 0.493023 0.887591
0.294285 0.492093 0.886786
0.405618 0.491409 0.885786
0.517238 0.490924 0.884571
0.629164 0.490589 0.883127
0.741400 0.490365 0.881450
0.853936 0.490221 0.879548
0.966741 0.490130 0.877445
0.076295 0.603674 0.885279
0.188048 0.603260 0.883964
0.300111 0.602979 0.882417
0.412482 0.602794 0.880639
0.525141 0.602675 0.878644
0.638048 0.602602 0.876464
0.751141 0.602557 0.874144
0.864334 0.602532 0.871750
0.977522 0.602517 0.869358
0.083619 0.715235 0.879785
0.196394 0.715138 0.877704
0.309392 0.715079 0.875456
0.422541 0.715044 0.873094
0.535745 0.715024 0.870691
0.648896 0.715013 0.868328
0.761869 0.715007 0.866098
0.874538 0.715003 0.864096
0.986782 0.715002 0.862414
0.093952 0.827534 0.872036
0.207147 0.827518 0.869640
0.320235 0.827509 0.867324
0.433090 0.827505 0.865183
0.545586 0.827502 0.863311
0.657606 0.827501 0.861795
0.769052 0.827501 0.860711
0.879850 0.827500 0.860113
0.989958 0.827500 0.860031
0.104241 0.940004 0.864319
0.216541 0.940002 0.862594
0.328319 0.940001 0.861261
0.439487 0.940000 0.860385
0.549984 0.940000 0.860012
0.659785 0.940000 0.860161
0.768900 0.940000 0.860825
0.877375 0.940000 0.861969
0.985287 0.940000 0.863535
