public/luts/Matte.cube
# © 2026 luttie. All rights reserved.
# This LUT is licensed for use within the luttie platform only.
# Unauthorized redistribution or resale is prohibited.
TITLE "Matte Fade"
LUT_3D_SIZE 33
0.058585 0.050785 0.066385
0.080805 0.052042 0.067642
0.103024 0.053299 0.068899
0.125244 0.054556 0.070156
0.147463 0.055813 0.071413
0.169683 0.057070 0.072670
0.191902 0.058327 0.073927
0.214122 0.059584 0.075184
0.236341 0.060841 0.076441
0.258561 0.062098 0.077698
0.280780 0.063355 0.078955
0.303000 0.064612 0.080212
0.325219 0.065869 0.081469
0.347439 0.067126 0.082726
0.369658 0.068383 0.083983
0.391878 0.069640 0.085240
0.414097 0.070897 0.086497
0.436317 0.072154 0.087754
0.458536 0.073411 0.089011
0.480756 0.074668 0.090268
0.502975 0.075925 0.091525
0.525195 0.077182 0.092782
0.547414 0.078439 0.094039
0.569634 0.079696 0.095296
0.591853 0.080953 0.096553
0.614073 0.082210 0.097810
0.636292 0.083467 0.099067
0.658512 0.084724 0.100324
0.680731 0.085981 0.101581
0.702951 0.087238 0.102838
0.725170 0.088495 0.104095
0.747390 0.089752 0.105352
0.769609 0.091009 0.106609
0.062814 0.075977 0.070614
0.085034 0.077234 0.071871
0.107253 0.078491 0.073128
0.129473 0.079748 0.074385
0.151692 0.081005 0.075642
0.173912 0.082262 0.076899
0.196131 0.083519 0.078156
0.218351 0.084776 0.079413
0.240570 0.086032 0.080670
0.262789 0.087289 0.081927
0.285009 0.088546 0.083184
0.307228 0.089803 0.084441
0.329448 0.091060 0.085698
0.351667 0.092317 0.086955
0.373887 0.093574 0.088212
0.396106 0.094831 0.089469
0.418326 0.096088 0.090726
0.440545 0.097345 0.091983
0.462765 0.098602 0.093240
0.484984 0.099859 0.094497
0.507204 0.101116 0.095754
0.529423 0.102373 0.097011
0.551643 0.103630 0.098268
0.573862 0.104887 0.099525
0.596082 0.106144 0.100782
0.618301 0.107401 0.102039
0.640521 0.108658 0.103296
0.662740 0.109915 0.104553
0.684960 0.111172 0.105810
0.707179 0.112429 0.107067
0.729399 0.113686 0.108324
0.751618 0.114943 0.109581
0.773838 0.116200 0.110838
0.067043 0.101168 0.074843
0.089262 0.102425 0.076100
0.111482 0.103682 0.077357
0.133701 0.104939 0.078614
0.155921 0.106196 0.079871
0.178140 0.107453 0.081128
0.200360 0.108710 0.082385
0.222579 0.109967 0.083642
0.244799 0.111224 0.084899
0.267018 0.112481 0.086156
0.289238 0.113738 0.087413
0.311457 0.114995 0.088670
0.333677 0.116252 0.089927
0.355896 0.117509 0.091184
0.378116 0.118766 0.092441
0.400335 0.120023 0.093698
0.422555 0.121280 0.094955
0.444774 0.122537 0.096212
0.466994 0.123794 0.097469
0.489213 0.125051 0.098726
0.511433 0.126308 0.099983
0.533652 0.127565 0.101240
0.555872 0.128822 0.102497
0.578091 0.130079 0.103754
0.600311 0.131336 0.105011
0.622530 0.132593 0.106268
0.644750 0.133850 0.107525
0.666969 0.135107 0.108782
0.689189 0.136364 0.110039
0.711408 0.137621 0.111296
0.733628 0.138878 0.112553
0.755847 0.140135 0.113810
0.778067 0.141392 0.115067
0.071271 0.126359 0.079071
0.093491 0.127616 0.080328
0.115710 0.128873 0.081585
0.137930 0.130130 0.082842
0.160149 0.131387 0.084099
0.182369 0.132644 0.085356
0.204588 0.133901 0.086613
0.226808 0.135158 0.087870
0.249027 0.136415 0.089127
0.271247 0.137672 0.090384
0.293466 0.138929 0.091641
0.315686 0.140186 0.092898
0.337905 0.141443 0.094155
0.360125 0.142700 0.095412
0.382344 0.143957 0.096669
0.404564 0.145214 0.097926
0.426783 0.146471 0.099183
0.449003 0.147728 0.100440
0.471222 0.148985 0.101697
0.493442 0.150242 0.102954
0.515661 0.151499 0.104211
0.537881 0.152756 0.105468
0.560100 0.154013 0.106725
0.582320 0.155270 0.107982
0.604539 0.156527 0.109239
0.626759 0.157784 0.110496
0.648978 0.159041 0.111753
0.671198 0.160298 0.113010
0.693417 0.161555 0.114267
0.715637 0.162812 0.115524
0.737856 0.164069 0.116781
0.760076 0.165326 0.118038
0.782295 0.166583 0.119295
0.075500 0.151550 0.083300
0.097719 0.152807 0.084557
0.119939 0.154064 0.085814
0.142158 0.155321 0.087071
0.164378 0.156578 0.088328
0.186597 0.157835 0.089585
0.208817 0.159092 0.090842
0.231036 0.160349 0.092099
0.253256 0.161606 0.093356
0.275475 0.162863 0.094613
0.297695 0.164120 0.095870
0.319914 0.165377 0.097127
0.342134 0.166634 0.098384
0.364353 0.167891 0.099641
0.386573 0.169148 0.100898
0.408792 0.170405 0.102155
0.431012 0.171662 0.103412
0.453231 0.172919 0.104669
0.475451 0.174176 0.105926
0.497670 0.175433 0.107183
0.519890 0.176690 0.108440
0.542109 0.177947 0.109697
0.564329 0.179204 0.110954
0.586548 0.180461 0.112211
0.608768 0.181718 0.113468
0.630987 0.182975 0.114725
0.653207 0.184232 0.115982
0.675426 0.185489 0.117239
0.697646 0.186746 0.118496
0.719865 0.188003 0.119753
0.742085 0.189260 0.121010
0.764304 0.190517 0.122267
0.786524 0.191774 0.123524
0.079728 0.176741 0.087529
0.101948 0.177998 0.088785
0.124167 0.179255 0.090042
0.146387 0.180512 0.091299
0.168606 0.181769 0.092556
0.190826 0.183026 0.093813
0.213045 0.184283 0.095070
0.235265 0.185540 0.096327
0.257484 0.186797 0.097584
0.279704 0.188054 0.098841
0.301923 0.189311 0.100098
0.324143 0.190568 0.101355
0.346362 0.191825 0.102612
0.368582 0.193082 0.103869
0.390801 0.194339 0.105126
0.413021 0.195596 0.106383
0.435240 0.196853 0.107640
0.457460 0.198110 0.108897
0.479679 0.199367 0.110154
0.501899 0.200624 0.111411
0.524118 0.201881 0.112668
0.546338 0.203138 0.113925
0.568557 0.204395 0.115182
0.590777 0.205652 0.116439
0.612996 0.206909 0.117696
0.635216 0.208166 0.118953
0.657435 0.209423 0.120210
0.679655 0.210680 0.121467
0.701874 0.211937 0.122724
0.724094 0.213194 0.123981
0.746313 0.214451 0.125238
0.768533 0.215708 0.126495
0.790752 0.216965 0.127752
0.083957 0.201932 0.091757
0.106177 0.203189 0.093014
0.128396 0.204446 0.094271
0.150616 0.205703 0.095528
0.172835 0.206960 0.096785
0.195055 0.208217 0.098042
0.217274 0.209474 0.099299
0.239494 0.210731 0.100556
0.261713 0.211988 0.101813
0.283933 0.213245 0.103070
0.306152 0.214502 0.104327
0.328372 0.215759 0.105584
0.350591 0.217016 0.106841
0.372811 0.218273 0.108098
0.395030 0.219530 0.109355
0.417250 0.220787 0.110612
0.439469 0.222044 0.111869
0.461689 0.223301 0.113126
0.483908 0.224558 0.114383
0.506128 0.225815 0.115640
0.528347 0.227072 0.116897
0.550567 0.228329 0.118154
0.572786 0.229586 0.119411
0.595006 0.230843 0.120668
0.617225 0.232100 0.121925
0.639445 0.233357 0.123182
0.661664 0.234614 0.124439
0.683884 0.235871 0.125696
0.706103 0.237128 0.126953
0.728323 0.238385 0.128210
0.750542 0.239642 0.129467
0.772762 0.240899 0.130724
0.794981 0.242156 0.131981
0.088186 0.227123 0.095986
0.110405 0.228380 0.097243
0.132625 0.229637 0.098500
0.154844 0.230894 0.099757
0.177064 0.232151 0.101014
0.199283 0.233408 0.102271
0.221503 0.234665 0.103528
0.243722 0.235922 0.104785
0.265942 0.237179 0.106042
0.288161 0.238436 0.107299
0.310381 0.239693 0.108556
0.332600 0.240950 0.109813
0.354820 0.242207 0.111070
0.377039 0.243464 0.112327
0.399259 0.244721 0.113584
0.421478 0.245978 0.114841
0.443698 0.247235 0.116098
0.465917 0.248492 0.117355
0.488137 0.249749 0.118612
0.510356 0.251006 0.119869
0.532576 0.252263 0.121126
0.554795 0.253520 0.122383
0.577015 0.254777 0.123640
0.599234 0.256034 0.124897
0.621454 0.257291 0.126154
0.643673 0.258548 0.127411
0.665893 0.259805 0.128668
0.688112 0.261062 0.129925
0.710332 0.262319 0.131182
0.732551 0.263576 0.132439
0.754771 0.264833 0.133696
0.776990 0.266090 0.134953
0.799210 0.267347 0.136210
0.092414 0.252314 0.100214
0.114634 0.253571 0.101471
0.136853 0.254828 0.102728
0.159073 0.256085 0.103985
0.181292 0.257342 0.105242
0.203512 0.258599 0.106499
0.225731 0.259856 0.107756
0.247951 0.261113 0.109013
0.270170 0.262370 0.110270
0.292390 0.263627 0.111527
0.314609 0.264884 0.112784
0.336829 0.266141 0.114041
0.359048 0.267398 0.115298
0.381268 0.268655 0.116555
0.403487 0.269912 0.117812
0.425707 0.271169 0.119069
0.447926 0.272426 0.120326
0.470146 0.273683 0.121583
0.492365 0.274940 0.122840
0.514585 0.276197 0.124097
0.536804 0.277454 0.125354
0.559024 0.278711 0.126611
0.581243 0.279968 0.127868
0.603463 0.281225 0.129125
0.625682 0.282482 0.130382
0.647902 0.283739 0.131639
0.670121 0.284996 0.132896
0.692341 0.286253 0.134153
0.714560 0.287510 0.135410
0.736780 0.288767 0.136667
0.758999 0.290024 0.137924
0.781219 0.291281 0.139181
0.803438 0.292538 0.140438
0.096643 0.277505 0.104443
0.118862 0.278762 0.105700
0.141082 0.280019 0.106957
0.163301 0.281276 0.108214
0.185521 0.282533 0.109471
0.207740 0.283790 0.110728
0.229960 0.285047 0.111985
0.252179 0.286304 0.113242
0.274399 0.287561 0.114499
0.296618 0.288818 0.115756
0.318838 0.290075 0.117013
0.341057 0.291332 0.118270
0.363277 0.292589 0.119527
0.385496 0.293846 0.120784
0.407716 0.295103 0.122041
0.429935 0.296360 0.123298
0.452155 0.297617 0.124555
0.474374 0.298874 0.125812
0.496594 0.300131 0.127069
0.518813 0.301388 0.128326
0.541033 0.302645 0.129583
0.563252 0.303902 0.130840
0.585472 0.305159 0.132097
0.607691 0.306416 0.133354
0.629911 0.307673 0.134611
0.652130 0.308930 0.135868
0.674350 0.310187 0.137125
0.696569 0.311444 0.138382
0.718789 0.312701 0.139639
0.741008 0.313958 0.140896
0.763228 0.315215 0.142153
0.785447 0.316472 0.143410
0.807667 0.317729 0.144667
0.100872 0.302697 0.108672
0.123091 0.303954 0.109929
0.145311 0.305211 0.111186
0.167530 0.306468 0.112443
0.189750 0.307725 0.113700
0.211969 0.308982 0.114957
0.234189 0.310239 0.116214
0.256408 0.311496 0.117471
0.278628 0.312753 0.118728
0.300847 0.314010 0.119985
0.323067 0.315267 0.121242
0.345286 0.316524 0.122499
0.367506 0.317781 0.123756
0.389725 0.319038 0.125013
0.411945 0.320295 0.126270
0.434164 0.321552 0.127527
0.456384 0.322809 0.128784
0.478603 0.324066 0.130041
0.500823 0.325323 0.131298
0.523042 0.326580 0.132555
0.545262 0.327837 0.133812
0.567481 0.329094 0.135069
0.589701 0.330351 0.136326
0.611920 0.331608 0.137583
0.634140 0.332865 0.138840
0.656359 0.334122 0.140097
0.678579 0.335379 0.141354
0.700798 0.336636 0.142611
0.723018 0.337893 0.143868
0.745237 0.339150 0.145125
0.767457 0.340407 0.146382
0.789676 0.341664 0.147639
0.811896 0.342921 0.148896
0.105100 0.327888 0.112900
0.127320 0.329145 0.114157
0.149539 0.330402 0.115414
0.171759 0.331659 0.116671
0.193978 0.332916 0.117928
0.216198 0.334173 0.119185
0.238417 0.335430 0.120442
0.260637 0.336687 0.121699
0.282856 0.337944 0.122956
0.305076 0.339201 0.124213
0.327295 0.340458 0.125470
0.349515 0.341715 0.126727
0.371734 0.342972 0.127984
0.393954 0.344229 0.129241
0.416173 0.345486 0.130498
0.438393 0.346743 0.131755
0.460612 0.348000 0.133012
0.482832 0.349257 0.134269
0.505051 0.350514 0.135526
0.527271 0.351771 0.136783
0.549490 0.353028 0.138040
0.571710 0.354285 0.139297
0.593929 0.355542 0.140554
0.616149 0.356799 0.141811
0.638368 0.358056 0.143068
0.660588 0.359313 0.144325
0.682807 0.360570 0.145582
0.705027 0.361827 0.146839
0.727246 0.363084 0.148096
0.749466 0.364341 0.149353
0.771685 0.365598 0.150610
0.793905 0.366855 0.151867
0.816124 0.368112 0.153124
0.109329 0.353079 0.117129
0.131548 0.354336 0.118386
0.153768 0.355593 0.119643
0.175987 0.356850 0.120900
0.198207 0.358107 0.122157
0.220426 0.359364 0.123414
0.242646 0.360621 0.124671
0.264865 0.361878 0.125928
0.287085 0.363135 0.127185
0.309304 0.364392 0.128442
0.331524 0.365649 0.129699
0.353743 0.366906 0.130956
0.375963 0.368163 0.132213
0.398182 0.369420 0.133470
0.420402 0.370677 0.134727
0.442621 0.371934 0.135984
0.464841 0.373191 0.137241
0.487060 0.374448 0.138498
0.509280 0.375705 0.139755
0.531499 0.376962 0.141012
0.553719 0.378219 0.142269
0.575938 0.379476 0.143526
0.598158 0.380733 0.144783
0.620377 0.381990 0.146040
0.642597 0.383247 0.147297
0.664816 0.384504 0.148554
0.687036 0.385761 0.149811
0.709255 0.387018 0.151068
0.731475 0.388275 0.152325
0.753694 0.389532 0.153582
0.775914 0.390789 0.154839
0.798133 0.392046 0.156096
0.820353 0.393303 0.157353
0.113557 0.378270 0.121357
0.135777 0.379527 0.122614
0.157996 0.380784 0.123871
0.180216 0.382041 0.125128
0.202435 0.383298 0.126385
0.224655 0.384555 0.127642
0.246874 0.385812 0.128899
0.269094 0.387069 0.130156
0.291313 0.388326 0.131413
0.313533 0.389583 0.132670
0.335752 0.390840 0.133927
0.357972 0.392097 0.135184
0.380191 0.393354 0.136441
0.402411 0.394611 0.137698
0.424630 0.395868 0.138955
0.446850 0.397125 0.140212
0.469069 0.398382 0.141469
0.491289 0.399639 0.142726
0.513508 0.400896 0.143983
0.535728 0.402153 0.145240
0.557947 0.403410 0.146497
0.580167 0.404667 0.147754
0.602386 0.405924 0.149011
0.624606 0.407181 0.150268
0.646825 0.408438 0.151525
0.669045 0.409695 0.152782
0.691264 0.410952 0.154039
0.713484 0.412209 0.155296
0.735703 0.413466 0.156553
0.757923 0.414723 0.157810
0.780142 0.415980 0.159067
0.802362 0.417237 0.160324
0.824581 0.418494 0.161581
0.117786 0.403461 0.125586
0.140006 0.404718 0.126843
0.162225 0.405975 0.128100
0.184445 0.407232 0.129357
0.206664 0.408489 0.130614
0.228884 0.409746 0.131871
0.251103 0.411003 0.133128
0.273323 0.412260 0.134385
0.295542 0.413517 0.135642
0.317762 0.414774 0.136899
0.339981 0.416031 0.138156
0.362201 0.417288 0.139413
0.384420 0.418545 0.140670
0.406640 0.419802 0.141927
0.428859 0.421059 0.143184
0.451079 0.422316 0.144441
0.473298 0.423573 0.145698
0.495518 0.424830 0.146955
0.517737 0.426087 0.148212
0.539957 0.427344 0.149469
0.562176 0.428601 0.150726
0.584396 0.429858 0.151983
0.606615 0.431115 0.153240
0.628835 0.432372 0.154497
0.651054 0.433629 0.155754
0.673274 0.434886 0.157011
0.695493 0.436143 0.158268
0.717713 0.437400 0.159525
0.739932 0.438657 0.160782
0.762152 0.439914 0.162039
0.784371 0.441171 0.163296
0.806591 0.442428 0.164553
0.828810 0.443685 0.165810
0.122015 0.428652 0.129815
0.144234 0.429909 0.131072
0.166454 0.431166 0.132329
0.188673 0.432423 0.133586
0.210893 0.433680 0.134843
0.233112 0.434937 0.136100
0.255332 0.436194 0.137357
0.277551 0.437451 0.138614
0.299771 0.438708 0.139871
0.321990 0.439965 0.141128
0.344210 0.441222 0.142385
0.366429 0.442479 0.143642
0.388649 0.443736 0.144899
0.410868 0.444993 0.146156
0.433088 0.446250 0.147413
0.455307 0.447507 0.148670
0.477527 0.448764 0.149927
0.499746 0.450021 0.151184
0.521966 0.451278 0.152441
0.544185 0.452535 0.153698
0.566405 0.453792 0.154955
0.588624 0.455049 0.156212
0.610844 0.456306 0.157469
0.633063 0.457563 0.158726
0.655283 0.458820 0.159983
0.677502 0.460077 0.161240
0.699722 0.461334 0.162497
0.721941 0.462591 0.163754
0.744161 0.463848 0.165011
0.766380 0.465105 0.166268
0.788600 0.466362 0.167525
0.810819 0.467619 0.168782
0.833039 0.468876 0.170039
0.126243 0.453843 0.134043
0.148463 0.455100 0.135300
0.170682 0.456357 0.136557
0.192902 0.457614 0.137814
0.215121 0.458871 0.139071
0.237341 0.460128 0.140328
0.259560 0.461385 0.141585
0.281780 0.462642 0.142842
0.303999 0.463899 0.144099
0.326219 0.465156 0.145356
0.348438 0.466413 0.146613
0.370658 0.467670 0.147870
0.392877 0.468927 0.149127
0.415097 0.470184 0.150384
0.437316 0.471441 0.151641
0.459536 0.472698 0.152898
0.481755 0.473955 0.154155
0.503975 0.475212 0.155412
0.526194 0.476469 0.156669
0.548414 0.477726 0.157926
0.570633 0.478983 0.159183
0.592853 0.480240 0.160440
0.615072 0.481497 0.161697
0.637292 0.482754 0.162954
0.659511 0.484011 0.164211
0.681731 0.485268 0.165468
0.703950 0.486525 0.166725
0.726170 0.487782 0.167982
0.748389 0.489039 0.169239
0.770609 0.490296 0.170496
0.792828 0.491553 0.171753
0.815048 0.492810 0.173010
0.837267 0.494067 0.174267
0.130472 0.479034 0.138272
0.152691 0.480291 0.139529
0.174911 0.481548 0.140786
0.197130 0.482805 0.142043
0.219350 0.484062 0.143300
0.241569 0.485319 0.144557
0.263789 0.486576 0.145814
0.286008 0.487833 0.147071
0.308228 0.489090 0.148328
0.330447 0.490347 0.149585
0.352667 0.491604 0.150842
0.374886 0.492861 0.152099
0.397106 0.494118 0.153356
0.419325 0.495375 0.154613
0.441545 0.496632 0.155870
0.463764 0.497889 0.157127
0.485984 0.499146 0.158384
0.508203 0.500403 0.159641
0.530423 0.501660 0.160898
0.552642 0.502917 0.162155
0.574862 0.504174 0.163412
0.597081 0.505431 0.164669
0.619301 0.506688 0.165926
0.641520 0.507945 0.167183
0.663740 0.509202 0.168440
0.685959 0.510459 0.169697
0.708179 0.511716 0.170954
0.730398 0.512973 0.172211
0.752618 0.514230 0.173468
0.774837 0.515487 0.174725
0.797057 0.516744 0.175982
0.819276 0.518001 0.177239
0.841496 0.519258 0.178496
0.134701 0.504226 0.142501
0.156920 0.505483 0.143758
0.179140 0.506740 0.145015
0.201359 0.507997 0.146272
0.223579 0.509254 0.147529
0.245798 0.510511 0.148786
0.268018 0.511768 0.150043
0.290237 0.513025 0.151300
0.312457 0.514282 0.152557
0.334676 0.515539 0.153814
0.356896 0.516796 0.155071
0.379115 0.518053 0.156328
0.401335 0.519310 0.157585
0.423554 0.520567 0.158842
0.445774 0.521824 0.160099
0.467993 0.523081 0.161356
0.490213 0.524338 0.162613
0.512432 0.525595 0.163870
0.534652 0.526852 0.165127
0.556871 0.528109 0.166384
0.579091 0.529366 0.167641
0.601310 0.530623 0.168898
0.623530 0.531880 0.170155
0.645749 0.533137 0.171412
0.667969 0.534394 0.172669
0.690188 0.535650 0.173925
0.712407 0.536907 0.175182
0.734627 0.538164 0.176439
0.756846 0.539421 0.177696
0.779066 0.540678 0.178953
0.801285 0.541935 0.180210
0.823505 0.543192 0.181467
0.845724 0.544449 0.182724
0.138929 0.529417 0.146729
0.161149 0.530674 0.147986
0.183368 0.531931 0.149243
0.205588 0.533188 0.150500
0.227807 0.534445 0.151757
0.250027 0.535702 0.153014
0.272246 0.536959 0.154271
0.294466 0.538216 0.155528
0.316685 0.539473 0.156785
0.338905 0.540730 0.158042
0.361124 0.541987 0.159299
0.383344 0.543244 0.160556
0.405563 0.544501 0.161813
0.427783 0.545758 0.163070
0.450002 0.547015 0.164327
0.472222 0.548272 0.165584
0.494441 0.549529 0.166841
0.516661 0.550786 0.168098
0.538880 0.552043 0.169355
0.561100 0.553300 0.170612
0.583319 0.554557 0.171869
0.605539 0.555814 0.173126
0.627758 0.557071 0.174383
0.649978 0.558328 0.175640
0.672197 0.559585 0.176897
0.694417 0.560842 0.178154
0.716636 0.562099 0.179411
0.738856 0.563356 0.180668
0.761075 0.564613 0.181925
0.783295 0.565870 0.183182
0.805514 0.567127 0.184439
0.827734 0.568384 0.185696
0.849953 0.569641 0.186953
0.143158 0.554608 0.150958
0.165377 0.555865 0.152215
0.187597 0.557122 0.153472
0.209816 0.558379 0.154729
0.232036 0.559636 0.155986
0.254255 0.560893 0.157243
0.276475 0.562150 0.158500
0.298694 0.563407 0.159757
0.320914 0.564664 0.161014
0.343133 0.565921 0.162271
0.365353 0.567178 0.163528
0.387572 0.568435 0.164785
0.409792 0.569692 0.166042
0.432011 0.570949 0.167299
0.454231 0.572206 0.168556
0.476450 0.573463 0.169813
0.498670 0.574720 0.171070
0.520889 0.575977 0.172327
0.543109 0.577234 0.173584
0.565328 0.578491 0.174841
0.587548 0.579748 0.176098
0.609767 0.581005 0.177355
0.631987 0.582262 0.178612
0.654206 0.583519 0.179869
0.676426 0.584776 0.181126
0.698645 0.586033 0.182383
0.720865 0.587290 0.183640
0.743084 0.588547 0.184897
0.765304 0.589804 0.186154
0.787523 0.591061 0.187411
0.809743 0.592318 0.188668
0.831962 0.593575 0.189925
0.854182 0.594832 0.191182
0.147386 0.579799 0.155186
0.169606 0.581056 0.156443
0.191825 0.582313 0.157700
0.214045 0.583570 0.158957
0.236264 0.584827 0.160214
0.258484 0.586084 0.161471
0.280703 0.587341 0.162728
0.302923 0.588598 0.163985
0.325142 0.589855 0.165242
0.347362 0.591112 0.166499
0.369581 0.592369 0.167756
0.391801 0.593626 0.169013
0.414020 0.594883 0.170270
0.436240 0.596140 0.171527
0.458459 0.597397 0.172784
0.480679 0.598654 0.174041
0.502898 0.599911 0.175298
0.525118 0.601168 0.176555
0.547337 0.602425 0.177812
0.569557 0.603682 0.179069
0.591776 0.604939 0.180326
0.613996 0.606196 0.181583
0.636215 0.607453 0.182840
0.658435 0.608710 0.184097
0.680654 0.609967 0.185354
0.702874 0.611224 0.186611
0.725093 0.612481 0.187868
0.747313 0.613738 0.189125
0.769532 0.614995 0.190382
0.791752 0.616252 0.191639
0.813971 0.617509 0.192896
0.836191 0.618766 0.194153
0.858410 0.620023 0.195410
0.151615 0.604990 0.159415
0.173835 0.606247 0.160672
0.196054 0.607504 0.161929
0.218274 0.608761 0.163186
0.240493 0.610018 0.164443
0.262713 0.611275 0.165700
0.284932 0.612532 0.166957
0.307152 0.613789 0.168214
0.329371 0.615046 0.169471
0.351591 0.616303 0.170728
0.373810 0.617560 0.171985
0.396030 0.618817 0.173242
0.418249 0.620074 0.174499
0.440469 0.621331 0.175756
0.462688 0.622588 0.177013
0.484908 0.623845 0.178270
0.507127 0.625102 0.179527
0.529346 0.626359 0.180784
0.551566 0.627616 0.182041
0.573785 0.628873 0.183298
0.596005 0.630130 0.184555
0.618224 0.631387 0.185812
0.640444 0.632644 0.187069
0.662663 0.633901 0.188326
0.684883 0.635158 0.189583
0.707102 0.636415 0.190840
0.729322 0.637672 0.192097
0.751541 0.638929 0.193354
0.773761 0.640186 0.194611
0.795980 0.641443 0.195868
0.818200 0.642700 0.197125
0.840419 0.643957 0.198382
0.862639 0.645214 0.199639
0.155844 0.630181 0.163644
0.178063 0.631438 0.164901
0.200283 0.632695 0.166158
0.222502 0.633952 0.167415
0.244722 0.635209 0.168672
0.266941 0.636466 0.169929
0.289161 0.637723 0.171186
0.311380 0.638980 0.172443
0.333600 0.640237 0.173700
0.355819 0.641494 0.174957
0.378039 0.642751 0.176214
0.400258 0.644008 0.177471
0.422478 0.645265 0.178728
0.444697 0.646522 0.179985
0.466917 0.647779 0.181242
0.489136 0.649036 0.182499
0.511356 0.650293 0.183756
0.533575 0.651550 0.185013
0.555795 0.652807 0.186270
0.578014 0.654064 0.187527
0.600234 0.655321 0.188784
0.622453 0.656578 0.190041
0.644673 0.657835 0.191298
0.666892 0.659092 0.192555
0.689112 0.660349 0.193812
0.711331 0.661606 0.195069
0.733551 0.662863 0.196326
0.755770 0.664120 0.197583
0.777990 0.665377 0.198840
0.800209 0.666634 0.200097
0.822429 0.667891 0.201354
0.844648 0.669148 0.202611
0.866868 0.670405 0.203868
0.160072 0.655372 0.167872
0.182292 0.656629 0.169129
0.204511 0.657886 0.170386
0.226731 0.659143 0.171643
0.248950 0.660400 0.172900
0.271170 0.661657 0.174157
0.293389 0.662914 0.175414
0.315609 0.664171 0.176671
0.337828 0.665428 0.177928
0.360048 0.666685 0.179185
0.382267 0.667942 0.180442
0.404487 0.669199 0.181699
0.426706 0.670456 0.182956
0.448926 0.671713 0.184213
0.471145 0.672970 0.185470
0.493365 0.674227 0.186727
0.515584 0.675484 0.187984
0.537804 0.676741 0.189241
0.560023 0.677998 0.190498
0.582243 0.679255 0.191755
0.604462 0.680512 0.193012
0.626682 0.681769 0.194269
0.648901 0.683026 0.195526
0.671121 0.684283 0.196783
0.693340 0.685540 0.198040
0.715560 0.686797 0.199297
0.737779 0.688054 0.200554
0.759999 0.689311 0.201811
0.782218 0.690568 0.203068
0.804438 0.691825 0.204325
0.826657 0.693082 0.205582
0.848877 0.694339 0.206839
0.871096 0.695596 0.208096
0.164301 0.680563 0.172101
0.186520 0.681820 0.173358
0.208740 0.683077 0.174615
0.230959 0.684334 0.175872
0.253179 0.685591 0.177129
0.275398 0.686848 0.178386
0.297618 0.688105 0.179643
0.319837 0.689362 0.180900
0.342057 0.690619 0.182157
0.364276 0.691876 0.183414
0.386496 0.693133 0.184671
0.408715 0.694390 0.185928
0.430935 0.695647 0.187185
0.453154 0.696904 0.188442
0.475374 0.698161 0.189699
0.497593 0.699418 0.190956
0.519813 0.700675 0.192213
0.542032 0.701932 0.193470
0.564252 0.703189 0.194727
0.586471 0.704446 0.195984
0.608691 0.705703 0.197241
0.630910 0.706960 0.198498
0.653130 0.708217 0.199755
0.675349 0.709474 0.201012
0.697569 0.710731 0.202269
0.719788 0.711988 0.203526
0.742008 0.713245 0.204783
0.764227 0.714502 0.206040
0.786447 0.715759 0.207297
0.808666 0.717016 0.208554
0.830886 0.718273 0.209811
0.853105 0.719530 0.211068
0.875325 0.720787 0.212325
0.168530 0.705755 0.176330
0.190749 0.707012 0.177587
0.212969 0.708269 0.178844
0.235188 0.709526 0.180101
0.257408 0.710783 0.181358
0.279627 0.712040 0.182615
0.301847 0.713297 0.183872
0.324066 0.714554 0.185129
0.346285 0.715811 0.186386
0.368505 0.717067 0.187642
0.390724 0.718324 0.188899
0.412944 0.719581 0.190156
0.435163 0.720838 0.191413
0.457383 0.722095 0.192670
0.479602 0.723352 0.193927
0.501822 0.724609 0.195184
0.524041 0.725866 0.196441
0.546261 0.727123 0.197698
0.568480 0.728380 0.198955
0.590700 0.729637 0.200212
0.612919 0.730894 0.201469
0.635139 0.732151 0.202726
0.657358 0.733408 0.203983
