public/luts/Matte.cube
# © 2026 luttie. All rights reserved.
# This LUT is licensed for use within the luttie platform only.
# Unauthorized redistribution or resale is prohibited.
TITLE "Matte Fade"
LUT_3D_SIZE 5
0.058585 0.050785 0.066385
0.236341 0.060841 0.076441
0.414097 0.070897 0.086497
0.591853 0.080953 0.096553
0.769609 0.091009 0.106609
0.092414 0.252314 0.100214
0.270170 0.262370 0.110270
0.447926 0.272426 0.120326
0.625682 0.282482 0.130382
0.803438 0.292538 0.140438
0.126243 0.453843 0.134043
0.303999 0.463899 0.144099
0.481755 0.473955 0.154155
0.659511 0.484011 0.164211
0.837267 0.494067 0.174267
0.160072 0.655372 0.167872
0.337828 0.665428 0.177928
0.515584 0.675484 0.187984
0.693340 0.685540 0.198040
0.871096 0.695596 0.208096
0.193901 0.856901 0.201701
0.371657 0.866957 0.211757
0.549413 0.877013 0.221813
0.727169 0.887069 0.231869
0.904925 0.897125 0.241925
0.062000 0.054200 0.237500
0.239756 0.064256 0.247556
0.417512 0.074312 0.257612
0.595268 0.084368 0.267668
0.773024 0.094424 0.277724
0.095829 0.255729 0.271329
0.273585 0.265785 0.281385
0.451341 0.275841 0.291441
0.629097 0.285897 0.301497
0.806853 0.295953 0.311553
0.129658 0.457258 0.305158
0.307414 0.467314 0.315214
0.485170 0.477370 0.325270
0.662926 0.487426 0.335326
0.840682 0.497482 0.345382
0.163487 0.658787 0.338987
0.341243 0.668843 0.349043
0.518999 0.678899 0.359099
0.696755 0.688955 0.369155
0.874511 0.699011 0.379211
0.197316 0.860316 0.372816
0.375072 0.870372 0.382872
0.552828 0.880428 0.392928
0.730584 0.890484 0.402984
0.908340 0.900540 0.413040
0.065416 0.057616 0.408616
0.243172 0.067671 0.418671
0.420927 0.077727 0.428727
0.598683 0.087783 0.438783
0.776439 0.097839 0.448839
0.099244 0.259144 0.442444
0.277000 0.269200 0.452500
0.454756 0.279256 0.462556
0.632512 0.289312 0.472612
0.810268 0.299368 0.482668
0.133073 0.460673 0.476273
0.310829 0.470729 0.486329
0.488585 0.480785 0.496385
0.666341 0.490841 0.506441
0.844097 0.500897 0.516497
0.166902 0.662202 0.510102
0.344658 0.672258 0.520158
0.522414 0.682314 0.530214
0.700170 0.692370 0.540270
0.877926 0.702426 0.550326
0.200731 0.863731 0.543931
0.378487 0.873787 0.553987
0.556243 0.883843 0.564043
0.733999 0.893899 0.574099
0.911755 0.903955 0.584155
0.068831 0.061031 0.579731
0.246587 0.071087 0.589787
0.424343 0.081143 0.599843
0.602099 0.091199 0.609899
0.779855 0.101254 0.619955
0.102660 0.262560 0.613560
0.280416 0.272616 0.623616
0.458172 0.282672 0.633672
0.635927 0.292727 0.643727
0.813683 0.302783 0.653783
0.136488 0.464088 0.647389
0.314244 0.474144 0.657444
0.492000 0.484200 0.667500
0.669756 0.494256 0.677556
0.847512 0.504312 0.687612
0.170317 0.665617 0.681217
0.348073 0.675673 0.691273
0.525829 0.685729 0.701329
0.703585 0.695785 0.711385
0.881341 0.705841 0.721441
0.204146 0.867146 0.715046
0.381902 0.877202 0.725102
0.559658 0.887258 0.735158
0.737414 0.897314 0.745214
0.915170 0.907370 0.755270
0.072246 0.064446 0.750846
0.250002 0.074502 0.760902
0.427758 0.084558 0.770958
0.605514 0.094614 0.781014
0.783270 0.104670 0.791070
0.106075 0.265975 0.784675
0.283831 0.276031 0.794731
0.461587 0.286087 0.804787
0.639343 0.296143 0.814843
0.817099 0.306199 0.824899
0.139904 0.467504 0.818504
0.317660 0.477560 0.828560
0.495416 0.487616 0.838616
0.673172 0.497671 0.848672
0.850927 0.507727 0.858727
0.173733 0.669033 0.852333
0.351489 0.679089 0.862389
0.529244 0.689144 0.872444
0.707000 0.699200 0.882500
0.884756 0.709256 0.892556
0.207561 0.870561 0.886161
0.385317 0.880617 0.896217
0.563073 0.890673 0.906273
0.740829 0.900729 0.916329
0.918585 0.910785 0.926385
