public/luts/Matte.cube
# © 2026 luttie. All rights reserved.
# This LUT is licensed for use within the luttie platform only.
# Unauthorized redistribution or resale is prohibited.
TITLE "Matte Fade"
LUT_3D_SIZE 9
0.058585 0.050785 0.066385
0.147463 0.055813 0.071413
0.236341 0.060841 0.076441
0.325219 0.065869 0.081469
0.414097 0.070897 0.086497
0.502975 0.075925 0.091525
0.591853 0.080953 0.096553
0.680731 0.085981 0.101581
0.769609 0.091009 0.106609
0.075500 0.151550 0.083300
0.164378 0.156578 0.088328
0.253256 0.161606 0.093356
0.342134 0.166634 0.098384
0.431012 0.171662 0.103412
0.519890 0.176690 0.108440
0.608768 0.181718 0.113468
0.697646 0.186746 0.118496
0.786524 0.191774 0.123524
0.092414 0.252314 0.100214
0.181292 0.257342 0.105242
0.270170 0.262370 0.110270
0.359048 0.267398 0.115298
0.447926 0.272426 0.120326
0.536804 0.277454 0.125354
0.625682 0.282482 0.130382
0.714560 0.287510 0.135410
0.803438 0.292538 0.140438
0.109329 0.353079 0.117129
0.198207 0.358107 0.122157
0.287085 0.363135 0.127185
0.375963 0.368163 0.132213
0.464841 0.373191 0.137241
0.553719 0.378219 0.142269
0.642597 0.383247 0.147297
0.731475 0.388275 0.152325
0.820353 0.393303 0.157353
0.126243 0.453843 0.134043
0.215121 0.458871 0.139071
0.303999 0.463899 0.144099
0.392877 0.468927 0.149127
0.481755 0.473955 0.154155
0.570633 0.478983 0.159183
0.659511 0.484011 0.164211
0.748389 0.489039 0.169239
0.837267 0.494067 0.174267
0.143158 0.554608 0.150958
0.232036 0.559636 0.155986
0.320914 0.564664 0.161014
0.409792 0.569692 0.166042
0.498670 0.574720 0.171070
0.587548 0.579748 0.176098
0.676426 0.584776 0.181126
0.765304 0.589804 0.186154
0.854182 0.594832 0.191182
0.160072 0.655372 0.167872
0.248950 0.660400 0.172900
0.337828 0.665428 0.177928
0.426706 0.670456 0.182956
0.515584 0.675484 0.187984
0.604462 0.680512 0.193012
0.693340 0.685540 0.198040
0.782218 0.690568 0.203068
0.871096 0.695596 0.208096
0.176987 0.756137 0.184787
0.265865 0.761165 0.189815
0.354743 0.766193 0.194843
0.443621 0.771221 0.199871
0.532499 0.776249 0.204899
0.621377 0.781277 0.209927
0.710255 0.786305 0.214955
0.799133 0.791333 0.219983
0.888011 0.796361 0.225011
0.193901 0.856901 0.201701
0.282779 0.861929 0.206729
0.371657 0.866957 0.211757
0.460535 0.871985 0.216785
0.549413 0.877013 0.221813
0.638291 0.882041 0.226841
0.727169 0.887069 0.231869
0.816047 0.892097 0.236897
0.904925 0.897125 0.241925
0.060293 0.052493 0.151943
0.149171 0.057521 0.156971
0.238049 0.062549 0.161999
0.326927 0.067577 0.167027
0.415805 0.072605 0.172055
0.504683 0.077633 0.177083
0.593561 0.082661 0.182111
0.682439 0.087689 0.187139
0.771317 0.092717 0.192167
0.077207 0.153257 0.168857
0.166085 0.158285 0.173885
0.254963 0.163313 0.178913
0.343841 0.168341 0.183941
0.432719 0.173369 0.188969
0.521597 0.178397 0.193997
0.610475 0.183425 0.199025
0.699353 0.188453 0.204053
0.788231 0.193481 0.209081
0.094122 0.254022 0.185772
0.183000 0.259050 0.190800
0.271878 0.264078 0.195828
0.360756 0.269106 0.200856
0.449634 0.274134 0.205884
0.538512 0.279162 0.210912
0.627390 0.284190 0.215940
0.716268 0.289218 0.220968
0.805146 0.294246 0.225996
0.111036 0.354786 0.202686
0.199914 0.359814 0.207714
0.288792 0.364842 0.212742
0.377670 0.369870 0.217770
0.466548 0.374898 0.222798
0.555426 0.379926 0.227826
0.644304 0.384954 0.232854
0.733182 0.389982 0.237882
0.822060 0.395010 0.242910
0.127951 0.455551 0.219601
0.216829 0.460579 0.224629
0.305707 0.465607 0.229657
0.394585 0.470635 0.234685
0.483463 0.475663 0.239713
0.572341 0.480691 0.244741
0.661219 0.485719 0.249769
0.750097 0.490747 0.254797
0.838975 0.495775 0.259825
0.144865 0.556315 0.236515
0.233743 0.561343 0.241543
0.322621 0.566371 0.246571
0.411499 0.571399 0.251599
0.500377 0.576427 0.256627
0.589255 0.581455 0.261655
0.678133 0.586483 0.266683
0.767011 0.591511 0.271711
0.855889 0.596539 0.276739
0.161780 0.657080 0.253430
0.250658 0.662108 0.258458
0.339536 0.667136 0.263486
0.428414 0.672164 0.268514
0.517292 0.677192 0.273542
0.606170 0.682220 0.278570
0.695048 0.687248 0.283598
0.783926 0.692276 0.288626
0.872804 0.697304 0.293654
0.178694 0.757844 0.270344
0.267572 0.762872 0.275372
0.356450 0.767900 0.280400
0.445328 0.772928 0.285428
0.534206 0.777956 0.290456
0.623084 0.782984 0.295484
0.711962 0.788012 0.300512
0.800840 0.793040 0.305540
0.889718 0.798068 0.310568
0.195609 0.858609 0.287259
0.284487 0.863637 0.292287
0.373365 0.868665 0.297315
0.462243 0.873693 0.302343
0.551121 0.878721 0.307371
0.639999 0.883749 0.312399
0.728877 0.888777 0.317427
0.817755 0.893805 0.322455
0.906633 0.898833 0.327483
0.062000 0.054200 0.237500
0.150878 0.059228 0.242528
0.239756 0.064256 0.247556
0.328634 0.069284 0.252584
0.417512 0.074312 0.257612
0.506390 0.079340 0.262640
0.595268 0.084368 0.267668
0.684146 0.089396 0.272696
0.773024 0.094424 0.277724
0.078915 0.154965 0.254415
0.167793 0.159993 0.259443
0.256671 0.165021 0.264471
0.345549 0.170049 0.269499
0.434427 0.175077 0.274527
0.523305 0.180105 0.279555
0.612183 0.185133 0.284583
0.701061 0.190161 0.289611
0.789939 0.195189 0.294639
0.095829 0.255729 0.271329
0.184707 0.260757 0.276357
0.273585 0.265785 0.281385
0.362463 0.270813 0.286413
0.451341 0.275841 0.291441
0.540219 0.280869 0.296469
0.629097 0.285897 0.301497
0.717975 0.290925 0.306525
0.806853 0.295953 0.311553
0.112744 0.356494 0.288244
0.201622 0.361522 0.293272
0.290500 0.366550 0.298300
0.379378 0.371578 0.303328
0.468256 0.376606 0.308356
0.557134 0.381634 0.313384
0.646012 0.386662 0.318412
0.734890 0.391690 0.323440
0.823768 0.396718 0.328468
0.129658 0.457258 0.305158
0.218536 0.462286 0.310186
0.307414 0.467314 0.315214
0.396292 0.472342 0.320242
0.485170 0.477370 0.325270
0.574048 0.482398 0.330298
0.662926 0.487426 0.335326
0.751804 0.492454 0.340354
0.840682 0.497482 0.345382
0.146573 0.558023 0.322073
0.235451 0.563051 0.327101
0.324329 0.568079 0.332129
0.413207 0.573107 0.337157
0.502085 0.578135 0.342185
0.590963 0.583163 0.347213
0.679841 0.588191 0.352241
0.768719 0.593219 0.357269
0.857597 0.598247 0.362297
0.163487 0.658787 0.338987
0.252365 0.663815 0.344015
0.341243 0.668843 0.349043
0.430121 0.673871 0.354071
0.518999 0.678899 0.359099
0.607877 0.683927 0.364127
0.696755 0.688955 0.369155
0.785633 0.693983 0.374183
0.874511 0.699011 0.379211
0.180402 0.759552 0.355902
0.269280 0.764580 0.360930
0.358158 0.769608 0.365958
0.447036 0.774636 0.370986
0.535914 0.779664 0.376014
0.624792 0.784692 0.381042
0.713670 0.789720 0.386070
0.802548 0.794748 0.391098
0.891426 0.799776 0.396126
0.197316 0.860316 0.372816
0.286194 0.865344 0.377844
0.375072 0.870372 0.382872
0.463950 0.875400 0.387900
0.552828 0.880428 0.392928
0.641706 0.885456 0.397956
0.730584 0.890484 0.402984
0.819462 0.895512 0.408012
0.908340 0.900540 0.413040
0.063708 0.055908 0.323058
0.152586 0.060936 0.328086
0.241464 0.065964 0.333114
0.330342 0.070992 0.338142
0.419220 0.076020 0.343170
0.508098 0.081048 0.348198
0.596976 0.086076 0.353226
0.685854 0.091104 0.358254
0.774732 0.096132 0.363282
0.080622 0.156672 0.339972
0.169500 0.161700 0.345000
0.258378 0.166728 0.350028
0.347256 0.171756 0.355056
0.436134 0.176784 0.360084
0.525012 0.181812 0.365112
0.613890 0.186840 0.370140
0.702768 0.191868 0.375168
0.791646 0.196896 0.380196
0.097537 0.257437 0.356887
0.186415 0.262465 0.361915
0.275293 0.267493 0.366943
0.364171 0.272521 0.371971
0.453049 0.277549 0.376999
0.541927 0.282577 0.382027
0.630805 0.287605 0.387055
0.719683 0.292633 0.392083
0.808561 0.297661 0.397111
0.114451 0.358201 0.373801
0.203329 0.363229 0.378829
0.292207 0.368257 0.383857
0.381085 0.373285 0.388885
0.469963 0.378313 0.393913
0.558841 0.383341 0.398941
0.647719 0.388369 0.403969
0.736597 0.393397 0.408997
0.825475 0.398425 0.414025
0.131366 0.458966 0.390716
0.220244 0.463994 0.395744
0.309122 0.469022 0.400772
0.398000 0.474050 0.405800
0.486878 0.479078 0.410828
0.575756 0.484106 0.415856
0.664634 0.489134 0.420884
0.753512 0.494162 0.425912
0.842390 0.499190 0.430940
0.148280 0.559730 0.407630
0.237158 0.564758 0.412658
0.326036 0.569786 0.417686
0.414914 0.574814 0.422714
0.503792 0.579842 0.427742
0.592670 0.584870 0.432770
0.681548 0.589898 0.437798
0.770426 0.594926 0.442826
0.859304 0.599954 0.447854
0.165195 0.660495 0.424545
0.254073 0.665523 0.429573
0.342951 0.670551 0.434601
0.431829 0.675579 0.439629
0.520707 0.680607 0.444657
0.609585 0.685635 0.449685
0.698463 0.690663 0.454713
0.787341 0.695691 0.459741
0.876219 0.700719 0.464769
0.182109 0.761259 0.441459
0.270987 0.766287 0.446487
0.359865 0.771315 0.451515
0.448743 0.776343 0.456543
0.537621 0.781371 0.461571
0.626499 0.786399 0.466599
0.715377 0.791427 0.471627
0.804255 0.796455 0.476655
0.893133 0.801483 0.481683
0.199024 0.862024 0.458374
0.287902 0.867052 0.463402
0.376780 0.872080 0.468430
0.465658 0.877108 0.473458
0.554536 0.882136 0.478486
0.643414 0.887164 0.483514
0.732292 0.892192 0.488542
0.821170 0.897220 0.493570
0.910048 0.902248 0.498598
0.065416 0.057616 0.408616
0.154294 0.062644 0.413644
0.243172 0.067671 0.418671
0.332049 0.072699 0.423699
0.420927 0.077727 0.428727
0.509805 0.082755 0.433755
0.598683 0.087783 0.438783
0.687561 0.092811 0.443811
0.776439 0.097839 0.448839
0.082330 0.158380 0.425530
0.171208 0.163408 0.430558
0.260086 0.168436 0.435586
0.348964 0.173464 0.440614
0.437842 0.178492 0.445642
0.526720 0.183520 0.450670
0.615598 0.188548 0.455698
0.704476 0.193576 0.460726
0.793354 0.198604 0.465754
0.099244 0.259144 0.442444
0.188122 0.264172 0.447472
0.277000 0.269200 0.452500
0.365878 0.274228 0.457528
0.454756 0.279256 0.462556
0.543634 0.284284 0.467584
0.632512 0.289312 0.472612
0.721390 0.294340 0.477640
0.810268 0.299368 0.482668
0.116159 0.359909 0.459359
0.205037 0.364937 0.464387
0.293915 0.369965 0.469415
0.382793 0.374993 0.474443
0.471671 0.380021 0.479471
0.560549 0.385049 0.484499
0.649427 0.390077 0.489527
0.738305 0.395105 0.494555
0.827183 0.400133 0.499583
0.133073 0.460673 0.476273
0.221951 0.465701 0.481301
0.310829 0.470729 0.486329
0.399707 0.475757 0.491357
0.488585 0.480785 0.496385
0.577463 0.485813 0.501413
0.666341 0.490841 0.506441
0.755219 0.495869 0.511469
0.844097 0.500897 0.516497
0.149988 0.561438 0.493188
0.238866 0.566466 0.498216
0.327744 0.571494 0.503244
0.416622 0.576522 0.508272
0.505500 0.581550 0.513300
0.594378 0.586578 0.518328
0.683256 0.591606 0.523356
0.772134 0.596634 0.528384
0.861012 0.601662 0.533412
0.166902 0.662202 0.510102
0.255780 0.667230 0.515130
0.344658 0.672258 0.520158
0.433536 0.677286 0.525186
0.522414 0.682314 0.530214
0.611292 0.687342 0.535242
0.700170 0.692370 0.540270
0.789048 0.697398 0.545298
0.877926 0.702426 0.550326
0.183817 0.762967 0.527017
0.272695 0.767995 0.532045
0.361573 0.773023 0.537073
0.450451 0.778051 0.542101
0.539329 0.783079 0.547129
0.628207 0.788107 0.552157
0.717085 0.793135 0.557185
0.805963 0.798163 0.562213
0.894841 0.803191 0.567241
0.200731 0.863731 0.543931
0.289609 0.868759 0.548959
0.378487 0.873787 0.553987
0.467365 0.878815 0.559015
0.556243 0.883843 0.564043
0.645121 0.888871 0.569071
0.733999 0.893899 0.574099
0.822877 0.898927 0.579127
0.911755 0.903955 0.584155
0.067123 0.059323 0.494173
0.156001 0.064351 0.499201
0.244879 0.069379 0.504229
0.333757 0.074407 0.509257
0.422635 0.079435 0.514285
0.511513 0.084463 0.519313
0.600391 0.089491 0.524341
0.689269 0.094519 0.529369
0.778147 0.099547 0.534397
0.084038 0.160088 0.511088
0.172916 0.165116 0.516116
0.261794 0.170144 0.521144
0.350672 0.175171 0.526172
0.439549 0.180199 0.531199
0.528427 0.185227 0.536227
0.617305 0.190255 0.541255
0.706183 0.195283 0.546283
0.795061 0.200311 0.551311
0.100952 0.260852 0.528002
0.189830 0.265880 0.533030
0.278708 0.270908 0.538058
0.367586 0.275936 0.543086
0.456464 0.280964 0.548114
0.545342 0.285992 0.553142
0.634220 0.291020 0.558170
0.723098 0.296048 0.563198
0.811976 0.301076 0.568226
0.117866 0.361616 0.544916
0.206744 0.366644 0.549944
0.295622 0.371672 0.554972
0.384500 0.376700 0.560000
0.473378 0.381728 0.565028
0.562256 0.386756 0.570056
0.651134 0.391784 0.575084
0.740012 0.396812 0.580112
0.828890 0.401840 0.585140
0.134781 0.462381 0.561831
0.223659 0.467409 0.566859
0.312537 0.472437 0.571887
0.401415 0.477465 0.576915
0.490293 0.482493 0.581943
0.579171 0.487521 0.586971
0.668049 0.492549 0.591999
0.756927 0.497577 0.597027
0.845805 0.502605 0.602055
0.151695 0.563145 0.578745
0.240573 0.568173 0.583773
0.329451 0.573201 0.588801
0.418329 0.578229 0.593829
0.507207 0.583257 0.598857
0.596085 0.588285 0.603885
0.684963 0.593313 0.608913
0.773841 0.598341 0.613941
0.862719 0.603369 0.618969
0.168610 0.663910 0.595660
0.257488 0.668938 0.600688
0.346366 0.673966 0.605716
0.435244 0.678994 0.610744
0.524122 0.684022 0.615772
0.613000 0.689050 0.620800
0.701878 0.694078 0.625828
0.790756 0.699106 0.630856
0.879634 0.704134 0.635884
0.185524 0.764674 0.612574
0.274402 0.769702 0.617602
0.363280 0.774730 0.622630
0.452158 0.779758 0.627658
0.541036 0.784786 0.632686
0.629914 0.789814 0.637714
0.718792 0.794842 0.642742
0.807670 0.799870 0.647770
0.896548 0.804898 0.652798
0.202439 0.865439 0.629489
0.291317 0.870467 0.634517
0.380195 0.875495 0.639545
0.469073 0.880523 0.644573
0.557951 0.885551 0.649601
0.646829 0.890579 0.654629
0.735707 0.895607 0.659657
0.824585 0.900635 0.664685
0.913463 0.905663 0.669713
0.068831 0.061031 0.579731
0.157709 0.066059 0.584759
0.246587 0.071087 0.589787
0.335465 0.076115 0.594815
0.424343 0.081143 0.599843
0.513221 0.086171 0.604871
0.602099 0.091199 0.609899
0.690977 0.096227 0.614927
0.779855 0.101254 0.619955
0.085745 0.161795 0.596645
0.174623 0.166823 0.601673
0.263501 0.171851 0.606701
0.352379 0.176879 0.611729
0.441257 0.181907 0.616757
0.530135 0.186935 0.621785
0.619013 0.191963 0.626813
0.707891 0.196991 0.631841
0.796769 0.202019 0.636869
0.102660 0.262560 0.613560
0.191538 0.267588 0.618588
0.280416 0.272616 0.623616
0.369294 0.277644 0.628644
0.458172 0.282672 0.633672
0.547049 0.287699 0.638699
0.635927 0.292727 0.643727
0.724805 0.297755 0.648755
0.813683 0.302783 0.653783
0.119574 0.363324 0.630474
0.208452 0.368352 0.635502
0.297330 0.373380 0.640530
0.386208 0.378408 0.645558
0.475086 0.383436 0.650586
0.563964 0.388464 0.655614
0.652842 0.393492 0.660642
0.741720 0.398520 0.665670
0.830598 0.403548 0.670698
0.136488 0.464088 0.647389
0.225366 0.469116 0.652416
0.314244 0.474144 0.657444
0.403122 0.479172 0.662472
0.492000 0.484200 0.667500
0.580878 0.489228 0.672528
0.669756 0.494256 0.677556
0.758634 0.499284 0.682584
0.847512 0.504312 0.687612
0.153403 0.564853 0.664303
0.242281 0.569881 0.669331
0.331159 0.574909 0.674359
0.420037 0.579937 0.679387
0.508915 0.584965 0.684415
0.597793 0.589993 0.689443
0.686671 0.595021 0.694471
0.775549 0.600049 0.699499
0.864427 0.605077 0.704527
0.170317 0.665617 0.681217
0.259195 0.670645 0.686245
0.348073 0.675673 0.691273
0.436951 0.680701 0.696301
0.525829 0.685729 0.701329
0.614707 0.690757 0.706357
0.703585 0.695785 0.711385
0.792463 0.700813 0.716413
0.881341 0.705841 0.721441
0.187232 0.766382 0.698132
0.276110 0.771410 0.703160
0.364988 0.776438 0.708188
0.453866 0.781466 0.713216
0.542744 0.786494 0.718244
0.631622 0.791522 0.723272
0.720500 0.796550 0.728300
0.809378 0.801578 0.733328
0.898256 0.806606 0.738356
0.204146 0.867146 0.715046
0.293024 0.872174 0.720074
0.381902 0.877202 0.725102
0.470780 0.882230 0.730130
0.559658 0.887258 0.735158
0.648536 0.892286 0.740186
0.737414 0.897314 0.745214
0.826292 0.902342 0.750242
0.915170 0.907370 0.755270
0.070538 0.062738 0.665288
0.159416 0.067766 0.670316
0.248294 0.072794 0.675344
0.337172 0.077822 0.680372
0.426050 0.082850 0.685400
0.514928 0.087878 0.690428
0.603806 0.092906 0.695456
0.692684 0.097934 0.700484
0.781562 0.102962 0.705512
0.087453 0.163503 0.682203
0.176331 0.168531 0.687231
0.265209 0.173559 0.692259
0.354087 0.178587 0.697287
0.442965 0.183615 0.702315
0.531843 0.188643 0.707343
0.620721 0.193671 0.712371
0.709599 0.198699 0.717399
0.798477 0.203727 0.722427
0.104367 0.264267 0.699117
0.193245 0.269295 0.704145
0.282123 0.274323 0.709173
0.371001 0.279351 0.714201
0.459879 0.284379 0.719229
0.548757 0.289407 0.724257
0.637635 0.294435 0.729285
0.726513 0.299463 0.734313
0.815391 0.304491 0.739341
0.121282 0.365032 0.716032
0.210160 0.370060 0.721060
0.299038 0.375088 0.726088
0.387916 0.380116 0.731116
0.476794 0.385144 0.736144
0.565671 0.390172 0.741172
0.654549 0.395199 0.746199
0.743427 0.400227 0.751227
0.832305 0.405255 0.756255
0.138196 0.465796 0.732946
0.227074 0.470824 0.737974
0.315952 0.475852 0.743002
0.404830 0.480880 0.748030
0.493708 0.485908 0.753058
0.582586 0.490936 0.758086
0.671464 0.495964 0.763114
0.760342 0.500992 0.768142
0.849220 0.506020 0.773170
0.155111 0.566561 0.749861
0.243988 0.571589 0.754888
0.332866 0.576616 0.759916
0.421744 0.581644 0.764944
0.510622 0.586672 0.769972
0.599500 0.591700 0.775000
0.688378 0.596728 0.780028
0.777256 0.601756 0.785056
0.866134 0.606784 0.790084
0.172025 0.667325 0.766775
0.260903 0.672353 0.771803
0.349781 0.677381 0.776831
0.438659 0.682409 0.781859
0.527537 0.687437 0.786887
0.616415 0.692465 0.791915
0.705293 0.697493 0.796943
0.794171 0.702521 0.801971
0.883049 0.707549 0.806999
0.188939 0.768089 0.783689
0.277817 0.773117 0.788717
0.366695 0.778145 0.793745
0.455573 0.783173 0.798773
0.544451 0.788201 0.803801
0.633329 0.793229 0.808829
0.722207 0.798257 0.813857
0.811085 0.803285 0.818885
0.899963 0.808313 0.823913
0.205854 0.868854 0.800604
0.294732 0.873882 0.805632
0.383610 0.878910 0.810660
0.472488 0.883938 0.815688
0.561366 0.888966 0.820716
0.650244 0.893994 0.825744
0.739122 0.899022 0.830772
0.828000 0.904050 0.835800
0.916878 0.909078 0.840828
0.072246 0.064446 0.750846
0.161124 0.069474 0.755874
0.250002 0.074502 0.760902
0.338880 0.079530 0.765930
0.427758 0.084558 0.770958
0.516636 0.089586 0.775986
0.605514 0.094614 0.781014
0.694392 0.099642 0.786042
0.783270 0.104670 0.791070
0.089160 0.165210 0.767760
0.178038 0.170238 0.772788
0.266916 0.175266 0.777816
0.355794 0.180294 0.782844
0.444672 0.185322 0.787872
0.533550 0.190350 0.792900
0.622428 0.195378 0.797928
0.711306 0.200406 0.802956
0.800184 0.205434 0.807984
0.106075 0.265975 0.784675
0.194953 0.271003 0.789703
0.283831 0.276031 0.794731
0.372709 0.281059 0.799759
0.461587 0.286087 0.804787
0.550465 0.291115 0.809815
0.639343 0.296143 0.814843
0.728221 0.301171 0.819871
0.817099 0.306199 0.824899
0.122989 0.366739 0.801589
0.211867 0.371767 0.806617
0.300745 0.376795 0.811645
0.389623 0.381823 0.816673
0.478501 0.386851 0.821701
0.567379 0.391879 0.826729
0.656257 0.396907 0.831757
0.745135 0.401935 0.836785
0.834013 0.406963 0.841813
0.139904 0.467504 0.818504
0.228782 0.472532 0.823532
0.317660 0.477560 0.828560
0.406538 0.482588 0.833588
0.495416 0.487616 0.838616
0.584294 0.492644 0.843644
0.673172 0.497671 0.848672
0.762049 0.502699 0.853699
0.850927 0.507727 0.858727
0.156818 0.568268 0.835418
0.245696 0.573296 0.840446
0.334574 0.578324 0.845474
0.423452 0.583352 0.850502
0.512330 0.588380 0.855530
0.601208 0.593408 0.860558
0.690086 0.598436 0.865586
0.778964 0.603464 0.870614
0.867842 0.608492 0.875642
0.173733 0.669033 0.852333
0.262611 0.674061 0.857361
0.351489 0.679089 0.862389
0.440366 0.684116 0.867416
0.529244 0.689144 0.872444
0.618122 0.694172 0.877472
0.707000 0.699200 0.882500
0.795878 0.704228 0.887528
0.884756 0.709256 0.892556
0.190647 0.769797 0.869247
0.279525 0.774825 0.874275
0.368403 0.779853 0.879303
0.457281 0.784881 0.884331
0.546159 0.789909 0.889359
0.635037 0.794937 0.894387
0.723915 0.799965 0.899415
0.812793 0.804993 0.904443
0.901671 0.810021 0.909471
0.207561 0.870561 0.886161
0.296439 0.875589 0.891189
0.385317 0.880617 0.896217
0.474195 0.885645 0.901245
0.563073 0.890673 0.906273
0.651951 0.895701 0.911301
0.740829 0.900729 0.916329
0.829707 0.905757 0.921357
0.918585 0.910785 0.926385
