public/luts/Warm_Golden.cube
# © 2026 luttie. All rights reserved.
# This LUT is licensed for use within the luttie platform only.
# Unauthorized redistribution or resale is prohibited.
TITLE "Warm Golden Hour"
LUT_3D_SIZE 5
0.050000 0.030000 0.010000
0.292500 0.030000 0.010000
0.535000 0.030000 0.010000
0.777500 0.030000 0.010000
1.000000 0.030000 0.010000
0.050000 0.265000 0.010000
0.292500 0.265000 0.010000
0.535000 0.265000 0.010000
0.777500 0.265000 0.010000
1.000000 0.265000 0.010000
0.050000 0.500000 0.010000
0.292500 0.500000 0.010000
0.535000 0.500000 0.010000
0.777500 0.500000 0.010000
1.000000 0.500000 0.010000
0.050000 0.735000 0.010000
0.292500 0.735000 0.010000
0.535000 0.735000 0.010000
0.777500 0.735000 0.010000
1.000000 0.735000 0.010000
0.050000 0.970000 0.010000
0.292500 0.970000 0.010000
0.535000 0.970000 0.010000
0.777500 0.970000 0.010000
1.000000 0.970000 0.010000
0.050000 0.030000 0.210000
0.292500 0.030000 0.210000
0.535000 0.030000 0.210000
0.777500 0.030000 0.210000
1.000000 0.030000 0.210000
0.050000 0.265000 0.210000
0.292500 0.265000 0.210000
0.535000 0.265000 0.210000
0.777500 0.265000 0.210000
1.000000 0.265000 0.210000
0.050000 0.500000 0.210000
0.292500 0.500000 0.210000
0.535000 0.500000 0.210000
0.777500 0.500000 0.210000
1.000000 0.500000 0.210000
0.050000 0.735000 0.210000
0.292500 0.735000 0.210000
0.535000 0.735000 0.210000
0.777500 0.735000 0.210000
1.000000 0.735000 0.210000
0.050000 0.970000 0.210000
0.292500 0.970000 0.210000
0.535000 0.970000 0.210000
0.777500 0.970000 0.210000
1.000000 0.970000 0.210000
0.050000 0.030000 0.410000
0.292500 0.030000 0.410000
0.535000 0.030000 0.410000
0.777500 0.030000 0.410000
1.000000 0.030000 0.410000
0.050000 0.265000 0.410000
0.292500 0.265000 0.410000
0.535000 0.265000 0.410000
0.777500 0.265000 0.410000
1.000000 0.265000 0.410000
0.050000 0.500000 0.410000
0.292500 0.500000 0.410000
0.535000 0.500000 0.410000
0.777500 0.500000 0.410000
1.000000 0.500000 0.410000
0.050000 0.735000 0.410000
0.292500 0.735000 0.410000
0.535000 0.735000 0.410000
0.777500 0.735000 0.410000
1.000000 0.735000 0.410000
0.050000 0.970000 0.410000
0.292500 0.970000 0.410000
0.535000 0.970000 0.410000
0.777500 0.970000 0.410000
1.000000 0.970000 0.410000
0.050000 0.030000 0.610000
0.292500 0.030000 0.610000
0.535000 0.030000 0.610000
0.777500 0.030000 0.610000
1.000000 0.030000 0.610000
0.050000 0.265000 0.610000
0.292500 0.265000 0.610000
0.535000 0.265000 0.610000
0.777500 0.265000 0.610000
1.000000 0.265000 0.610000
0.050000 0.500000 0.610000
0.292500 0.500000 0.610000
0.535000 0.500000 0.610000
0.777500 0.500000 0.610000
1.000000 0.500000 0.610000
0.050000 0.735000 0.610000
0.292500 0.735000 0.610000
0.535000 0.735000 0.610000
0.777500 0.735000 0.610000
1.000000 0.735000 0.610000
0.050000 0.970000 0.610000
0.292500 0.970000 0.610000
0.535000 0.970000 0.610000
0.777500 0.970000 0.610000
1.000000 0.970000 0.610000
0.050000 0.030000 0.810000
0.292500 0.030000 0.810000
0.535000 0.030000 0.810000
0.777500 0.030000 0.810000
1.000000 0.030000 0.810000
0.050000 0.265000 0.810000
0.292500 0.265000 0.810000
0.535000 0.265000 0.810000
0.777500 0.265000 0.810000
1.000000 0.265000 0.810000
0.050000 0.500000 0.810000
0.292500 0.500000 0.810000
0.535000 0.500000 0.810000
0.777500 0.500000 0.810000
1.000000 0.500000 0.810000
0.050000 0.735000 0.810000
0.292500 0.735000 0.810000
0.535000 0.735000 0.810000
0.777500 0.735000 0.810000
1.000000 0.735000 0.810000
0.050000 0.970000 0.810000
0.292500 0.970000 0.810000
0.535000 0.970000 0.810000
0.777500 0.970000 0.810000
1.000000 0.970000 0.810000
