public/luts/Warm_Golden.cube
# © 2026 luttie. All rights reserved.
# This LUT is licensed for use within the luttie platform only.
# Unauthorized redistribution or resale is prohibited.
TITLE "Warm Golden Hour"
LUT_3D_SIZE 9
0.050000 0.030000 0.010000
0.171250 0.030000 0.010000
0.292500 0.030000 0.010000
0.413750 0.030000 0.010000
0.535000 0.030000 0.010000
0.656250 0.030000 0.010000
0.777500 0.030000 0.010000
0.898750 0.030000 0.010000
1.000000 0.030000 0.010000
0.050000 0.147500 0.010000
0.171250 0.147500 0.010000
0.292500 0.147500 0.010000
0.413750 0.147500 0.010000
0.535000 0.147500 0.010000
0.656250 0.147500 0.010000
0.777500 0.147500 0.010000
0.898750 0.147500 0.010000
1.000000 0.147500 0.010000
0.050000 0.265000 0.010000
0.171250 0.265000 0.010000
0.292500 0.265000 0.010000
0.413750 0.265000 0.010000
0.535000 0.265000 0.010000
0.656250 0.265000 0.010000
0.777500 0.265000 0.010000
0.898750 0.265000 0.010000
1.000000 0.265000 0.010000
0.050000 0.382500 0.010000
0.171250 0.382500 0.010000
0.292500 0.382500 0.010000
0.413750 0.382500 0.010000
0.535000 0.382500 0.010000
0.656250 0.382500 0.010000
0.777500 0.382500 0.010000
0.898750 0.382500 0.010000
1.000000 0.382500 0.010000
0.050000 0.500000 0.010000
0.171250 0.500000 0.010000
0.292500 0.500000 0.010000
0.413750 0.500000 0.010000
0.535000 0.500000 0.010000
0.656250 0.500000 0.010000
0.777500 0.500000 0.010000
0.898750 0.500000 0.010000
1.000000 0.500000 0.010000
0.050000 0.617500 0.010000
0.171250 0.617500 0.010000
0.292500 0.617500 0.010000
0.413750 0.617500 0.010000
0.535000 0.617500 0.010000
0.656250 0.617500 0.010000
0.777500 0.617500 0.010000
0.898750 0.617500 0.010000
1.000000 0.617500 0.010000
0.050000 0.735000 0.010000
0.171250 0.735000 0.010000
0.292500 0.735000 0.010000
0.413750 0.735000 0.010000
0.535000 0.735000 0.010000
0.656250 0.735000 0.010000
0.777500 0.735000 0.010000
0.898750 0.735000 0.010000
1.000000 0.735000 0.010000
0.050000 0.852500 0.010000
0.171250 0.852500 0.010000
0.292500 0.852500 0.010000
0.413750 0.852500 0.010000
0.535000 0.852500 0.010000
0.656250 0.852500 0.010000
0.777500 0.852500 0.010000
0.898750 0.852500 0.010000
1.000000 0.852500 0.010000
0.050000 0.970000 0.010000
0.171250 0.970000 0.010000
0.292500 0.970000 0.010000
0.413750 0.970000 0.010000
0.535000 0.970000 0.010000
0.656250 0.970000 0.010000
0.777500 0.970000 0.010000
0.898750 0.970000 0.010000
1.000000 0.970000 0.010000
0.050000 0.030000 0.110000
0.171250 0.030000 0.110000
0.292500 0.030000 0.110000
0.413750 0.030000 0.110000
0.535000 0.030000 0.110000
0.656250 0.030000 0.110000
0.777500 0.030000 0.110000
0.898750 0.030000 0.110000
1.000000 0.030000 0.110000
0.050000 0.147500 0.110000
0.171250 0.147500 0.110000
0.292500 0.147500 0.110000
0.413750 0.147500 0.110000
0.535000 0.147500 0.110000
0.656250 0.147500 0.110000
0.777500 0.147500 0.110000
0.898750 0.147500 0.110000
1.000000 0.147500 0.110000
0.050000 0.265000 0.110000
0.171250 0.265000 0.110000
0.292500 0.265000 0.110000
0.413750 0.265000 0.110000
0.535000 0.265000 0.110000
0.656250 0.265000 0.110000
0.777500 0.265000 0.110000
0.898750 0.265000 0.110000
1.000000 0.265000 0.110000
0.050000 0.382500 0.110000
0.171250 0.382500 0.110000
0.292500 0.382500 0.110000
0.413750 0.382500 0.110000
0.535000 0.382500 0.110000
0.656250 0.382500 0.110000
0.777500 0.382500 0.110000
0.898750 0.382500 0.110000
1.000000 0.382500 0.110000
0.050000 0.500000 0.110000
0.171250 0.500000 0.110000
0.292500 0.500000 0.110000
0.413750 0.500000 0.110000
0.535000 0.500000 0.110000
0.656250 0.500000 0.110000
0.777500 0.500000 0.110000
0.898750 0.500000 0.110000
1.000000 0.500000 0.110000
0.050000 0.617500 0.110000
0.171250 0.617500 0.110000
0.292500 0.617500 0.110000
0.413750 0.617500 0.110000
0.535000 0.617500 0.110000
0.656250 0.617500 0.110000
0.777500 0.617500 0.110000
0.898750 0.617500 0.110000
1.000000 0.617500 0.110000
0.050000 0.735000 0.110000
0.171250 0.735000 0.110000
0.292500 0.735000 0.110000
0.413750 0.735000 0.110000
0.535000 0.735000 0.110000
0.656250 0.735000 0.110000
0.777500 0.735000 0.110000
0.898750 0.735000 0.110000
1.000000 0.735000 0.110000
0.050000 0.852500 0.110000
0.171250 0.852500 0.110000
0.292500 0.852500 0.110000
0.413750 0.852500 0.110000
0.535000 0.852500 0.110000
0.656250 0.852500 0.110000
0.777500 0.852500 0.110000
0.898750 0.852500 0.110000
1.000000 0.852500 0.110000
0.050000 0.970000 0.110000
0.171250 0.970000 0.110000
0.292500 0.970000 0.110000
0.413750 0.970000 0.110000
0.535000 0.970000 0.110000
0.656250 0.970000 0.110000
0.777500 0.970000 0.110000
0.898750 0.970000 0.110000
1.000000 0.970000 0.110000
0.050000 0.030000 0.210000
0.171250 0.030000 0.210000
0.292500 0.030000 0.210000
0.413750 0.030000 0.210000
0.535000 0.030000 0.210000
0.656250 0.030000 0.210000
0.777500 0.030000 0.210000
0.898750 0.030000 0.210000
1.000000 0.030000 0.210000
0.050000 0.147500 0.210000
0.171250 0.147500 0.210000
0.292500 0.147500 0.210000
0.413750 0.147500 0.210000
0.535000 0.147500 0.210000
0.656250 0.147500 0.210000
0.777500 0.147500 0.210000
0.898750 0.147500 0.210000
1.000000 0.147500 0.210000
0.050000 0.265000 0.210000
0.171250 0.265000 0.210000
0.292500 0.265000 0.210000
0.413750 0.265000 0.210000
0.535000 0.265000 0.210000
0.656250 0.265000 0.210000
0.777500 0.265000 0.210000
0.898750 0.265000 0.210000
1.000000 0.265000 0.210000
0.050000 0.382500 0.210000
0.171250 0.382500 0.210000
0.292500 0.382500 0.210000
0.413750 0.382500 0.210000
0.535000 0.382500 0.210000
0.656250 0.382500 0.210000
0.777500 0.382500 0.210000
0.898750 0.382500 0.210000
1.000000 0.382500 0.210000
0.050000 0.500000 0.210000
0.171250 0.500000 0.210000
0.292500 0.500000 0.210000
0.413750 0.500000 0.210000
0.535000 0.500000 0.210000
0.656250 0.500000 0.210000
0.777500 0.500000 0.210000
0.898750 0.500000 0.210000
1.000000 0.500000 0.210000
0.050000 0.617500 0.210000
0.171250 0.617500 0.210000
0.292500 0.617500 0.210000
0.413750 0.617500 0.210000
0.535000 0.617500 0.210000
0.656250 0.617500 0.210000
0.777500 0.617500 0.210000
0.898750 0.617500 0.210000
1.000000 0.617500 0.210000
0.050000 0.735000 0.210000
0.171250 0.735000 0.210000
0.292500 0.735000 0.210000
0.413750 0.735000 0.210000
0.535000 0.735000 0.210000
0.656250 0.735000 0.210000
0.777500 0.735000 0.210000
0.898750 0.735000 0.210000
1.000000 0.735000 0.210000
0.050000 0.852500 0.210000
0.171250 0.852500 0.210000
0.292500 0.852500 0.210000
0.413750 0.852500 0.210000
0.535000 0.852500 0.210000
0.656250 0.852500 0.210000
0.777500 0.852500 0.210000
0.898750 0.852500 0.210000
1.000000 0.852500 0.210000
0.050000 0.970000 0.210000
0.171250 0.970000 0.210000
0.292500 0.970000 0.210000
0.413750 0.970000 0.210000
0.535000 0.970000 0.210000
0.656250 0.970000 0.210000
0.777500 0.970000 0.210000
0.898750 0.970000 0.210000
1.000000 0.970000 0.210000
0.050000 0.030000 0.310000
0.171250 0.030000 0.310000
0.292500 0.030000 0.310000
0.413750 0.030000 0.310000
0.535000 0.030000 0.310000
0.656250 0.030000 0.310000
0.777500 0.030000 0.310000
0.898750 0.030000 0.310000
1.000000 0.030000 0.310000
0.050000 0.147500 0.310000
0.171250 0.147500 0.310000
0.292500 0.147500 0.310000
0.413750 0.147500 0.310000
0.535000 0.147500 0.310000
0.656250 0.147500 0.310000
0.777500 0.147500 0.310000
0.898750 0.147500 0.310000
1.000000 0.147500 0.310000
0.050000 0.265000 0.310000
0.171250 0.265000 0.310000
0.292500 0.265000 0.310000
0.413750 0.265000 0.310000
0.535000 0.265000 0.310000
0.656250 0.265000 0.310000
0.777500 0.265000 0.310000
0.898750 0.265000 0.310000
1.000000 0.265000 0.310000
0.050000 0.382500 0.310000
0.171250 0.382500 0.310000
0.292500 0.382500 0.310000
0.413750 0.382500 0.310000
0.535000 0.382500 0.310000
0.656250 0.382500 0.310000
0.777500 0.382500 0.310000
0.898750 0.382500 0.310000
1.000000 0.382500 0.310000
0.050000 0.500000 0.310000
0.171250 0.500000 0.310000
0.292500 0.500000 0.310000
0.413750 0.500000 0.310000
0.535000 0.500000 0.310000
0.656250 0.500000 0.310000
0.777500 0.500000 0.310000
0.898750 0.500000 0.310000
1.000000 0.500000 0.310000
0.050000 0.617500 0.310000
0.171250 0.617500 0.310000
0.292500 0.617500 0.310000
0.413750 0.617500 0.310000
0.535000 0.617500 0.310000
0.656250 0.617500 0.310000
0.777500 0.617500 0.310000
0.898750 0.617500 0.310000
1.000000 0.617500 0.310000
0.050000 0.735000 0.310000
0.171250 0.735000 0.310000
0.292500 0.735000 0.310000
0.413750 0.735000 0.310000
0.535000 0.735000 0.310000
0.656250 0.735000 0.310000
0.777500 0.735000 0.310000
0.898750 0.735000 0.310000
1.000000 0.735000 0.310000
0.050000 0.852500 0.310000
0.171250 0.852500 0.310000
0.292500 0.852500 0.310000
0.413750 0.852500 0.310000
0.535000 0.852500 0.310000
0.656250 0.852500 0.310000
0.777500 0.852500 0.310000
0.898750 0.852500 0.310000
1.000000 0.852500 0.310000
0.050000 0.970000 0.310000
0.171250 0.970000 0.310000
0.292500 0.970000 0.310000
0.413750 0.970000 0.310000
0.535000 0.970000 0.310000
0.656250 0.970000 0.310000
0.777500 0.970000 0.310000
0.898750 0.970000 0.310000
1.000000 0.970000 0.310000
0.050000 0.030000 0.410000
0.171250 0.030000 0.410000
0.292500 0.030000 0.410000
0.413750 0.030000 0.410000
0.535000 0.030000 0.410000
0.656250 0.030000 0.410000
0.777500 0.030000 0.410000
0.898750 0.030000 0.410000
1.000000 0.030000 0.410000
0.050000 0.147500 0.410000
0.171250 0.147500 0.410000
0.292500 0.147500 0.410000
0.413750 0.147500 0.410000
0.535000 0.147500 0.410000
0.656250 0.147500 0.410000
0.777500 0.147500 0.410000
0.898750 0.147500 0.410000
1.000000 0.147500 0.410000
0.050000 0.265000 0.410000
0.171250 0.265000 0.410000
0.292500 0.265000 0.410000
0.413750 0.265000 0.410000
0.535000 0.265000 0.410000
0.656250 0.265000 0.410000
0.777500 0.265000 0.410000
0.898750 0.265000 0.410000
1.000000 0.265000 0.410000
0.050000 0.382500 0.410000
0.171250 0.382500 0.410000
0.292500 0.382500 0.410000
0.413750 0.382500 0.410000
0.535000 0.382500 0.410000
0.656250 0.382500 0.410000
0.777500 0.382500 0.410000
0.898750 0.382500 0.410000
1.000000 0.382500 0.410000
0.050000 0.500000 0.410000
0.171250 0.500000 0.410000
0.292500 0.500000 0.410000
0.413750 0.500000 0.410000
0.535000 0.500000 0.410000
0.656250 0.500000 0.410000
0.777500 0.500000 0.410000
0.898750 0.500000 0.410000
1.000000 0.500000 0.410000
0.050000 0.617500 0.410000
0.171250 0.617500 0.410000
0.292500 0.617500 0.410000
0.413750 0.617500 0.410000
0.535000 0.617500 0.410000
0.656250 0.617500 0.410000
0.777500 0.617500 0.410000
0.898750 0.617500 0.410000
1.000000 0.617500 0.410000
0.050000 0.735000 0.410000
0.171250 0.735000 0.410000
0.292500 0.735000 0.410000
0.413750 0.735000 0.410000
0.535000 0.735000 0.410000
0.656250 0.735000 0.410000
0.777500 0.735000 0.410000
0.898750 0.735000 0.410000
1.000000 0.735000 0.410000
0.050000 0.852500 0.410000
0.171250 0.852500 0.410000
0.292500 0.852500 0.410000
0.413750 0.852500 0.410000
0.535000 0.852500 0.410000
0.656250 0.852500 0.410000
0.777500 0.852500 0.410000
0.898750 0.852500 0.410000
1.000000 0.852500 0.410000
0.050000 0.970000 0.410000
0.171250 0.970000 0.410000
0.292500 0.970000 0.410000
0.413750 0.970000 0.410000
0.535000 0.970000 0.410000
0.656250 0.970000 0.410000
0.777500 0.970000 0.410000
0.898750 0.970000 0.410000
1.000000 0.970000 0.410000
0.050000 0.030000 0.510000
0.171250 0.030000 0.510000
0.292500 0.030000 0.510000
0.413750 0.030000 0.510000
0.535000 0.030000 0.510000
0.656250 0.030000 0.510000
0.777500 0.030000 0.510000
0.898750 0.030000 0.510000
1.000000 0.030000 0.510000
0.050000 0.147500 0.510000
0.171250 0.147500 0.510000
0.292500 0.147500 0.510000
0.413750 0.147500 0.510000
0.535000 0.147500 0.510000
0.656250 0.147500 0.510000
0.777500 0.147500 0.510000
0.898750 0.147500 0.510000
1.000000 0.147500 0.510000
0.050000 0.265000 0.510000
0.171250 0.265000 0.510000
0.292500 0.265000 0.510000
0.413750 0.265000 0.510000
0.535000 0.265000 0.510000
0.656250 0.265000 0.510000
0.777500 0.265000 0.510000
0.898750 0.265000 0.510000
1.000000 0.265000 0.510000
0.050000 0.382500 0.510000
0.171250 0.382500 0.510000
0.292500 0.382500 0.510000
0.413750 0.382500 0.510000
0.535000 0.382500 0.510000
0.656250 0.382500 0.510000
0.777500 0.382500 0.510000
0.898750 0.382500 0.510000
1.000000 0.382500 0.510000
0.050000 0.500000 0.510000
0.171250 0.500000 0.510000
0.292500 0.500000 0.510000
0.413750 0.500000 0.510000
0.535000 0.500000 0.510000
0.656250 0.500000 0.510000
0.777500 0.500000 0.510000
0.898750 0.500000 0.510000
1.000000 0.500000 0.510000
0.050000 0.617500 0.510000
0.171250 0.617500 0.510000
0.292500 0.617500 0.510000
0.413750 0.617500 0.510000
0.535000 0.617500 0.510000
0.656250 0.617500 0.510000
0.777500 0.617500 0.510000
0.898750 0.617500 0.510000
1.000000 0.617500 0.510000
0.050000 0.735000 0.510000
0.171250 0.735000 0.510000
0.292500 0.735000 0.510000
0.413750 0.735000 0.510000
0.535000 0.735000 0.510000
0.656250 0.735000 0.510000
0.777500 0.735000 0.510000
0.898750 0.735000 0.510000
1.000000 0.735000 0.510000
0.050000 0.852500 0.510000
0.171250 0.852500 0.510000
0.292500 0.852500 0.510000
0.413750 0.852500 0.510000
0.535000 0.852500 0.510000
0.656250 0.852500 0.510000
0.777500 0.852500 0.510000
0.898750 0.852500 0.510000
1.000000 0.852500 0.510000
0.050000 0.970000 0.510000
0.171250 0.970000 0.510000
0.292500 0.970000 0.510000
0.413750 0.970000 0.510000
0.535000 0.970000 0.510000
0.656250 0.970000 0.510000
0.777500 0.970000 0.510000
0.898750 0.970000 0.510000
1.000000 0.970000 0.510000
0.050000 0.030000 0.610000
0.171250 0.030000 0.610000
0.292500 0.030000 0.610000
0.413750 0.030000 0.610000
0.535000 0.030000 0.610000
0.656250 0.030000 0.610000
0.777500 0.030000 0.610000
0.898750 0.030000 0.610000
1.000000 0.030000 0.610000
0.050000 0.147500 0.610000
0.171250 0.147500 0.610000
0.292500 0.147500 0.610000
0.413750 0.147500 0.610000
0.535000 0.147500 0.610000
0.656250 0.147500 0.610000
0.777500 0.147500 0.610000
0.898750 0.147500 0.610000
1.000000 0.147500 0.610000
0.050000 0.265000 0.610000
0.171250 0.265000 0.610000
0.292500 0.265000 0.610000
0.413750 0.265000 0.610000
0.535000 0.265000 0.610000
0.656250 0.265000 0.610000
0.777500 0.265000 0.610000
0.898750 0.265000 0.610000
1.000000 0.265000 0.610000
0.050000 0.382500 0.610000
0.171250 0.382500 0.610000
0.292500 0.382500 0.610000
0.413750 0.382500 0.610000
0.535000 0.382500 0.610000
0.656250 0.382500 0.610000
0.777500 0.382500 0.610000
0.898750 0.382500 0.610000
1.000000 0.382500 0.610000
0.050000 0.500000 0.610000
0.171250 0.500000 0.610000
0.292500 0.500000 0.610000
0.413750 0.500000 0.610000
0.535000 0.500000 0.610000
0.656250 0.500000 0.610000
0.777500 0.500000 0.610000
0.898750 0.500000 0.610000
1.000000 0.500000 0.610000
0.050000 0.617500 0.610000
0.171250 0.617500 0.610000
0.292500 0.617500 0.610000
0.413750 0.617500 0.610000
0.535000 0.617500 0.610000
0.656250 0.617500 0.610000
0.777500 0.617500 0.610000
0.898750 0.617500 0.610000
1.000000 0.617500 0.610000
0.050000 0.735000 0.610000
0.171250 0.735000 0.610000
0.292500 0.735000 0.610000
0.413750 0.735000 0.610000
0.535000 0.735000 0.610000
0.656250 0.735000 0.610000
0.777500 0.735000 0.610000
0.898750 0.735000 0.610000
1.000000 0.735000 0.610000
0.050000 0.852500 0.610000
0.171250 0.852500 0.610000
0.292500 0.852500 0.610000
0.413750 0.852500 0.610000
0.535000 0.852500 0.610000
0.656250 0.852500 0.610000
0.777500 0.852500 0.610000
0.898750 0.852500 0.610000
1.000000 0.852500 0.610000
0.050000 0.970000 0.610000
0.171250 0.970000 0.610000
0.292500 0.970000 0.610000
0.413750 0.970000 0.610000
0.535000 0.970000 0.610000
0.656250 0.970000 0.610000
0.777500 0.970000 0.610000
0.898750 0.970000 0.610000
1.000000 0.970000 0.610000
0.050000 0.030000 0.710000
0.171250 0.030000 0.710000
0.292500 0.030000 0.710000
0.413750 0.030000 0.710000
0.535000 0.030000 0.710000
0.656250 0.030000 0.710000
0.777500 0.030000 0.710000
0.898750 0.030000 0.710000
1.000000 0.030000 0.710000
0.050000 0.147500 0.710000
0.171250 0.147500 0.710000
0.292500 0.147500 0.710000
0.413750 0.147500 0.710000
0.535000 0.147500 0.710000
0.656250 0.147500 0.710000
0.777500 0.147500 0.710000
0.898750 0.147500 0.710000
1.000000 0.147500 0.710000
0.050000 0.265000 0.710000
0.171250 0.265000 0.710000
0.292500 0.265000 0.710000
0.413750 0.265000 0.710000
0.535000 0.265000 0.710000
0.656250 0.265000 0.710000
0.777500 0.265000 0.710000
0.898750 0.265000 0.710000
1.000000 0.265000 0.710000
0.050000 0.382500 0.710000
0.171250 0.382500 0.710000
0.292500 0.382500 0.710000
0.413750 0.382500 0.710000
0.535000 0.382500 0.710000
0.656250 0.382500 0.710000
0.777500 0.382500 0.710000
0.898750 0.382500 0.710000
1.000000 0.382500 0.710000
0.050000 0.500000 0.710000
0.171250 0.500000 0.710000
0.292500 0.500000 0.710000
0.413750 0.500000 0.710000
0.535000 0.500000 0.710000
0.656250 0.500000 0.710000
0.777500 0.500000 0.710000
0.898750 0.500000 0.710000
1.000000 0.500000 0.710000
0.050000 0.617500 0.710000
0.171250 0.617500 0.710000
0.292500 0.617500 0.710000
0.413750 0.617500 0.710000
0.535000 0.617500 0.710000
0.656250 0.617500 0.710000
0.777500 0.617500 0.710000
0.898750 0.617500 0.710000
1.000000 0.617500 0.710000
0.050000 0.735000 0.710000
0.171250 0.735000 0.710000
0.292500 0.735000 0.710000
0.413750 0.735000 0.710000
0.535000 0.735000 0.710000
0.656250 0.735000 0.710000
0.777500 0.735000 0.710000
0.898750 0.735000 0.710000
1.000000 0.735000 0.710000
0.050000 0.852500 0.710000
0.171250 0.852500 0.710000
0.292500 0.852500 0.710000
0.413750 0.852500 0.710000
0.535000 0.852500 0.710000
0.656250 0.852500 0.710000
0.777500 0.852500 0.710000
0.898750 0.852500 0.710000
1.000000 0.852500 0.710000
0.050000 0.970000 0.710000
0.171250 0.970000 0.710000
0.292500 0.970000 0.710000
0.413750 0.970000 0.710000
0.535000 0.970000 0.710000
0.656250 0.970000 0.710000
0.777500 0.970000 0.710000
0.898750 0.970000 0.710000
1.000000 0.970000 0.710000
0.050000 0.030000 0.810000
0.171250 0.030000 0.810000
0.292500 0.030000 0.810000
0.413750 0.030000 0.810000
0.535000 0.030000 0.810000
0.656250 0.030000 0.810000
0.777500 0.030000 0.810000
0.898750 0.030000 0.810000
1.000000 0.030000 0.810000
0.050000 0.147500 0.810000
0.171250 0.147500 0.810000
0.292500 0.147500 0.810000
0.413750 0.147500 0.810000
0.535000 0.147500 0.810000
0.656250 0.147500 0.810000
0.777500 0.147500 0.810000
0.898750 0.147500 0.810000
1.000000 0.147500 0.810000
0.050000 0.265000 0.810000
0.171250 0.265000 0.810000
0.292500 0.265000 0.810000
0.413750 0.265000 0.810000
0.535000 0.265000 0.810000
0.656250 0.265000 0.810000
0.777500 0.265000 0.810000
0.898750 0.265000 0.810000
1.000000 0.265000 0.810000
0.050000 0.382500 0.810000
0.171250 0.382500 0.810000
0.292500 0.382500 0.810000
0.413750 0.382500 0.810000
0.535000 0.382500 0.810000
0.656250 0.382500 0.810000
0.777500 0.382500 0.810000
0.898750 0.382500 0.810000
1.000000 0.382500 0.810000
0.050000 0.500000 0.810000
0.171250 0.500000 0.810000
0.292500 0.500000 0.810000
0.413750 0.500000 0.810000
0.535000 0.500000 0.810000
0.656250 0.500000 0.810000
0.777500 0.500000 0.810000
0.898750 0.500000 0.810000
1.000000 0.500000 0.810000
0.050000 0.617500 0.810000
0.171250 0.617500 0.810000
0.292500 0.617500 0.810000
0.413750 0.617500 0.810000
0.535000 0.617500 0.810000
0.656250 0.617500 0.810000
0.777500 0.617500 0.810000
0.898750 0.617500 0.810000
1.000000 0.617500 0.810000
0.050000 0.735000 0.810000
0.171250 0.735000 0.810000
0.292500 0.735000 0.810000
0.413750 0.735000 0.810000
0.535000 0.735000 0.810000
0.656250 0.735000 0.810000
0.777500 0.735000 0.810000
0.898750 0.735000 0.810000
1.000000 0.735000 0.810000
0.050000 0.852500 0.810000
0.171250 0.852500 0.810000
0.292500 0.852500 0.810000
0.413750 0.852500 0.810000
0.535000 0.852500 0.810000
0.656250 0.852500 0.810000
0.777500 0.852500 0.810000
0.898750 0.852500 0.810000
1.000000 0.852500 0.810000
0.050000 0.970000 0.810000
0.171250 0.970000 0.810000
0.292500 0.970000 0.810000
0.413750 0.970000 0.810000
0.535000 0.970000 0.810000
0.656250 0.970000 0.810000
0.777500 0.970000 0.810000
0.898750 0.970000 0.810000
1.000000 0.970000 0.810000
