public/luts/Warm_Golden.cube
# © 2026 luttie. All rights reserved.
# This LUT is licensed for use within the luttie platform only.
# Unauthorized redistribution or resale is prohibited.
TITLE "Warm Golden Hour"
LUT_3D_SIZE 33
0.050000 0.030000 0.010000
0.080313 0.030000 0.010000
0.110625 0.030000 0.010000
0.140938 0.030000 0.010000
0.171250 0.030000 0.010000
0.201563 0.030000 0.010000
0.231875 0.030000 0.010000
0.262188 0.030000 0.010000
0.292500 0.030000 0.010000
0.322813 0.030000 0.010000
0.353125 0.030000 0.010000
0.383437 0.030000 0.010000
0.413750 0.030000 0.010000
0.444062 0.030000 0.010000
0.474375 0.030000 0.010000
0.504688 0.030000 0.010000
0.535000 0.030000 0.010000
0.565312 0.030000 0.010000
0.595625 0.030000 0.010000
0.625938 0.030000 0.010000
0.656250 0.030000 0.010000
0.686563 0.030000 0.010000
0.716875 0.030000 0.010000
0.747188 0.030000 0.010000
0.777500 0.030000 0.010000
0.807813 0.030000 0.010000
0.838125 0.030000 0.010000
0.868438 0.030000 0.010000
0.898750 0.030000 0.010000
0.929063 0.030000 0.010000
0.959375 0.030000 0.010000
0.989688 0.030000 0.010000
1.000000 0.030000 0.010000
0.050000 0.059375 0.010000
0.080313 0.059375 0.010000
0.110625 0.059375 0.010000
0.140938 0.059375 0.010000
0.171250 0.059375 0.010000
0.201563 0.059375 0.010000
0.231875 0.059375 0.010000
0.262188 0.059375 0.010000
0.292500 0.059375 0.010000
0.322813 0.059375 0.010000
0.353125 0.059375 0.010000
0.383437 0.059375 0.010000
0.413750 0.059375 0.010000
0.444062 0.059375 0.010000
0.474375 0.059375 0.010000
0.504688 0.059375 0.010000
0.535000 0.059375 0.010000
0.565312 0.059375 0.010000
0.595625 0.059375 0.010000
0.625938 0.059375 0.010000
0.656250 0.059375 0.010000
0.686563 0.059375 0.010000
0.716875 0.059375 0.010000
0.747188 0.059375 0.010000
0.777500 0.059375 0.010000
0.807813 0.059375 0.010000
0.838125 0.059375 0.010000
0.868438 0.059375 0.010000
0.898750 0.059375 0.010000
0.929063 0.059375 0.010000
0.959375 0.059375 0.010000
0.989688 0.059375 0.010000
1.000000 0.059375 0.010000
0.050000 0.088750 0.010000
0.080313 0.088750 0.010000
0.110625 0.088750 0.010000
0.140938 0.088750 0.010000
0.171250 0.088750 0.010000
0.201563 0.088750 0.010000
0.231875 0.088750 0.010000
0.262188 0.088750 0.010000
0.292500 0.088750 0.010000
0.322813 0.088750 0.010000
0.353125 0.088750 0.010000
0.383437 0.088750 0.010000
0.413750 0.088750 0.010000
0.444062 0.088750 0.010000
0.474375 0.088750 0.010000
0.504688 0.088750 0.010000
0.535000 0.088750 0.010000
0.565312 0.088750 0.010000
0.595625 0.088750 0.010000
0.625938 0.088750 0.010000
0.656250 0.088750 0.010000
0.686563 0.088750 0.010000
0.716875 0.088750 0.010000
0.747188 0.088750 0.010000
0.777500 0.088750 0.010000
0.807813 0.088750 0.010000
0.838125 0.088750 0.010000
0.868438 0.088750 0.010000
0.898750 0.088750 0.010000
0.929063 0.088750 0.010000
0.959375 0.088750 0.010000
0.989688 0.088750 0.010000
1.000000 0.088750 0.010000
0.050000 0.118125 0.010000
0.080313 0.118125 0.010000
0.110625 0.118125 0.010000
0.140938 0.118125 0.010000
0.171250 0.118125 0.010000
0.201563 0.118125 0.010000
0.231875 0.118125 0.010000
0.262188 0.118125 0.010000
0.292500 0.118125 0.010000
0.322813 0.118125 0.010000
0.353125 0.118125 0.010000
0.383437 0.118125 0.010000
0.413750 0.118125 0.010000
0.444062 0.118125 0.010000
0.474375 0.118125 0.010000
0.504688 0.118125 0.010000
0.535000 0.118125 0.010000
0.565312 0.118125 0.010000
0.595625 0.118125 0.010000
0.625938 0.118125 0.010000
0.656250 0.118125 0.010000
0.686563 0.118125 0.010000
0.716875 0.118125 0.010000
0.747188 0.118125 0.010000
0.777500 0.118125 0.010000
0.807813 0.118125 0.010000
0.838125 0.118125 0.010000
0.868438 0.118125 0.010000
0.898750 0.118125 0.010000
0.929063 0.118125 0.010000
0.959375 0.118125 0.010000
0.989688 0.118125 0.010000
1.000000 0.118125 0.010000
0.050000 0.147500 0.010000
0.080313 0.147500 0.010000
0.110625 0.147500 0.010000
0.140938 0.147500 0.010000
0.171250 0.147500 0.010000
0.201563 0.147500 0.010000
0.231875 0.147500 0.010000
0.262188 0.147500 0.010000
0.292500 0.147500 0.010000
0.322813 0.147500 0.010000
0.353125 0.147500 0.010000
0.383437 0.147500 0.010000
0.413750 0.147500 0.010000
0.444062 0.147500 0.010000
0.474375 0.147500 0.010000
0.504688 0.147500 0.010000
0.535000 0.147500 0.010000
0.565312 0.147500 0.010000
0.595625 0.147500 0.010000
0.625938 0.147500 0.010000
0.656250 0.147500 0.010000
0.686563 0.147500 0.010000
0.716875 0.147500 0.010000
0.747188 0.147500 0.010000
0.777500 0.147500 0.010000
0.807813 0.147500 0.010000
0.838125 0.147500 0.010000
0.868438 0.147500 0.010000
0.898750 0.147500 0.010000
0.929063 0.147500 0.010000
0.959375 0.147500 0.010000
0.989688 0.147500 0.010000
1.000000 0.147500 0.010000
0.050000 0.176875 0.010000
0.080313 0.176875 0.010000
0.110625 0.176875 0.010000
0.140938 0.176875 0.010000
0.171250 0.176875 0.010000
0.201563 0.176875 0.010000
0.231875 0.176875 0.010000
0.262188 0.176875 0.010000
0.292500 0.176875 0.010000
0.322813 0.176875 0.010000
0.353125 0.176875 0.010000
0.383437 0.176875 0.010000
0.413750 0.176875 0.010000
0.444062 0.176875 0.010000
0.474375 0.176875 0.010000
0.504688 0.176875 0.010000
0.535000 0.176875 0.010000
0.565312 0.176875 0.010000
0.595625 0.176875 0.010000
0.625938 0.176875 0.010000
0.656250 0.176875 0.010000
0.686563 0.176875 0.010000
0.716875 0.176875 0.010000
0.747188 0.176875 0.010000
0.777500 0.176875 0.010000
0.807813 0.176875 0.010000
0.838125 0.176875 0.010000
0.868438 0.176875 0.010000
0.898750 0.176875 0.010000
0.929063 0.176875 0.010000
0.959375 0.176875 0.010000
0.989688 0.176875 0.010000
1.000000 0.176875 0.010000
0.050000 0.206250 0.010000
0.080313 0.206250 0.010000
0.110625 0.206250 0.010000
0.140938 0.206250 0.010000
0.171250 0.206250 0.010000
0.201563 0.206250 0.010000
0.231875 0.206250 0.010000
0.262188 0.206250 0.010000
0.292500 0.206250 0.010000
0.322813 0.206250 0.010000
0.353125 0.206250 0.010000
0.383437 0.206250 0.010000
0.413750 0.206250 0.010000
0.444062 0.206250 0.010000
0.474375 0.206250 0.010000
0.504688 0.206250 0.010000
0.535000 0.206250 0.010000
0.565312 0.206250 0.010000
0.595625 0.206250 0.010000
0.625938 0.206250 0.010000
0.656250 0.206250 0.010000
0.686563 0.206250 0.010000
0.716875 0.206250 0.010000
0.747188 0.206250 0.010000
0.777500 0.206250 0.010000
0.807813 0.206250 0.010000
0.838125 0.206250 0.010000
0.868438 0.206250 0.010000
0.898750 0.206250 0.010000
0.929063 0.206250 0.010000
0.959375 0.206250 0.010000
0.989688 0.206250 0.010000
1.000000 0.206250 0.010000
0.050000 0.235625 0.010000
0.080313 0.235625 0.010000
0.110625 0.235625 0.010000
0.140938 0.235625 0.010000
0.171250 0.235625 0.010000
0.201563 0.235625 0.010000
0.231875 0.235625 0.010000
0.262188 0.235625 0.010000
0.292500 0.235625 0.010000
0.322813 0.235625 0.010000
0.353125 0.235625 0.010000
0.383437 0.235625 0.010000
0.413750 0.235625 0.010000
0.444062 0.235625 0.010000
0.474375 0.235625 0.010000
0.504688 0.235625 0.010000
0.535000 0.235625 0.010000
0.565312 0.235625 0.010000
0.595625 0.235625 0.010000
0.625938 0.235625 0.010000
0.656250 0.235625 0.010000
0.686563 0.235625 0.010000
0.716875 0.235625 0.010000
0.747188 0.235625 0.010000
0.777500 0.235625 0.010000
0.807813 0.235625 0.010000
0.838125 0.235625 0.010000
0.868438 0.235625 0.010000
0.898750 0.235625 0.010000
0.929063 0.235625 0.010000
0.959375 0.235625 0.010000
0.989688 0.235625 0.010000
1.000000 0.235625 0.010000
0.050000 0.265000 0.010000
0.080313 0.265000 0.010000
0.110625 0.265000 0.010000
0.140938 0.265000 0.010000
0.171250 0.265000 0.010000
0.201563 0.265000 0.010000
0.231875 0.265000 0.010000
0.262188 0.265000 0.010000
0.292500 0.265000 0.010000
0.322813 0.265000 0.010000
0.353125 0.265000 0.010000
0.383437 0.265000 0.010000
0.413750 0.265000 0.010000
0.444062 0.265000 0.010000
0.474375 0.265000 0.010000
0.504688 0.265000 0.010000
0.535000 0.265000 0.010000
0.565312 0.265000 0.010000
0.595625 0.265000 0.010000
0.625938 0.265000 0.010000
0.656250 0.265000 0.010000
0.686563 0.265000 0.010000
0.716875 0.265000 0.010000
0.747188 0.265000 0.010000
0.777500 0.265000 0.010000
0.807813 0.265000 0.010000
0.838125 0.265000 0.010000
0.868438 0.265000 0.010000
0.898750 0.265000 0.010000
0.929063 0.265000 0.010000
0.959375 0.265000 0.010000
0.989688 0.265000 0.010000
1.000000 0.265000 0.010000
0.050000 0.294375 0.010000
0.080313 0.294375 0.010000
0.110625 0.294375 0.010000
0.140938 0.294375 0.010000
0.171250 0.294375 0.010000
0.201563 0.294375 0.010000
0.231875 0.294375 0.010000
0.262188 0.294375 0.010000
0.292500 0.294375 0.010000
0.322813 0.294375 0.010000
0.353125 0.294375 0.010000
0.383437 0.294375 0.010000
0.413750 0.294375 0.010000
0.444062 0.294375 0.010000
0.474375 0.294375 0.010000
0.504688 0.294375 0.010000
0.535000 0.294375 0.010000
0.565312 0.294375 0.010000
0.595625 0.294375 0.010000
0.625938 0.294375 0.010000
0.656250 0.294375 0.010000
0.686563 0.294375 0.010000
0.716875 0.294375 0.010000
0.747188 0.294375 0.010000
0.777500 0.294375 0.010000
0.807813 0.294375 0.010000
0.838125 0.294375 0.010000
0.868438 0.294375 0.010000
0.898750 0.294375 0.010000
0.929063 0.294375 0.010000
0.959375 0.294375 0.010000
0.989688 0.294375 0.010000
1.000000 0.294375 0.010000
0.050000 0.323750 0.010000
0.080313 0.323750 0.010000
0.110625 0.323750 0.010000
0.140938 0.323750 0.010000
0.171250 0.323750 0.010000
0.201563 0.323750 0.010000
0.231875 0.323750 0.010000
0.262188 0.323750 0.010000
0.292500 0.323750 0.010000
0.322813 0.323750 0.010000
0.353125 0.323750 0.010000
0.383437 0.323750 0.010000
0.413750 0.323750 0.010000
0.444062 0.323750 0.010000
0.474375 0.323750 0.010000
0.504688 0.323750 0.010000
0.535000 0.323750 0.010000
0.565312 0.323750 0.010000
0.595625 0.323750 0.010000
0.625938 0.323750 0.010000
0.656250 0.323750 0.010000
0.686563 0.323750 0.010000
0.716875 0.323750 0.010000
0.747188 0.323750 0.010000
0.777500 0.323750 0.010000
0.807813 0.323750 0.010000
0.838125 0.323750 0.010000
0.868438 0.323750 0.010000
0.898750 0.323750 0.010000
0.929063 0.323750 0.010000
0.959375 0.323750 0.010000
0.989688 0.323750 0.010000
1.000000 0.323750 0.010000
0.050000 0.353125 0.010000
0.080313 0.353125 0.010000
0.110625 0.353125 0.010000
0.140938 0.353125 0.010000
0.171250 0.353125 0.010000
0.201563 0.353125 0.010000
0.231875 0.353125 0.010000
0.262188 0.353125 0.010000
0.292500 0.353125 0.010000
0.322813 0.353125 0.010000
0.353125 0.353125 0.010000
0.383437 0.353125 0.010000
0.413750 0.353125 0.010000
0.444062 0.353125 0.010000
0.474375 0.353125 0.010000
0.504688 0.353125 0.010000
0.535000 0.353125 0.010000
0.565312 0.353125 0.010000
0.595625 0.353125 0.010000
0.625938 0.353125 0.010000
0.656250 0.353125 0.010000
0.686563 0.353125 0.010000
0.716875 0.353125 0.010000
0.747188 0.353125 0.010000
0.777500 0.353125 0.010000
0.807813 0.353125 0.010000
0.838125 0.353125 0.010000
0.868438 0.353125 0.010000
0.898750 0.353125 0.010000
0.929063 0.353125 0.010000
0.959375 0.353125 0.010000
0.989688 0.353125 0.010000
1.000000 0.353125 0.010000
0.050000 0.382500 0.010000
0.080313 0.382500 0.010000
0.110625 0.382500 0.010000
0.140938 0.382500 0.010000
0.171250 0.382500 0.010000
0.201563 0.382500 0.010000
0.231875 0.382500 0.010000
0.262188 0.382500 0.010000
0.292500 0.382500 0.010000
0.322813 0.382500 0.010000
0.353125 0.382500 0.010000
0.383437 0.382500 0.010000
0.413750 0.382500 0.010000
0.444062 0.382500 0.010000
0.474375 0.382500 0.010000
0.504688 0.382500 0.010000
0.535000 0.382500 0.010000
0.565312 0.382500 0.010000
0.595625 0.382500 0.010000
0.625938 0.382500 0.010000
0.656250 0.382500 0.010000
0.686563 0.382500 0.010000
0.716875 0.382500 0.010000
0.747188 0.382500 0.010000
0.777500 0.382500 0.010000
0.807813 0.382500 0.010000
0.838125 0.382500 0.010000
0.868438 0.382500 0.010000
0.898750 0.382500 0.010000
0.929063 0.382500 0.010000
0.959375 0.382500 0.010000
0.989688 0.382500 0.010000
1.000000 0.382500 0.010000
0.050000 0.411875 0.010000
0.080313 0.411875 0.010000
0.110625 0.411875 0.010000
0.140938 0.411875 0.010000
0.171250 0.411875 0.010000
0.201563 0.411875 0.010000
0.231875 0.411875 0.010000
0.262188 0.411875 0.010000
0.292500 0.411875 0.010000
0.322813 0.411875 0.010000
0.353125 0.411875 0.010000
0.383437 0.411875 0.010000
0.413750 0.411875 0.010000
0.444062 0.411875 0.010000
0.474375 0.411875 0.010000
0.504688 0.411875 0.010000
0.535000 0.411875 0.010000
0.565312 0.411875 0.010000
0.595625 0.411875 0.010000
0.625938 0.411875 0.010000
0.656250 0.411875 0.010000
0.686563 0.411875 0.010000
0.716875 0.411875 0.010000
0.747188 0.411875 0.010000
0.777500 0.411875 0.010000
0.807813 0.411875 0.010000
0.838125 0.411875 0.010000
0.868438 0.411875 0.010000
0.898750 0.411875 0.010000
0.929063 0.411875 0.010000
0.959375 0.411875 0.010000
0.989688 0.411875 0.010000
1.000000 0.411875 0.010000
0.050000 0.441250 0.010000
0.080313 0.441250 0.010000
0.110625 0.441250 0.010000
0.140938 0.441250 0.010000
0.171250 0.441250 0.010000
0.201563 0.441250 0.010000
0.231875 0.441250 0.010000
0.262188 0.441250 0.010000
0.292500 0.441250 0.010000
0.322813 0.441250 0.010000
0.353125 0.441250 0.010000
0.383437 0.441250 0.010000
0.413750 0.441250 0.010000
0.444062 0.441250 0.010000
0.474375 0.441250 0.010000
0.504688 0.441250 0.010000
0.535000 0.441250 0.010000
0.565312 0.441250 0.010000
0.595625 0.441250 0.010000
0.625938 0.441250 0.010000
0.656250 0.441250 0.010000
0.686563 0.441250 0.010000
0.716875 0.441250 0.010000
0.747188 0.441250 0.010000
0.777500 0.441250 0.010000
0.807813 0.441250 0.010000
0.838125 0.441250 0.010000
0.868438 0.441250 0.010000
0.898750 0.441250 0.010000
0.929063 0.441250 0.010000
0.959375 0.441250 0.010000
0.989688 0.441250 0.010000
1.000000 0.441250 0.010000
0.050000 0.470625 0.010000
0.080313 0.470625 0.010000
0.110625 0.470625 0.010000
0.140938 0.470625 0.010000
0.171250 0.470625 0.010000
0.201563 0.470625 0.010000
0.231875 0.470625 0.010000
0.262188 0.470625 0.010000
0.292500 0.470625 0.010000
0.322813 0.470625 0.010000
0.353125 0.470625 0.010000
0.383437 0.470625 0.010000
0.413750 0.470625 0.010000
0.444062 0.470625 0.010000
0.474375 0.470625 0.010000
0.504688 0.470625 0.010000
0.535000 0.470625 0.010000
0.565312 0.470625 0.010000
0.595625 0.470625 0.010000
0.625938 0.470625 0.010000
0.656250 0.470625 0.010000
0.686563 0.470625 0.010000
0.716875 0.470625 0.010000
0.747188 0.470625 0.010000
0.777500 0.470625 0.010000
0.807813 0.470625 0.010000
0.838125 0.470625 0.010000
0.868438 0.470625 0.010000
0.898750 0.470625 0.010000
0.929063 0.470625 0.010000
0.959375 0.470625 0.010000
0.989688 0.470625 0.010000
1.000000 0.470625 0.010000
0.050000 0.500000 0.010000
0.080313 0.500000 0.010000
0.110625 0.500000 0.010000
0.140938 0.500000 0.010000
0.171250 0.500000 0.010000
0.201563 0.500000 0.010000
0.231875 0.500000 0.010000
0.262188 0.500000 0.010000
0.292500 0.500000 0.010000
0.322813 0.500000 0.010000
0.353125 0.500000 0.010000
0.383437 0.500000 0.010000
0.413750 0.500000 0.010000
0.444062 0.500000 0.010000
0.474375 0.500000 0.010000
0.504688 0.500000 0.010000
0.535000 0.500000 0.010000
0.565312 0.500000 0.010000
0.595625 0.500000 0.010000
0.625938 0.500000 0.010000
0.656250 0.500000 0.010000
0.686563 0.500000 0.010000
0.716875 0.500000 0.010000
0.747188 0.500000 0.010000
0.777500 0.500000 0.010000
0.807813 0.500000 0.010000
0.838125 0.500000 0.010000
0.868438 0.500000 0.010000
0.898750 0.500000 0.010000
0.929063 0.500000 0.010000
0.959375 0.500000 0.010000
0.989688 0.500000 0.010000
1.000000 0.500000 0.010000
0.050000 0.529375 0.010000
0.080313 0.529375 0.010000
0.110625 0.529375 0.010000
0.140938 0.529375 0.010000
0.171250 0.529375 0.010000
0.201563 0.529375 0.010000
0.231875 0.529375 0.010000
0.262188 0.529375 0.010000
0.292500 0.529375 0.010000
0.322813 0.529375 0.010000
0.353125 0.529375 0.010000
0.383437 0.529375 0.010000
0.413750 0.529375 0.010000
0.444062 0.529375 0.010000
0.474375 0.529375 0.010000
0.504688 0.529375 0.010000
0.535000 0.529375 0.010000
0.565312 0.529375 0.010000
0.595625 0.529375 0.010000
0.625938 0.529375 0.010000
0.656250 0.529375 0.010000
0.686563 0.529375 0.010000
0.716875 0.529375 0.010000
0.747188 0.529375 0.010000
0.777500 0.529375 0.010000
0.807813 0.529375 0.010000
0.838125 0.529375 0.010000
0.868438 0.529375 0.010000
0.898750 0.529375 0.010000
0.929063 0.529375 0.010000
0.959375 0.529375 0.010000
0.989688 0.529375 0.010000
1.000000 0.529375 0.010000
0.050000 0.558750 0.010000
0.080313 0.558750 0.010000
0.110625 0.558750 0.010000
0.140938 0.558750 0.010000
0.171250 0.558750 0.010000
0.201563 0.558750 0.010000
0.231875 0.558750 0.010000
0.262188 0.558750 0.010000
0.292500 0.558750 0.010000
0.322813 0.558750 0.010000
0.353125 0.558750 0.010000
0.383437 0.558750 0.010000
0.413750 0.558750 0.010000
0.444062 0.558750 0.010000
0.474375 0.558750 0.010000
0.504688 0.558750 0.010000
0.535000 0.558750 0.010000
0.565312 0.558750 0.010000
0.595625 0.558750 0.010000
0.625938 0.558750 0.010000
0.656250 0.558750 0.010000
0.686563 0.558750 0.010000
0.716875 0.558750 0.010000
0.747188 0.558750 0.010000
0.777500 0.558750 0.010000
0.807813 0.558750 0.010000
0.838125 0.558750 0.010000
0.868438 0.558750 0.010000
0.898750 0.558750 0.010000
0.929063 0.558750 0.010000
0.959375 0.558750 0.010000
0.989688 0.558750 0.010000
1.000000 0.558750 0.010000
0.050000 0.588125 0.010000
0.080313 0.588125 0.010000
0.110625 0.588125 0.010000
0.140938 0.588125 0.010000
0.171250 0.588125 0.010000
0.201563 0.588125 0.010000
0.231875 0.588125 0.010000
0.262188 0.588125 0.010000
0.292500 0.588125 0.010000
0.322813 0.588125 0.010000
0.353125 0.588125 0.010000
0.383437 0.588125 0.010000
0.413750 0.588125 0.010000
0.444062 0.588125 0.010000
0.474375 0.588125 0.010000
0.504688 0.588125 0.010000
0.535000 0.588125 0.010000
0.565312 0.588125 0.010000
0.595625 0.588125 0.010000
0.625938 0.588125 0.010000
0.656250 0.588125 0.010000
0.686563 0.588125 0.010000
0.716875 0.588125 0.010000
0.747188 0.588125 0.010000
0.777500 0.588125 0.010000
0.807813 0.588125 0.010000
0.838125 0.588125 0.010000
0.868438 0.588125 0.010000
0.898750 0.588125 0.010000
0.929063 0.588125 0.010000
0.959375 0.588125 0.010000
0.989688 0.588125 0.010000
1.000000 0.588125 0.010000
0.050000 0.617500 0.010000
0.080313 0.617500 0.010000
0.110625 0.617500 0.010000
0.140938 0.617500 0.010000
0.171250 0.617500 0.010000
0.201563 0.617500 0.010000
0.231875 0.617500 0.010000
0.262188 0.617500 0.010000
0.292500 0.617500 0.010000
0.322813 0.617500 0.010000
0.353125 0.617500 0.010000
0.383437 0.617500 0.010000
0.413750 0.617500 0.010000
0.444062 0.617500 0.010000
0.474375 0.617500 0.010000
0.504688 0.617500 0.010000
0.535000 0.617500 0.010000
0.565312 0.617500 0.010000
0.595625 0.617500 0.010000
0.625938 0.617500 0.010000
0.656250 0.617500 0.010000
0.686563 0.617500 0.010000
0.716875 0.617500 0.010000
0.747188 0.617500 0.010000
0.777500 0.617500 0.010000
0.807813 0.617500 0.010000
0.838125 0.617500 0.010000
0.868438 0.617500 0.010000
0.898750 0.617500 0.010000
0.929063 0.617500 0.010000
0.959375 0.617500 0.010000
0.989688 0.617500 0.010000
1.000000 0.617500 0.010000
0.050000 0.646875 0.010000
0.080313 0.646875 0.010000
0.110625 0.646875 0.010000
0.140938 0.646875 0.010000
0.171250 0.646875 0.010000
0.201563 0.646875 0.010000
0.231875 0.646875 0.010000
0.262188 0.646875 0.010000
0.292500 0.646875 0.010000
0.322813 0.646875 0.010000
0.353125 0.646875 0.010000
0.383437 0.646875 0.010000
0.413750 0.646875 0.010000
0.444062 0.646875 0.010000
0.474375 0.646875 0.010000
0.504688 0.646875 0.010000
0.535000 0.646875 0.010000
0.565312 0.646875 0.010000
0.595625 0.646875 0.010000
0.625938 0.646875 0.010000
0.656250 0.646875 0.010000
0.686563 0.646875 0.010000
0.716875 0.646875 0.010000
0.747188 0.646875 0.010000
0.777500 0.646875 0.010000
0.807813 0.646875 0.010000
0.838125 0.646875 0.010000
0.868438 0.646875 0.010000
0.898750 0.646875 0.010000
0.929063 0.646875 0.010000
0.959375 0.646875 0.010000
0.989688 0.646875 0.010000
1.000000 0.646875 0.010000
0.050000 0.676250 0.010000
0.080313 0.676250 0.010000
0.110625 0.676250 0.010000
0.140938 0.676250 0.010000
0.171250 0.676250 0.010000
0.201563 0.676250 0.010000
0.231875 0.676250 0.010000
0.262188 0.676250 0.010000
0.292500 0.676250 0.010000
0.322813 0.676250 0.010000
0.353125 0.676250 0.010000
0.383437 0.676250 0.010000
0.413750 0.676250 0.010000
0.444062 0.676250 0.010000
0.474375 0.676250 0.010000
0.504688 0.676250 0.010000
0.535000 0.676250 0.010000
0.565312 0.676250 0.010000
0.595625 0.676250 0.010000
0.625938 0.676250 0.010000
0.656250 0.676250 0.010000
0.686563 0.676250 0.010000
0.716875 0.676250 0.010000
0.747188 0.676250 0.010000
0.777500 0.676250 0.010000
0.807813 0.676250 0.010000
0.838125 0.676250 0.010000
0.868438 0.676250 0.010000
0.898750 0.676250 0.010000
0.929063 0.676250 0.010000
0.959375 0.676250 0.010000
0.989688 0.676250 0.010000
1.000000 0.676250 0.010000
0.050000 0.705625 0.010000
0.080313 0.705625 0.010000
0.110625 0.705625 0.010000
0.140938 0.705625 0.010000
0.171250 0.705625 0.010000
0.201563 0.705625 0.010000
0.231875 0.705625 0.010000
0.262188 0.705625 0.010000
0.292500 0.705625 0.010000
0.322813 0.705625 0.010000
0.353125 0.705625 0.010000
0.383437 0.705625 0.010000
0.413750 0.705625 0.010000
0.444062 0.705625 0.010000
0.474375 0.705625 0.010000
0.504688 0.705625 0.010000
0.535000 0.705625 0.010000
0.565312 0.705625 0.010000
0.595625 0.705625 0.010000
0.625938 0.705625 0.010000
0.656250 0.705625 0.010000
0.686563 0.705625 0.010000
0.716875 0.705625 0.010000
0.747188 0.705625 0.010000
0.777500 0.705625 0.010000
0.807813 0.705625 0.010000
0.838125 0.705625 0.010000
0.868438 0.705625 0.010000
0.898750 0.705625 0.010000
0.929063 0.705625 0.010000
0.959375 0.705625 0.010000
0.989688 0.705625 0.010000
1.000000 0.705625 0.010000
0.050000 0.735000 0.010000
0.080313 0.735000 0.010000
0.110625 0.735000 0.010000
0.140938 0.735000 0.010000
0.171250 0.735000 0.010000
0.201563 0.735000 0.010000
0.231875 0.735000 0.010000
0.262188 0.735000 0.010000
0.292500 0.735000 0.010000
0.322813 0.735000 0.010000
0.353125 0.735000 0.010000
0.383437 0.735000 0.010000
0.413750 0.735000 0.010000
0.444062 0.735000 0.010000
0.474375 0.735000 0.010000
0.504688 0.735000 0.010000
0.535000 0.735000 0.010000
0.565312 0.735000 0.010000
0.595625 0.735000 0.010000
0.625938 0.735000 0.010000
0.656250 0.735000 0.010000
0.686563 0.735000 0.010000
0.716875 0.735000 0.010000
0.747188 0.735000 0.010000
0.777500 0.735000 0.010000
0.807813 0.735000 0.010000
0.838125 0.735000 0.010000
0.868438 0.735000 0.010000
0.898750 0.735000 0.010000
0.929063 0.735000 0.010000
0.959375 0.735000 0.010000
0.989688 0.735000 0.010000
1.000000 0.735000 0.010000
0.050000 0.764375 0.010000
0.080313 0.764375 0.010000
0.110625 0.764375 0.010000
0.140938 0.764375 0.010000
0.171250 0.764375 0.010000
0.201563 0.764375 0.010000
0.231875 0.764375 0.010000
0.262188 0.764375 0.010000
0.292500 0.764375 0.010000
0.322813 0.764375 0.010000
0.353125 0.764375 0.010000
0.383437 0.764375 0.010000
0.413750 0.764375 0.010000
0.444062 0.764375 0.010000
0.474375 0.764375 0.010000
0.504688 0.764375 0.010000
0.535000 0.764375 0.010000
0.565312 0.764375 0.010000
0.595625 0.764375 0.010000
0.625938 0.764375 0.010000
0.656250 0.764375 0.010000
0.686563 0.764375 0.010000
0.716875 0.764375 0.010000
0.747188 0.764375 0.010000
0.777500 0.764375 0.010000
0.807813 0.764375 0.010000
0.838125 0.764375 0.010000
0.868438 0.764375 0.010000
0.898750 0.764375 0.010000
0.929063 0.764375 0.010000
0.959375 0.764375 0.010000
0.989688 0.764375 0.010000
1.000000 0.764375 0.010000
0.050000 0.793750 0.010000
0.080313 0.793750 0.010000
0.110625 0.793750 0.010000
0.140938 0.793750 0.010000
0.171250 0.793750 0.010000
0.201563 0.793750 0.010000
0.231875 0.793750 0.010000
0.262188 0.793750 0.010000
0.292500 0.793750 0.010000
0.322813 0.793750 0.010000
0.353125 0.793750 0.010000
0.383437 0.793750 0.010000
0.413750 0.793750 0.010000
0.444062 0.793750 0.010000
0.474375 0.793750 0.010000
0.504688 0.793750 0.010000
0.535000 0.793750 0.010000
0.565312 0.793750 0.010000
0.595625 0.793750 0.010000
0.625938 0.793750 0.010000
0.656250 0.793750 0.010000
0.686563 0.793750 0.010000
0.716875 0.793750 0.010000
